(.../pcb-gcode-3.6.0.4/pcb-gcode.ulp)
(Copyright 2005 - 2012 by John Johnson)
(See readme.txt for licensing terms.)
(This file generated from the board:)
(.../gits_go_here/ESPlash/pcb/1.0/esplash.brd)
(Current profile is .../pcb-gcode-3.6.0.4/profiles/mach.pp  )
(This file generated 03/05/2021 14:57)
(Settings from pcb-machine.h)
(  Tool Size)
(0.2300  )
(Z Axis Settings)
(  High     Up        Down     Drill)
(12.7000 	2.5400  	-0.0350 	-1.8000 )
(spindle on time = 1.0000)
(milling depth = -1.7000)
(text depth = -0.0350)
(tool change at 12.7000 15.2400 25.4000 )
(feed rate xy = F508   )
(feed rate z  = F254   )
(Settings from pcb-defaults.h)
(isolate min = 0.0254)
(isolate max = 0.5080)
(isolate step = 0.1270)
(Generated top outlines, top drill, bottom outlines, )
(Unit of measure: mm)
(Metric Mode)
G21
(Absolute Coordinates)
G90
G00 X0.0000  Y0.0000  
M03
G04 P1.000000
G00 Z2.5400  
G00 X48.9153 Y13.2253 
G01 Z-0.0350 F254   
G01 X49.3141 Y13.3905 F508   
G01 X49.7459 Y13.3905 
G01 X50.1447 Y13.2253 
G01 X50.4499 Y12.9200 
G01 X50.6151 Y12.5212 
G01 X50.6151 Y10.2988 
G01 X50.4499 Y9.9000  
G01 X50.1447 Y9.5947  
G01 X49.7459 Y9.4295  
G01 X49.3141 Y9.4295  
G01 X48.9153 Y9.5947  
G01 X48.6101 Y9.9000  
G01 X48.4448 Y10.2988 
G01 X48.4448 Y12.5212 
G01 X48.6101 Y12.9200 
G01 X48.9153 Y13.2253 
G00 Z2.5400  
G00 X48.4943 Y12.3869 
G01 Z-0.0350 F254   
G01 X48.4943 Y10.4331 F508   
G01 X48.5198 Y10.2721 
G01 X48.5701 Y10.1171 
G01 X48.6441 Y9.9718  
G01 X48.7400 Y9.8399  
G01 X48.8553 Y9.7246  
G01 X48.9871 Y9.6288  
G01 X49.1324 Y9.5548  
G01 X49.2875 Y9.5044  
G01 X49.4485 Y9.4789  
G01 X49.6115 Y9.4789  
G01 X49.7725 Y9.5044  
G01 X49.9276 Y9.5548  
G01 X50.0729 Y9.6288  
G01 X50.2047 Y9.7246  
G01 X50.3200 Y9.8399  
G01 X50.4158 Y9.9718  
G01 X50.4899 Y10.1171 
G01 X50.5402 Y10.2721 
G01 X50.5657 Y10.4331 
G01 X50.5657 Y12.3869 
G01 X50.5402 Y12.5479 
G01 X50.4899 Y12.7029 
G01 X50.4158 Y12.8482 
G01 X50.3200 Y12.9801 
G01 X50.2047 Y13.0954 
G01 X50.0729 Y13.1912 
G01 X49.9276 Y13.2652 
G01 X49.7725 Y13.3156 
G01 X49.6115 Y13.3411 
G01 X49.4485 Y13.3411 
G01 X49.2875 Y13.3156 
G01 X49.1324 Y13.2652 
G01 X48.9871 Y13.1912 
G01 X48.8553 Y13.0954 
G01 X48.7400 Y12.9801 
G01 X48.6441 Y12.8482 
G01 X48.5701 Y12.7029 
G01 X48.5198 Y12.5479 
G01 X48.4943 Y12.3869 
G00 Z2.5400  
G00 X93.4547 Y31.1353 
G01 Z-0.0350 F254   
G01 X93.2895 Y31.5341 F508   
G01 X93.2895 Y31.9659 
G01 X93.4547 Y32.3647 
G01 X93.7600 Y32.6699 
G01 X94.1588 Y32.8351 
G01 X96.3812 Y32.8351 
G01 X96.7800 Y32.6699 
G01 X97.0853 Y32.3647 
G01 X97.2505 Y31.9659 
G01 X97.2505 Y31.5341 
G01 X97.0853 Y31.1353 
G01 X96.7800 Y30.8300 
G01 X96.3812 Y30.6648 
G01 X94.1588 Y30.6648 
G01 X93.7600 Y30.8300 
G01 X93.4547 Y31.1353 
G00 Z2.5400  
G00 X94.2931 Y30.7142 
G01 Z-0.0350 F254   
G01 X96.2469 Y30.7142 F508   
G01 X96.4079 Y30.7398 
G01 X96.5629 Y30.7901 
G01 X96.7082 Y30.8641 
G01 X96.8401 Y30.9600 
G01 X96.9554 Y31.0753 
G01 X97.0512 Y31.2071 
G01 X97.1252 Y31.3524 
G01 X97.1756 Y31.5075 
G01 X97.2011 Y31.6685 
G01 X97.2011 Y31.8315 
G01 X97.1756 Y31.9925 
G01 X97.1252 Y32.1476 
G01 X97.0512 Y32.2929 
G01 X96.9554 Y32.4247 
G01 X96.8401 Y32.5400 
G01 X96.7082 Y32.6359 
G01 X96.5629 Y32.7099 
G01 X96.4079 Y32.7602 
G01 X96.2469 Y32.7857 
G01 X94.2931 Y32.7857 
G01 X94.1321 Y32.7602 
G01 X93.9771 Y32.7099 
G01 X93.8318 Y32.6359 
G01 X93.6999 Y32.5400 
G01 X93.5846 Y32.4247 
G01 X93.4888 Y32.2929 
G01 X93.4148 Y32.1476 
G01 X93.3644 Y31.9925 
G01 X93.3389 Y31.8315 
G01 X93.3389 Y31.6685 
G01 X93.3644 Y31.5075 
G01 X93.4148 Y31.3524 
G01 X93.4888 Y31.2071 
G01 X93.5846 Y31.0753 
G01 X93.6999 Y30.9600 
G01 X93.8318 Y30.8641 
G01 X93.9771 Y30.7901 
G01 X94.1321 Y30.7398 
G01 X94.2931 Y30.7142 
G00 Z2.5400  
G00 X80.6653 Y13.2253 
G01 Z-0.0350 F254   
G01 X81.0641 Y13.3905 F508   
G01 X81.4959 Y13.3905 
G01 X81.8947 Y13.2253 
G01 X82.1999 Y12.9200 
G01 X82.3651 Y12.5212 
G01 X82.3651 Y10.2988 
G01 X82.1999 Y9.9000  
G01 X81.8947 Y9.5947  
G01 X81.4959 Y9.4295  
G01 X81.0641 Y9.4295  
G01 X80.6653 Y9.5947  
G01 X80.3601 Y9.9000  
G01 X80.1948 Y10.2988 
G01 X80.1948 Y12.5212 
G01 X80.3601 Y12.9200 
G01 X80.6653 Y13.2253 
G00 Z2.5400  
G00 X80.2443 Y12.3869 
G01 Z-0.0350 F254   
G01 X80.2443 Y10.4331 F508   
G01 X80.2698 Y10.2721 
G01 X80.3201 Y10.1171 
G01 X80.3941 Y9.9718  
G01 X80.4900 Y9.8399  
G01 X80.6053 Y9.7246  
G01 X80.7371 Y9.6288  
G01 X80.8824 Y9.5548  
G01 X81.0375 Y9.5044  
G01 X81.1985 Y9.4789  
G01 X81.3615 Y9.4789  
G01 X81.5225 Y9.5044  
G01 X81.6776 Y9.5548  
G01 X81.8229 Y9.6288  
G01 X81.9547 Y9.7246  
G01 X82.0700 Y9.8399  
G01 X82.1659 Y9.9718  
G01 X82.2399 Y10.1171 
G01 X82.2902 Y10.2721 
G01 X82.3157 Y10.4331 
G01 X82.3157 Y12.3869 
G01 X82.2902 Y12.5479 
G01 X82.2399 Y12.7029 
G01 X82.1659 Y12.8482 
G01 X82.0700 Y12.9801 
G01 X81.9547 Y13.0954 
G01 X81.8229 Y13.1912 
G01 X81.6776 Y13.2652 
G01 X81.5225 Y13.3156 
G01 X81.3615 Y13.3411 
G01 X81.1985 Y13.3411 
G01 X81.0375 Y13.3156 
G01 X80.8824 Y13.2652 
G01 X80.7371 Y13.1912 
G01 X80.6053 Y13.0954 
G01 X80.4900 Y12.9801 
G01 X80.3941 Y12.8482 
G01 X80.3201 Y12.7029 
G01 X80.2698 Y12.5479 
G01 X80.2443 Y12.3869 
G00 Z2.5400  
G00 X18.4353 Y13.2253 
G01 Z-0.0350 F254   
G01 X18.8341 Y13.3905 F508   
G01 X19.2659 Y13.3905 
G01 X19.6647 Y13.2253 
G01 X19.9699 Y12.9200 
G01 X20.1351 Y12.5212 
G01 X20.1351 Y10.2988 
G01 X19.9699 Y9.9000  
G01 X19.6647 Y9.5947  
G01 X19.2659 Y9.4295  
G01 X18.8341 Y9.4295  
G01 X18.4353 Y9.5947  
G01 X18.1301 Y9.9000  
G01 X17.9648 Y10.2988 
G01 X17.9648 Y12.5212 
G01 X18.1300 Y12.9200 
G01 X18.4353 Y13.2253 
G00 Z2.5400  
G00 X18.0143 Y12.3869 
G01 Z-0.0350 F254   
G01 X18.0143 Y10.4331 F508   
G01 X18.0398 Y10.2721 
G01 X18.0901 Y10.1171 
G01 X18.1641 Y9.9718  
G01 X18.2600 Y9.8399  
G01 X18.3753 Y9.7246  
G01 X18.5071 Y9.6288  
G01 X18.6524 Y9.5548  
G01 X18.8075 Y9.5044  
G01 X18.9685 Y9.4789  
G01 X19.1315 Y9.4789  
G01 X19.2925 Y9.5044  
G01 X19.4476 Y9.5548  
G01 X19.5929 Y9.6288  
G01 X19.7247 Y9.7246  
G01 X19.8400 Y9.8399  
G01 X19.9359 Y9.9718  
G01 X20.0099 Y10.1171 
G01 X20.0602 Y10.2721 
G01 X20.0857 Y10.4331 
G01 X20.0857 Y12.3869 
G01 X20.0602 Y12.5479 
G01 X20.0099 Y12.7029 
G01 X19.9359 Y12.8482 
G01 X19.8400 Y12.9801 
G01 X19.7247 Y13.0954 
G01 X19.5929 Y13.1912 
G01 X19.4476 Y13.2652 
G01 X19.2925 Y13.3156 
G01 X19.1315 Y13.3411 
G01 X18.9685 Y13.3411 
G01 X18.8075 Y13.3156 
G01 X18.6524 Y13.2652 
G01 X18.5071 Y13.1912 
G01 X18.3753 Y13.0954 
G01 X18.2600 Y12.9801 
G01 X18.1641 Y12.8482 
G01 X18.0901 Y12.7029 
G01 X18.0398 Y12.5479 
G01 X18.0143 Y12.3869 
G00 Z2.5400  
G00 X6.8753  Y37.4447 
G01 Z-0.0350 F254   
G01 X7.0405  Y37.0459 F508   
G01 X7.0405  Y36.6141 
G01 X6.8753  Y36.2153 
G01 X6.5700  Y35.9100 
G01 X6.1712  Y35.7448 
G01 X3.9488  Y35.7448 
G01 X3.5500  Y35.9100 
G01 X3.2447  Y36.2153 
G01 X3.0795  Y36.6141 
G01 X3.0795  Y37.0459 
G01 X3.2447  Y37.4447 
G01 X3.5500  Y37.7499 
G01 X3.9488  Y37.9151 
G01 X6.1712  Y37.9151 
G01 X6.5700  Y37.7499 
G01 X6.8753  Y37.4447 
G00 Z2.5400  
G00 X6.0369  Y37.8657 
G01 Z-0.0350 F254   
G01 X4.0831  Y37.8657 F508   
G01 X3.9221  Y37.8402 
G01 X3.7671  Y37.7899 
G01 X3.6218  Y37.7159 
G01 X3.4899  Y37.6200 
G01 X3.3746  Y37.5047 
G01 X3.2788  Y37.3728 
G01 X3.2048  Y37.2276 
G01 X3.1544  Y37.0725 
G01 X3.1289  Y36.9115 
G01 X3.1289  Y36.7485 
G01 X3.1544  Y36.5875 
G01 X3.2048  Y36.4324 
G01 X3.2788  Y36.2871 
G01 X3.3746  Y36.1553 
G01 X3.4899  Y36.0400 
G01 X3.6218  Y35.9441 
G01 X3.7671  Y35.8701 
G01 X3.9221  Y35.8198 
G01 X4.0831  Y35.7943 
G01 X6.0369  Y35.7943 
G01 X6.1979  Y35.8198 
G01 X6.3529  Y35.8701 
G01 X6.4982  Y35.9441 
G01 X6.6301  Y36.0400 
G01 X6.7454  Y36.1553 
G01 X6.8412  Y36.2871 
G01 X6.9152  Y36.4324 
G01 X6.9656  Y36.5875 
G01 X6.9911  Y36.7485 
G01 X6.9911  Y36.9115 
G01 X6.9656  Y37.0725 
G01 X6.9152  Y37.2276 
G01 X6.8412  Y37.3728 
G01 X6.7454  Y37.5047 
G01 X6.6301  Y37.6200 
G01 X6.4982  Y37.7159 
G01 X6.3529  Y37.7899 
G01 X6.1979  Y37.8402 
G01 X6.0369  Y37.8657 
G00 Z2.5400  
G00 X30.1565 Y13.0454 
G01 Z-0.0350 F254   
G01 X30.2615 Y12.9007 F508   
G01 X30.3427 Y12.7414 
G01 X30.3980 Y12.5713 
G01 X30.4259 Y12.3947 
G01 X30.4259 Y11.8488 
G01 X30.3257 Y11.8488 
G01 X30.3257 Y12.3869 
G01 X30.3002 Y12.5479 
G01 X30.2499 Y12.7029 
G01 X30.1759 Y12.8482 
G01 X30.0800 Y12.9801 
G01 X29.9647 Y13.0954 
G01 X29.8329 Y13.1912 
G01 X29.7288 Y13.2442 
G01 X29.7288 Y13.3567 
G01 X29.8854 Y13.2769 
G01 X30.0300 Y13.1718 
G01 X30.1565 Y13.0454 
G00 Z2.5400  
G00 X30.4259 Y10.4253 
G01 Z-0.0350 F254   
G01 X30.3980 Y10.2486 F508   
G01 X30.3427 Y10.0786 
G01 X30.2615 Y9.9193  
G01 X30.1565 Y9.7746  
G01 X30.0300 Y9.6482  
G01 X29.8854 Y9.5431  
G01 X29.7288 Y9.4633  
G01 X29.7288 Y9.5758  
G01 X29.8329 Y9.6288  
G01 X29.9647 Y9.7246  
G01 X30.0800 Y9.8399  
G01 X30.1759 Y9.9718  
G01 X30.2499 Y10.1171 
G01 X30.3002 Y10.2721 
G01 X30.3257 Y10.4331 
G01 X30.3257 Y10.9711 
G01 X30.4259 Y10.9711 
G01 X30.4259 Y10.4253 
G00 Z2.5400  
G00 X28.6946 Y9.5431  
G01 Z-0.0350 F254   
G01 X28.5500 Y9.6482  F508   
G01 X28.4235 Y9.7746  
G01 X28.3184 Y9.9193  
G01 X28.2373 Y10.0786 
G01 X28.1820 Y10.2486 
G01 X28.1540 Y10.4253 
G01 X28.1540 Y10.9711 
G01 X28.2543 Y10.9711 
G01 X28.2543 Y10.4331 
G01 X28.2798 Y10.2721 
G01 X28.3301 Y10.1171 
G01 X28.4041 Y9.9718  
G01 X28.5000 Y9.8399  
G01 X28.6153 Y9.7246  
G01 X28.7471 Y9.6288  
G01 X28.8511 Y9.5758  
G01 X28.8511 Y9.4633  
G01 X28.6946 Y9.5431  
G00 Z2.5400  
G00 X28.1540 Y12.3947 
G01 Z-0.0350 F254   
G01 X28.1820 Y12.5714 F508   
G01 X28.2373 Y12.7414 
G01 X28.3184 Y12.9007 
G01 X28.4235 Y13.0454 
G01 X28.5500 Y13.1718 
G01 X28.6946 Y13.2769 
G01 X28.8511 Y13.3567 
G01 X28.8511 Y13.2442 
G01 X28.7471 Y13.1912 
G01 X28.6153 Y13.0954 
G01 X28.5000 Y12.9801 
G01 X28.4041 Y12.8482 
G01 X28.3301 Y12.7029 
G01 X28.2798 Y12.5479 
G01 X28.2543 Y12.3869 
G01 X28.2543 Y11.8488 
G01 X28.1540 Y11.8488 
G01 X28.1540 Y12.3947 
G00 Z2.5400  
G00 X22.9947 Y46.5853 
G01 Z-0.0350 F254   
G01 X22.9979 Y46.5633 F508   
G01 X22.9947 Y46.5413 
G01 X22.9855 Y46.5211 
G01 X22.9709 Y46.5043 
G01 X22.9522 Y46.4923 
G01 X22.9309 Y46.4860 
G01 X22.9197 Y46.4852 
G01 X22.8416 Y46.4852 
G01 X22.8416 Y46.6414 
G01 X22.9198 Y46.6414 
G01 X22.9309 Y46.6407 
G01 X22.9522 Y46.6344 
G01 X22.9709 Y46.6224 
G01 X22.9855 Y46.6056 
G01 X22.9947 Y46.5853 
G00 Z2.5400  
G00 X20.0861 Y46.0778 
G01 Z-0.0350 F254   
G01 X20.0641 Y46.0746 F508   
G01 X20.0421 Y46.0778 
G01 X20.0219 Y46.0870 
G01 X20.0051 Y46.1016 
G01 X19.9930 Y46.1203 
G01 X19.9868 Y46.1416 
G01 X19.9860 Y46.1527 
G01 X19.9860 Y46.5633 
G01 X19.9868 Y46.5744 
G01 X19.9930 Y46.5958 
G01 X20.0051 Y46.6145 
G01 X20.0219 Y46.6290 
G01 X20.0421 Y46.6383 
G01 X20.0641 Y46.6414 
G01 X20.0861 Y46.6383 
G01 X20.1063 Y46.6290 
G01 X20.1231 Y46.6145 
G01 X20.1351 Y46.5958 
G01 X20.1414 Y46.5744 
G01 X20.1422 Y46.5633 
G01 X20.1422 Y46.5278 
G01 X20.1422 Y46.1528 
G01 X20.1414 Y46.1416 
G01 X20.1351 Y46.1203 
G01 X20.1231 Y46.1016 
G01 X20.1063 Y46.0870 
G01 X20.0861 Y46.0778 
G00 Z2.5400  
G00 X19.2821 Y46.5853 
G01 Z-0.0350 F254   
G01 X19.2852 Y46.5633 F508   
G01 X19.2821 Y46.5413 
G01 X19.2728 Y46.5211 
G01 X19.2583 Y46.5043 
G01 X19.2396 Y46.4923 
G01 X19.2182 Y46.4860 
G01 X19.2071 Y46.4852 
G01 X19.1290 Y46.4852 
G01 X19.1290 Y46.6414 
G01 X19.2071 Y46.6414 
G01 X19.2182 Y46.6407 
G01 X19.2396 Y46.6344 
G01 X19.2583 Y46.6224 
G01 X19.2728 Y46.6056 
G01 X19.2821 Y46.5853 
G00 Z2.5400  
G00 X28.0120 Y46.5853 
G01 Z-0.0350 F254   
G01 X28.0152 Y46.5633 F508   
G01 X28.0120 Y46.5413 
G01 X28.0028 Y46.5211 
G01 X27.9882 Y46.5043 
G01 X27.9695 Y46.4923 
G01 X27.9482 Y46.4860 
G01 X27.9371 Y46.4852 
G01 X27.8590 Y46.4852 
G01 X27.8590 Y46.6414 
G01 X27.9371 Y46.6414 
G01 X27.9482 Y46.6407 
G01 X27.9695 Y46.6344 
G01 X27.9882 Y46.6224 
G01 X28.0028 Y46.6056 
G01 X28.0120 Y46.5853 
G00 Z2.5400  
G00 X18.8561 Y47.0478 
G01 Z-0.0350 F254   
G01 X19.3645 Y47.0478 F508   
G01 X19.4239 Y47.0047 
G01 X19.4411 Y46.9892 
G01 X19.4550 Y46.9822 
G01 X19.4675 Y46.9730 
G01 X19.4892 Y46.9647 
G01 X19.5098 Y46.9542 
G01 X19.5250 Y46.9510 
G01 X19.5395 Y46.9454 
G01 X19.5625 Y46.9430 
G01 X19.5852 Y46.9382 
G01 X19.6007 Y46.9390 
G01 X19.6161 Y46.9374 
G01 X19.6391 Y46.9410 
G01 X19.6622 Y46.9422 
G01 X19.6770 Y46.9470 
G01 X19.6923 Y46.9494 
G01 X19.7135 Y46.9589 
G01 X20.0641 Y47.0728 
G01 X20.2357 Y47.0170 
G01 X20.2723 Y47.0051 
G01 X20.3077 Y46.9936 
G01 X20.3104 Y46.9931 
G01 X20.3476 Y46.9915 
G01 X20.3847 Y46.9896 
G01 X20.3874 Y46.9898 
G01 X20.4238 Y46.9979 
G01 X20.4601 Y47.0056 
G01 X20.7162 Y47.0629 
G01 X20.9052 Y46.9427 
G01 X20.9146 Y46.9340 
G01 X20.9376 Y46.9220 
G01 X20.9594 Y46.9081 
G01 X20.9716 Y46.9043 
G01 X20.9829 Y46.8984 
G01 X21.0082 Y46.8928 
G01 X21.0329 Y46.8850 
G01 X21.0457 Y46.8844 
G01 X21.0582 Y46.8817 
G01 X21.0841 Y46.8828 
G01 X21.1100 Y46.8817 
G01 X21.1225 Y46.8844 
G01 X21.1352 Y46.8850 
G01 X21.1599 Y46.8928 
G01 X21.1852 Y46.8984 
G01 X21.1966 Y46.9043 
G01 X21.2088 Y46.9081 
G01 X21.2306 Y46.9220 
G01 X21.2536 Y46.9340 
G01 X21.2630 Y46.9427 
G01 X21.4520 Y47.0629 
G01 X21.5736 Y47.0359 
G01 X21.6047 Y47.0275 
G01 X21.6111 Y47.0275 
G01 X21.6173 Y47.0261 
G01 X21.6496 Y47.0275 
G01 X21.6818 Y47.0275 
G01 X21.6880 Y47.0292 
G01 X21.6944 Y47.0295 
G01 X21.7251 Y47.0391 
G01 X21.7563 Y47.0475 
G01 X23.0772 Y47.0478 
G01 X23.3577 Y46.8440 
G01 X23.3687 Y46.8330 
G01 X23.3888 Y46.8214 
G01 X23.4076 Y46.8078 
G01 X23.4220 Y46.8022 
G01 X23.4355 Y46.7945 
G01 X23.4579 Y46.7885 
G01 X23.4795 Y46.7802 
G01 X23.4950 Y46.7785 
G01 X23.5099 Y46.7745 
G01 X23.5331 Y46.7745 
G01 X23.5562 Y46.7721 
G01 X23.5715 Y46.7745 
G01 X23.5870 Y46.7745 
G01 X23.6094 Y46.7805 
G01 X23.6324 Y46.7842 
G01 X23.6465 Y46.7905 
G01 X23.6615 Y46.7945 
G01 X23.6816 Y46.8061 
G01 X23.7028 Y46.8155 
G01 X23.7148 Y46.8253 
G01 X23.7283 Y46.8330 
G01 X23.7447 Y46.8494 
G01 X23.7627 Y46.8640 
G01 X23.7718 Y46.8766 
G01 X23.9431 Y47.0478 
G01 X24.6451 Y47.0478 
G01 X24.7992 Y46.8938 
G01 X24.8030 Y46.8871 
G01 X24.8058 Y46.8787 
G01 X24.8222 Y46.8539 
G01 X24.8371 Y46.8281 
G01 X24.8434 Y46.8218 
G01 X24.8483 Y46.8144 
G01 X24.8706 Y46.7946 
G01 X24.8916 Y46.7736 
G01 X24.8993 Y46.7691 
G01 X24.9060 Y46.7632 
G01 X24.9326 Y46.7499 
G01 X24.9584 Y46.7350 
G01 X24.9631 Y46.7338 
G01 X24.9749 Y46.7259 
G01 X24.9917 Y46.7203 
G01 X25.0076 Y46.7124 
G01 X25.0282 Y46.7082 
G01 X25.0481 Y46.7016 
G01 X25.0658 Y46.7005 
G01 X25.0831 Y46.6969 
G01 X25.1041 Y46.6982 
G01 X25.1250 Y46.6969 
G01 X25.1424 Y46.7005 
G01 X25.1601 Y46.7016 
G01 X25.1800 Y46.7082 
G01 X25.2005 Y46.7124 
G01 X25.2164 Y46.7203 
G01 X25.2332 Y46.7259 
G01 X25.2507 Y46.7375 
G01 X25.2919 Y46.7581 
G01 X25.4700 Y46.6987 
G01 X25.4777 Y46.6942 
G01 X25.5065 Y46.6865 
G01 X25.5347 Y46.6771 
G01 X25.5436 Y46.6766 
G01 X25.5522 Y46.6743 
G01 X25.5820 Y46.6743 
G01 X25.6117 Y46.6725 
G01 X25.6204 Y46.6743 
G01 X25.6293 Y46.6743 
G01 X25.6580 Y46.6820 
G01 X25.6872 Y46.6880 
G01 X25.6952 Y46.6919 
G01 X25.7038 Y46.6942 
G01 X25.7295 Y46.7091 
G01 X25.7562 Y46.7224 
G01 X25.7628 Y46.7283 
G01 X25.7705 Y46.7328 
G01 X25.7916 Y46.7538 
G01 X25.8138 Y46.7736 
G01 X25.8187 Y46.7810 
G01 X25.8250 Y46.7873 
G01 X25.8399 Y46.8131 
G01 X25.8563 Y46.8379 
G01 X25.8591 Y46.8464 
G01 X25.8636 Y46.8541 
G01 X25.8713 Y46.8828 
G01 X25.8807 Y46.9111 
G01 X26.0170 Y47.0478 
G01 X26.5701 Y47.0478 
G01 X26.6063 Y47.0472 
G01 X26.6111 Y47.0478 
G01 X26.6460 Y47.0572 
G01 X26.6775 Y47.0651 
G01 X26.7023 Y47.0584 
G01 X26.7370 Y47.0485 
G01 X26.7418 Y47.0478 
G01 X26.7779 Y47.0478 
G01 X26.8141 Y47.0472 
G01 X26.8351 Y47.0361 
G01 X26.8511 Y47.0269 
G01 X26.8825 Y47.0184 
G01 X26.9255 Y47.0069 
G01 X27.0026 Y47.0069 
G01 X27.0451 Y47.0183 
G01 X27.0771 Y47.0269 
G01 X27.0922 Y47.0356 
G01 X27.1134 Y47.0478 
G01 X27.3590 Y47.0478 
G01 X27.3702 Y47.0448 
G01 X27.4120 Y47.0336 
G01 X27.4504 Y47.0336 
G01 X27.4891 Y47.0336 
G01 X27.5307 Y47.0448 
G01 X27.5422 Y47.0478 
G01 X28.0940 Y47.0478 
G01 X28.1038 Y47.0381 
G01 X28.1239 Y47.0265 
G01 X28.1426 Y47.0129 
G01 X28.1571 Y47.0073 
G01 X28.1705 Y46.9996 
G01 X28.1929 Y46.9936 
G01 X28.2146 Y46.9853 
G01 X28.2300 Y46.9836 
G01 X28.2450 Y46.9796 
G01 X28.2682 Y46.9796 
G01 X28.2913 Y46.9772 
G01 X28.3066 Y46.9796 
G01 X28.3221 Y46.9796 
G01 X28.3445 Y46.9856 
G01 X28.3674 Y46.9893 
G01 X28.3816 Y46.9956 
G01 X28.3966 Y46.9996 
G01 X28.4167 Y47.0112 
G01 X28.4379 Y47.0206 
G01 X28.4499 Y47.0304 
G01 X28.4633 Y47.0381 
G01 X28.4731 Y47.0478 
G01 X28.6747 Y47.0478 
G01 X28.7104 Y47.0272 
G01 X28.7519 Y47.0159 
G01 X28.7855 Y47.0069 
G01 X28.8626 Y47.0069 
G01 X28.9145 Y47.0208 
G01 X28.9371 Y47.0269 
G01 X28.9674 Y47.0444 
G01 X28.9734 Y47.0478 
G01 X30.0451 Y47.0478 
G01 X30.1786 Y46.9143 
G01 X30.1786 Y46.7255 
G01 X29.9805 Y46.5274 
G01 X29.9419 Y46.4607 
G01 X29.9220 Y46.3862 
G01 X29.9220 Y45.8017 
G01 X29.7885 Y45.6682 
G01 X29.5997 Y45.6682 
G01 X29.5467 Y45.7212 
G01 X29.5321 Y45.7393 
G01 X29.5196 Y45.7484 
G01 X29.5086 Y45.7593 
G01 X29.4885 Y45.7709 
G01 X29.4697 Y45.7846 
G01 X29.4552 Y45.7901 
G01 X29.4418 Y45.7979 
G01 X29.4194 Y45.8039 
G01 X29.3977 Y45.8122 
G01 X29.3823 Y45.8138 
G01 X29.3674 Y45.8178 
G01 X29.3441 Y45.8178 
G01 X29.3211 Y45.8202 
G01 X29.3058 Y45.8178 
G01 X29.2903 Y45.8178 
G01 X29.2678 Y45.8118 
G01 X29.2449 Y45.8082 
G01 X29.2308 Y45.8019 
G01 X29.2158 Y45.7979 
G01 X29.1957 Y45.7863 
G01 X29.1745 Y45.7768 
G01 X29.1624 Y45.7671 
G01 X29.1490 Y45.7593 
G01 X29.1336 Y45.7439 
G01 X28.8241 Y45.6433 
G01 X28.5246 Y45.7406 
G01 X28.4471 Y45.8473 
G01 X28.4355 Y45.8674 
G01 X28.4245 Y45.8784 
G01 X28.4154 Y45.8909 
G01 X28.3974 Y45.9055 
G01 X28.3810 Y45.9220 
G01 X28.3675 Y45.9297 
G01 X28.3555 Y45.9395 
G01 X28.3343 Y45.9489 
G01 X28.3142 Y45.9605 
G01 X28.2992 Y45.9645 
G01 X28.2851 Y45.9708 
G01 X28.2621 Y45.9744 
G01 X28.2397 Y45.9805 
G01 X28.2242 Y45.9805 
G01 X28.2089 Y45.9829 
G01 X28.1858 Y45.9805 
G01 X28.1626 Y45.9805 
G01 X28.1476 Y45.9764 
G01 X28.1322 Y45.9748 
G01 X28.1106 Y45.9665 
G01 X28.0882 Y45.9605 
G01 X28.0747 Y45.9527 
G01 X28.0603 Y45.9472 
G01 X28.0415 Y45.9336 
G01 X28.0214 Y45.9220 
G01 X28.0104 Y45.9110 
G01 X27.9979 Y45.9019 
G01 X27.9833 Y45.8838 
G01 X27.9669 Y45.8674 
G01 X27.9591 Y45.8540 
G01 X27.9527 Y45.8460 
G01 X27.7749 Y45.6682 
G01 X27.5422 Y45.6682 
G01 X27.5310 Y45.6712 
G01 X27.4892 Y45.6825 
G01 X27.4508 Y45.6825 
G01 X27.4121 Y45.6825 
G01 X27.3705 Y45.6713 
G01 X27.3590 Y45.6682 
G01 X27.3219 Y45.6688 
G01 X27.3171 Y45.6682 
G01 X27.2822 Y45.6589 
G01 X27.2507 Y45.6510 
G01 X27.2259 Y45.6576 
G01 X27.1911 Y45.6676 
G01 X27.1863 Y45.6682 
G01 X27.1502 Y45.6682 
G01 X27.1141 Y45.6688 
G01 X27.0930 Y45.6800 
G01 X27.0771 Y45.6892 
G01 X27.0456 Y45.6976 
G01 X27.0026 Y45.7092 
G01 X26.9255 Y45.7092 
G01 X26.8830 Y45.6978 
G01 X26.8511 Y45.6892 
G01 X26.8360 Y45.6805 
G01 X26.8147 Y45.6682 
G01 X26.0170 Y45.6682 
G01 X25.8590 Y45.8263 
G01 X25.8563 Y45.8344 
G01 X25.8399 Y45.8591 
G01 X25.8250 Y45.8849 
G01 X25.8187 Y45.8913 
G01 X25.8138 Y45.8987 
G01 X25.7916 Y45.9184 
G01 X25.7705 Y45.9394 
G01 X25.7628 Y45.9439 
G01 X25.7561 Y45.9498 
G01 X25.7295 Y45.9631 
G01 X25.7038 Y45.9780 
G01 X25.6951 Y45.9803 
G01 X25.6871 Y45.9843 
G01 X25.6580 Y45.9903 
G01 X25.6293 Y45.9979 
G01 X25.6204 Y45.9979 
G01 X25.6116 Y45.9997 
G01 X25.5819 Y45.9979 
G01 X25.5522 Y45.9979 
G01 X25.5435 Y45.9956 
G01 X25.5346 Y45.9951 
G01 X25.5065 Y45.9857 
G01 X25.4777 Y45.9780 
G01 X25.4700 Y45.9735 
G01 X25.4615 Y45.9707 
G01 X25.4367 Y45.9543 
G01 X25.4110 Y45.9394 
G01 X25.4046 Y45.9331 
G01 X25.3972 Y45.9282 
G01 X25.3775 Y45.9060 
G01 X25.3564 Y45.8849 
G01 X25.3520 Y45.8772 
G01 X25.3460 Y45.8705 
G01 X25.3328 Y45.8439 
G01 X25.3208 Y45.8255 
G01 X25.3189 Y45.8199 
G01 X25.3162 Y45.8117 
G01 X25.3152 Y45.8087 
G01 X25.3072 Y45.7928 
G01 X25.3030 Y45.7722 
G01 X25.2843 Y45.7160 
G01 X25.2279 Y45.6972 
G01 X25.2074 Y45.6930 
G01 X25.1915 Y45.6851 
G01 X25.1747 Y45.6795 
G01 X25.1572 Y45.6679 
G01 X25.1041 Y45.6413 
G01 X25.0510 Y45.6679 
G01 X25.0335 Y45.6795 
G01 X25.0166 Y45.6851 
G01 X25.0008 Y45.6930 
G01 X24.9802 Y45.6972 
G01 X24.8953 Y45.7255 
G01 X24.8820 Y45.7332 
G01 X24.8572 Y45.7496 
G01 X24.8487 Y45.7524 
G01 X24.8410 Y45.7569 
G01 X24.8123 Y45.7646 
G01 X24.7841 Y45.7740 
G01 X24.7752 Y45.7745 
G01 X24.7665 Y45.7768 
G01 X24.7368 Y45.7768 
G01 X24.7071 Y45.7786 
G01 X24.6984 Y45.7768 
G01 X24.6894 Y45.7768 
G01 X24.6607 Y45.7691 
G01 X24.6316 Y45.7632 
G01 X24.6236 Y45.7592 
G01 X24.6150 Y45.7569 
G01 X24.5892 Y45.7420 
G01 X24.5626 Y45.7287 
G01 X24.5559 Y45.7228 
G01 X24.4770 Y45.6772 
G01 X24.4615 Y45.6682 
G01 X23.9431 Y45.6682 
G01 X23.8324 Y45.7789 
G01 X23.8127 Y45.8012 
G01 X23.8053 Y45.8060 
G01 X23.7990 Y45.8123 
G01 X23.7732 Y45.8272 
G01 X23.7483 Y45.8436 
G01 X23.7399 Y45.8464 
G01 X23.7322 Y45.8509 
G01 X23.7034 Y45.8586 
G01 X23.6752 Y45.8680 
G01 X23.6663 Y45.8685 
G01 X23.6577 Y45.8708 
G01 X23.6279 Y45.8708 
G01 X23.5982 Y45.8726 
G01 X23.5895 Y45.8708 
G01 X23.5806 Y45.8708 
G01 X23.5519 Y45.8631 
G01 X23.5227 Y45.8572 
G01 X23.5148 Y45.8532 
G01 X23.5062 Y45.8509 
G01 X23.4804 Y45.8360 
G01 X23.4538 Y45.8227 
G01 X23.4471 Y45.8168 
G01 X23.4394 Y45.8123 
G01 X23.4183 Y45.7913 
G01 X23.3961 Y45.7715 
G01 X23.3912 Y45.7641 
G01 X23.3849 Y45.7578 
G01 X23.3750 Y45.7407 
G01 X23.1938 Y45.6501 
G01 X23.0528 Y45.6971 
G01 X23.0451 Y45.7015 
G01 X23.0163 Y45.7093 
G01 X22.9881 Y45.7187 
G01 X22.9792 Y45.7192 
G01 X22.9706 Y45.7215 
G01 X22.9409 Y45.7215 
G01 X22.9111 Y45.7233 
G01 X22.9024 Y45.7215 
G01 X22.8935 Y45.7215 
G01 X22.8648 Y45.7138 
G01 X22.8356 Y45.7078 
G01 X22.8277 Y45.7038 
G01 X22.8191 Y45.7015 
G01 X22.7933 Y45.6867 
G01 X22.7667 Y45.6733 
G01 X22.7609 Y45.6682 
G01 X21.7848 Y45.6682 
G01 X21.7709 Y45.6822 
G01 X21.7632 Y45.6866 
G01 X21.7565 Y45.6925 
G01 X21.7299 Y45.7058 
G01 X21.7041 Y45.7207 
G01 X21.6955 Y45.7230 
G01 X21.6876 Y45.7270 
G01 X21.6584 Y45.7330 
G01 X21.6297 Y45.7407 
G01 X21.6208 Y45.7407 
G01 X21.6120 Y45.7424 
G01 X21.5823 Y45.7407 
G01 X21.5526 Y45.7407 
G01 X21.5440 Y45.7384 
G01 X21.5351 Y45.7378 
G01 X21.5069 Y45.7284 
G01 X21.4781 Y45.7207 
G01 X21.4704 Y45.7163 
G01 X21.4246 Y45.7010 
G01 X21.3902 Y45.6902 
G01 X21.3857 Y45.6880 
G01 X21.3556 Y45.6681 
G01 X21.3279 Y45.6505 
G01 X21.3021 Y45.6490 
G01 X21.2763 Y45.6479 
G01 X21.2470 Y45.6625 
G01 X21.2150 Y45.6792 
G01 X21.2103 Y45.6809 
G01 X21.1749 Y45.6881 
G01 X21.1600 Y45.6914 
G01 X21.1352 Y45.6992 
G01 X21.1225 Y45.6998 
G01 X21.1100 Y45.7026 
G01 X21.0841 Y45.7014 
G01 X21.0582 Y45.7026 
G01 X21.0457 Y45.6998 
G01 X21.0329 Y45.6992 
G01 X21.0082 Y45.6914 
G01 X20.9933 Y45.6881 
G01 X20.9579 Y45.6809 
G01 X20.9532 Y45.6792 
G01 X20.9212 Y45.6625 
G01 X20.8918 Y45.6479 
G01 X20.8661 Y45.6490 
G01 X20.8403 Y45.6505 
G01 X20.8125 Y45.6682 
G01 X20.7825 Y45.6880 
G01 X20.7780 Y45.6902 
G01 X20.7435 Y45.7010 
G01 X20.6586 Y45.7293 
G01 X20.6529 Y45.7322 
G01 X20.6345 Y45.7444 
G01 X20.6187 Y45.7496 
G01 X20.6039 Y45.7572 
G01 X20.5823 Y45.7618 
G01 X20.5614 Y45.7688 
G01 X20.5448 Y45.7698 
G01 X20.5285 Y45.7732 
G01 X20.5065 Y45.7721 
G01 X20.4844 Y45.7734 
G01 X20.4681 Y45.7701 
G01 X20.4515 Y45.7692 
G01 X20.4305 Y45.7624 
G01 X20.4089 Y45.7579 
G01 X20.3940 Y45.7505 
G01 X20.0641 Y45.6433 
G01 X19.7646 Y45.7406 
G01 X19.7027 Y45.8258 
G01 X19.6911 Y45.8459 
G01 X19.6802 Y45.8568 
G01 X19.6711 Y45.8694 
G01 X19.6530 Y45.8840 
G01 X19.6366 Y45.9004 
G01 X19.6232 Y45.9082 
G01 X19.6112 Y45.9179 
G01 X19.5900 Y45.9274 
G01 X19.5699 Y45.9390 
G01 X19.5549 Y45.9430 
G01 X19.5407 Y45.9493 
G01 X19.5178 Y45.9529 
G01 X19.4954 Y45.9589 
G01 X19.4799 Y45.9589 
G01 X19.4646 Y45.9613 
G01 X19.4415 Y45.9589 
G01 X19.4183 Y45.9589 
G01 X19.4033 Y45.9549 
G01 X19.3879 Y45.9533 
G01 X19.3663 Y45.9450 
G01 X19.3438 Y45.9390 
G01 X19.3304 Y45.9312 
G01 X19.3159 Y45.9256 
G01 X19.2972 Y45.9120 
G01 X19.2771 Y45.9004 
G01 X19.2661 Y45.8895 
G01 X19.2536 Y45.8803 
G01 X19.2389 Y45.8623 
G01 X19.0449 Y45.6682 
G01 X18.8561 Y45.6682 
G01 X18.7226 Y45.8017 
G01 X18.7226 Y46.9143 
G01 X18.8561 Y47.0478 
G00 Z2.5400  
G00 X27.5020 Y45.8606 
G01 Z-0.0350 F254   
G01 X27.5292 Y45.7950 F508   
G01 X27.5794 Y45.7448 
G01 X27.6450 Y45.7176 
G01 X27.7160 Y45.7176 
G01 X27.7816 Y45.7448 
G01 X27.8318 Y45.7950 
G01 X27.8590 Y45.8606 
G01 X27.8590 Y46.1282 
G01 X27.9997 Y46.1282 
G01 X28.1197 Y46.1635 
G01 X28.2250 Y46.2311 
G01 X28.3069 Y46.3257 
G01 X28.3589 Y46.4395 
G01 X28.3767 Y46.5633 
G01 X28.3589 Y46.6872 
G01 X28.3069 Y46.8010 
G01 X28.2250 Y46.8955 
G01 X28.1197 Y46.9632 
G01 X27.9997 Y46.9984 
G01 X27.6450 Y46.9984 
G01 X27.5794 Y46.9713 
G01 X27.5292 Y46.9211 
G01 X27.5020 Y46.8555 
G01 X27.5020 Y46.2712 
G01 X27.5020 Y45.8606 
G00 Z2.5400  
G00 X26.5290 Y46.8555 
G01 Z-0.0350 F254   
G01 X26.5290 Y46.8449 F508   
G01 X26.5261 Y46.8348 
G01 X26.5290 Y46.8097 
G01 X26.5290 Y45.8606 
G01 X26.5561 Y45.7950 
G01 X26.6064 Y45.7448 
G01 X26.6720 Y45.7176 
G01 X26.7430 Y45.7176 
G01 X26.8086 Y45.7448 
G01 X26.8588 Y45.7950 
G01 X26.8860 Y45.8606 
G01 X26.8860 Y46.1311 
G01 X27.0597 Y45.8184 
G01 X27.0694 Y45.7950 
G01 X27.0768 Y45.7876 
G01 X27.0819 Y45.7784 
G01 X27.1017 Y45.7627 
G01 X27.1196 Y45.7448 
G01 X27.1293 Y45.7408 
G01 X27.1375 Y45.7343 
G01 X27.1618 Y45.7273 
G01 X27.1852 Y45.7176 
G01 X27.1957 Y45.7176 
G01 X27.2058 Y45.7148 
G01 X27.2309 Y45.7176 
G01 X27.2562 Y45.7176 
G01 X27.2659 Y45.7217 
G01 X27.2763 Y45.7229 
G01 X27.2984 Y45.7351 
G01 X27.3218 Y45.7448 
G01 X27.3292 Y45.7523 
G01 X27.3384 Y45.7574 
G01 X27.3541 Y45.7772 
G01 X27.3720 Y45.7950 
G01 X27.3760 Y45.8047 
G01 X27.3826 Y45.8130 
G01 X27.3895 Y45.8373 
G01 X27.3992 Y45.8606 
G01 X27.3992 Y45.8711 
G01 X27.4021 Y45.8812 
G01 X27.3992 Y45.9064 
G01 X27.3992 Y46.8555 
G01 X27.3720 Y46.9211 
G01 X27.3218 Y46.9713 
G01 X27.2562 Y46.9984 
G01 X27.1852 Y46.9984 
G01 X27.1196 Y46.9713 
G01 X27.0694 Y46.9211 
G01 X27.0422 Y46.8555 
G01 X27.0422 Y46.5850 
G01 X26.8685 Y46.8977 
G01 X26.8588 Y46.9211 
G01 X26.8514 Y46.9285 
G01 X26.8463 Y46.9377 
G01 X26.8265 Y46.9534 
G01 X26.8086 Y46.9713 
G01 X26.7989 Y46.9753 
G01 X26.7906 Y46.9818 
G01 X26.7663 Y46.9888 
G01 X26.7430 Y46.9984 
G01 X26.7325 Y46.9984 
G01 X26.7224 Y47.0013 
G01 X26.6972 Y46.9984 
G01 X26.6720 Y46.9984 
G01 X26.6623 Y46.9944 
G01 X26.6518 Y46.9932 
G01 X26.6297 Y46.9809 
G01 X26.6064 Y46.9713 
G01 X26.5989 Y46.9638 
G01 X26.5897 Y46.9587 
G01 X26.5740 Y46.9389 
G01 X26.5561 Y46.9211 
G01 X26.5521 Y46.9113 
G01 X26.5456 Y46.9031 
G01 X26.5386 Y46.8788 
G01 X26.5290 Y46.8555 
G00 Z2.5400  
G00 X26.0356 Y46.0579 
G01 Z-0.0350 F254   
G01 X26.0103 Y46.0475 F508   
G01 X25.9601 Y45.9973 
G01 X25.9329 Y45.9317 
G01 X25.9329 Y45.8606 
G01 X25.9601 Y45.7950 
G01 X26.0103 Y45.7448 
G01 X26.0759 Y45.7176 
G01 X26.3522 Y45.7176 
G01 X26.4178 Y45.7448 
G01 X26.4680 Y45.7950 
G01 X26.4952 Y45.8606 
G01 X26.4952 Y45.9317 
G01 X26.4680 Y45.9973 
G01 X26.4178 Y46.0475 
G01 X26.3926 Y46.0579 
G01 X26.3926 Y46.6582 
G01 X26.4178 Y46.6686 
G01 X26.4680 Y46.7188 
G01 X26.4952 Y46.7844 
G01 X26.4952 Y46.8555 
G01 X26.4680 Y46.9211 
G01 X26.4178 Y46.9713 
G01 X26.3522 Y46.9984 
G01 X26.0759 Y46.9984 
G01 X26.0103 Y46.9713 
G01 X25.9601 Y46.9211 
G01 X25.9329 Y46.8555 
G01 X25.9329 Y46.7844 
G01 X25.9601 Y46.7188 
G01 X26.0103 Y46.6686 
G01 X26.0356 Y46.6582 
G01 X26.0356 Y46.0579 
G00 Z2.5400  
G00 X22.3253 Y45.7176 
G01 Z-0.0350 F254   
G01 X22.3909 Y45.7448 F508   
G01 X22.4411 Y45.7950 
G01 X22.4683 Y45.8606 
G01 X22.4683 Y45.9317 
G01 X22.4411 Y45.9973 
G01 X22.3909 Y46.0475 
G01 X22.3253 Y46.0746 
G01 X22.0577 Y46.0746 
G01 X22.0577 Y46.2309 
G01 X22.2227 Y46.2309 
G01 X22.2883 Y46.2580 
G01 X22.3385 Y46.3083 
G01 X22.3656 Y46.3739 
G01 X22.3656 Y46.4449 
G01 X22.3385 Y46.5105 
G01 X22.2883 Y46.5607 
G01 X22.2227 Y46.5879 
G01 X22.0577 Y46.5879 
G01 X22.0577 Y46.6414 
G01 X22.3253 Y46.6414 
G01 X22.3909 Y46.6686 
G01 X22.4411 Y46.7188 
G01 X22.4683 Y46.7844 
G01 X22.4683 Y46.8555 
G01 X22.4411 Y46.9211 
G01 X22.3909 Y46.9713 
G01 X22.3253 Y46.9984 
G01 X21.8437 Y46.9984 
G01 X21.7781 Y46.9713 
G01 X21.7279 Y46.9211 
G01 X21.7007 Y46.8555 
G01 X21.7007 Y45.8606 
G01 X21.7279 Y45.7950 
G01 X21.7781 Y45.7448 
G01 X21.8437 Y45.7176 
G01 X21.9147 Y45.7176 
G01 X22.3253 Y45.7176 
G00 Z2.5400  
G00 X20.4992 Y46.6259 
G01 Z-0.0350 F254   
G01 X20.4992 Y46.6259 F508   
G01 X20.4640 Y46.7459 
G01 X20.3963 Y46.8512 
G01 X20.3018 Y46.9331 
G01 X20.1879 Y46.9851 
G01 X20.0641 Y47.0029 
G01 X19.9403 Y46.9851 
G01 X19.8264 Y46.9331 
G01 X19.7319 Y46.8512 
G01 X19.6642 Y46.7459 
G01 X19.6348 Y46.6458 
G01 X19.6289 Y46.6872 
G01 X19.5769 Y46.8010 
G01 X19.4950 Y46.8955 
G01 X19.3897 Y46.9632 
G01 X19.2697 Y46.9984 
G01 X18.9150 Y46.9984 
G01 X18.8494 Y46.9713 
G01 X18.7992 Y46.9211 
G01 X18.7720 Y46.8555 
G01 X18.7720 Y45.8606 
G01 X18.7992 Y45.7950 
G01 X18.8494 Y45.7448 
G01 X18.9150 Y45.7176 
G01 X18.9860 Y45.7176 
G01 X19.0516 Y45.7448 
G01 X19.1018 Y45.7950 
G01 X19.1290 Y45.8606 
G01 X19.1290 Y46.1282 
G01 X19.2697 Y46.1282 
G01 X19.3897 Y46.1635 
G01 X19.4950 Y46.2311 
G01 X19.5769 Y46.3257 
G01 X19.6289 Y46.4395 
G01 X19.6290 Y46.1883 
G01 X19.6290 Y46.0902 
G01 X19.6642 Y45.9701 
G01 X19.7319 Y45.8649 
G01 X19.8264 Y45.7829 
G01 X19.9402 Y45.7310 
G01 X20.0641 Y45.7132 
G01 X20.1879 Y45.7310 
G01 X20.3017 Y45.7829 
G01 X20.3963 Y45.8649 
G01 X20.4640 Y45.9701 
G01 X20.4992 Y46.0902 
G01 X20.4992 Y46.5988 
G01 X20.4992 Y46.6259 
G00 Z2.5400  
G00 X20.8401 Y46.8933 
G01 Z-0.0350 F254   
G01 X20.7993 Y46.9515 F508   
G01 X20.7394 Y46.9896 
G01 X20.6695 Y47.0019 
G01 X20.6001 Y46.9865 
G01 X20.5420 Y46.9457 
G01 X20.5039 Y46.8858 
G01 X20.4916 Y46.8159 
G01 X20.7017 Y45.8703 
G01 X20.7033 Y45.8481 
G01 X20.7093 Y45.8360 
G01 X20.7123 Y45.8228 
G01 X20.7250 Y45.8045 
G01 X20.7350 Y45.7846 
G01 X20.7453 Y45.7757 
G01 X20.7530 Y45.7646 
G01 X20.7718 Y45.7526 
G01 X20.7887 Y45.7380 
G01 X20.8015 Y45.7338 
G01 X20.8129 Y45.7265 
G01 X20.8349 Y45.7226 
G01 X20.8560 Y45.7156 
G01 X20.8695 Y45.7165 
G01 X20.8829 Y45.7142 
G01 X20.9046 Y45.7190 
G01 X20.9269 Y45.7206 
G01 X20.9390 Y45.7267 
G01 X20.9522 Y45.7296 
G01 X20.9704 Y45.7424 
G01 X20.9904 Y45.7524 
G01 X20.9993 Y45.7626 
G01 X21.0103 Y45.7704 
G01 X21.0223 Y45.7892 
G01 X21.0369 Y45.8060 
G01 X21.0412 Y45.8189 
G01 X21.0485 Y45.8303 
G01 X21.0523 Y45.8522 
G01 X21.0841 Y45.9475 
G01 X21.1159 Y45.8522 
G01 X21.1197 Y45.8303 
G01 X21.1270 Y45.8189 
G01 X21.1313 Y45.8060 
G01 X21.1459 Y45.7892 
G01 X21.1578 Y45.7704 
G01 X21.1689 Y45.7626 
G01 X21.1778 Y45.7524 
G01 X21.1977 Y45.7424 
G01 X21.2160 Y45.7296 
G01 X21.2292 Y45.7267 
G01 X21.2413 Y45.7206 
G01 X21.2635 Y45.7190 
G01 X21.2853 Y45.7142 
G01 X21.2986 Y45.7165 
G01 X21.3121 Y45.7156 
G01 X21.3333 Y45.7226 
G01 X21.3553 Y45.7265 
G01 X21.3667 Y45.7338 
G01 X21.3795 Y45.7380 
G01 X21.3964 Y45.7526 
G01 X21.4152 Y45.7646 
G01 X21.4229 Y45.7757 
G01 X21.4332 Y45.7846 
G01 X21.4431 Y45.8045 
G01 X21.4559 Y45.8228 
G01 X21.4589 Y45.8360 
G01 X21.4649 Y45.8481 
G01 X21.4665 Y45.8703 
G01 X21.6766 Y46.8159 
G01 X21.6643 Y46.8858 
G01 X21.6262 Y46.9457 
G01 X21.5680 Y46.9865 
G01 X21.4987 Y47.0019 
G01 X21.4288 Y46.9896 
G01 X21.3689 Y46.9515 
G01 X21.3281 Y46.8933 
G01 X21.2558 Y46.5678 
G01 X21.2494 Y46.5805 
G01 X21.2422 Y46.6021 
G01 X21.2337 Y46.6120 
G01 X21.2279 Y46.6236 
G01 X21.2106 Y46.6386 
G01 X21.1957 Y46.6558 
G01 X21.1840 Y46.6616 
G01 X21.1742 Y46.6701 
G01 X21.1526 Y46.6773 
G01 X21.1322 Y46.6875 
G01 X21.1192 Y46.6885 
G01 X21.1069 Y46.6926 
G01 X21.0841 Y46.6910 
G01 X21.0613 Y46.6926 
G01 X21.0490 Y46.6885 
G01 X21.0360 Y46.6875 
G01 X21.0156 Y46.6773 
G01 X20.9940 Y46.6701 
G01 X20.9841 Y46.6616 
G01 X20.9725 Y46.6558 
G01 X20.9575 Y46.6385 
G01 X20.9403 Y46.6236 
G01 X20.9345 Y46.6120 
G01 X20.9260 Y46.6021 
G01 X20.9188 Y46.5805 
G01 X20.9124 Y46.5678 
G01 X20.8401 Y46.8933 
G00 Z2.5400  
G00 X22.4846 Y45.8606 
G01 Z-0.0350 F254   
G01 X22.5118 Y45.7950 F508   
G01 X22.5620 Y45.7448 
G01 X22.6276 Y45.7176 
G01 X22.6986 Y45.7176 
G01 X22.7642 Y45.7448 
G01 X22.8145 Y45.7950 
G01 X22.8416 Y45.8606 
G01 X22.8416 Y46.1282 
G01 X22.8607 Y46.1282 
G01 X23.0326 Y45.7846 
G01 X23.0862 Y45.7380 
G01 X23.1536 Y45.7156 
G01 X23.2244 Y45.7206 
G01 X23.2879 Y45.7524 
G01 X23.3345 Y45.8060 
G01 X23.3569 Y45.8734 
G01 X23.3519 Y45.9442 
G01 X23.2081 Y46.2317 
G01 X23.2895 Y46.3257 
G01 X23.3415 Y46.4395 
G01 X23.3593 Y46.5633 
G01 X23.3415 Y46.6872 
G01 X23.2895 Y46.8010 
G01 X23.2076 Y46.8955 
G01 X23.1024 Y46.9632 
G01 X22.9823 Y46.9984 
G01 X22.6276 Y46.9984 
G01 X22.5620 Y46.9713 
G01 X22.5118 Y46.9211 
G01 X22.4846 Y46.8555 
G01 X22.4846 Y46.7844 
G01 X22.4846 Y45.8606 
G00 Z2.5400  
G00 X24.3576 Y46.0776 
G01 Z-0.0350 F254   
G01 X24.3496 Y46.0750 F508   
G01 X24.3454 Y46.0746 
G01 X24.0020 Y46.0746 
G01 X23.9364 Y46.0475 
G01 X23.8861 Y45.9973 
G01 X23.8590 Y45.9317 
G01 X23.8590 Y45.8606 
G01 X23.8861 Y45.7950 
G01 X23.9364 Y45.7448 
G01 X24.0020 Y45.7176 
G01 X24.4062 Y45.7176 
G01 X24.5218 Y45.7552 
G01 X24.6202 Y45.8267 
G01 X24.6916 Y45.9250 
G01 X24.7292 Y46.0406 
G01 X24.7292 Y46.2546 
G01 X24.7030 Y46.3522 
G01 X24.6525 Y46.4397 
G01 X24.5811 Y46.5112 
G01 X24.4935 Y46.5617 
G01 X24.3959 Y46.5879 
G01 X24.2160 Y46.5879 
G01 X24.2160 Y46.6414 
G01 X24.5862 Y46.6414 
G01 X24.6518 Y46.6686 
G01 X24.7020 Y46.7188 
G01 X24.7292 Y46.7844 
G01 X24.7292 Y46.8555 
G01 X24.7020 Y46.9211 
G01 X24.6518 Y46.9713 
G01 X24.5862 Y46.9984 
G01 X24.0020 Y46.9984 
G01 X23.9364 Y46.9713 
G01 X23.8861 Y46.9211 
G01 X23.8590 Y46.8555 
G01 X23.8590 Y46.3739 
G01 X23.8861 Y46.3083 
G01 X23.9364 Y46.2580 
G01 X24.0020 Y46.2309 
G01 X24.3454 Y46.2309 
G01 X24.3489 Y46.2306 
G01 X24.3557 Y46.2288 
G01 X24.3617 Y46.2253 
G01 X24.3667 Y46.2204 
G01 X24.3702 Y46.2143 
G01 X24.3720 Y46.2076 
G01 X24.3722 Y46.2041 
G01 X24.3722 Y46.1014 
G01 X24.3719 Y46.0972 
G01 X24.3693 Y46.0893 
G01 X24.3643 Y46.0825 
G01 X24.3576 Y46.0776 
G00 Z2.5400  
G00 X25.0569 Y46.6021 
G01 Z-0.0350 F254   
G01 X25.0104 Y46.6558 F508   
G01 X24.9469 Y46.6875 
G01 X24.8760 Y46.6926 
G01 X24.8087 Y46.6701 
G01 X24.7550 Y46.6236 
G01 X24.7233 Y46.5601 
G01 X24.7182 Y46.4892 
G01 X24.9276 Y45.8610 
G01 X24.9285 Y45.8481 
G01 X24.9388 Y45.8277 
G01 X24.9460 Y45.8060 
G01 X24.9545 Y45.7962 
G01 X24.9603 Y45.7846 
G01 X24.9775 Y45.7696 
G01 X24.9925 Y45.7524 
G01 X25.0041 Y45.7465 
G01 X25.0140 Y45.7380 
G01 X25.0356 Y45.7308 
G01 X25.0560 Y45.7206 
G01 X25.0690 Y45.7197 
G01 X25.0813 Y45.7156 
G01 X25.1041 Y45.7172 
G01 X25.1268 Y45.7156 
G01 X25.1392 Y45.7197 
G01 X25.1522 Y45.7206 
G01 X25.1726 Y45.7308 
G01 X25.1942 Y45.7380 
G01 X25.2040 Y45.7465 
G01 X25.2157 Y45.7524 
G01 X25.2306 Y45.7696 
G01 X25.2479 Y45.7846 
G01 X25.2537 Y45.7962 
G01 X25.2622 Y45.8060 
G01 X25.2694 Y45.8277 
G01 X25.2796 Y45.8481 
G01 X25.2805 Y45.8610 
G01 X25.4899 Y46.4892 
G01 X25.4849 Y46.5601 
G01 X25.4531 Y46.6236 
G01 X25.3995 Y46.6701 
G01 X25.3321 Y46.6926 
G01 X25.2613 Y46.6875 
G01 X25.1978 Y46.6558 
G01 X25.1513 Y46.6021 
G01 X25.1041 Y46.4606 
G01 X25.0569 Y46.6021 
G00 Z2.5400  
G00 X29.5156 Y45.8606 
G01 Z-0.0350 F254   
G01 X29.5427 Y45.7950 F508   
G01 X29.5930 Y45.7448 
G01 X29.6586 Y45.7176 
G01 X29.7296 Y45.7176 
G01 X29.7952 Y45.7448 
G01 X29.8454 Y45.7950 
G01 X29.8726 Y45.8606 
G01 X29.8726 Y46.6414 
G01 X29.9862 Y46.6414 
G01 X30.0518 Y46.6686 
G01 X30.1020 Y46.7188 
G01 X30.1292 Y46.7844 
G01 X30.1292 Y46.8555 
G01 X30.1020 Y46.9211 
G01 X30.0518 Y46.9713 
G01 X29.9862 Y46.9984 
G01 X29.4020 Y46.9984 
G01 X29.3363 Y46.9713 
G01 X29.2861 Y46.9211 
G01 X29.2591 Y46.8557 
G01 X29.2320 Y46.9211 
G01 X29.1818 Y46.9713 
G01 X29.1162 Y46.9984 
G01 X29.0452 Y46.9984 
G01 X28.9796 Y46.9713 
G01 X28.9294 Y46.9211 
G01 X28.9022 Y46.8555 
G01 X28.9022 Y46.1883 
G01 X28.9022 Y46.1528 
G01 X28.9014 Y46.1416 
G01 X28.8951 Y46.1203 
G01 X28.8831 Y46.1016 
G01 X28.8663 Y46.0870 
G01 X28.8461 Y46.0778 
G01 X28.8241 Y46.0746 
G01 X28.8021 Y46.0778 
G01 X28.7818 Y46.0870 
G01 X28.7650 Y46.1016 
G01 X28.7530 Y46.1203 
G01 X28.7468 Y46.1416 
G01 X28.7460 Y46.1528 
G01 X28.7460 Y46.8555 
G01 X28.7188 Y46.9211 
G01 X28.6686 Y46.9713 
G01 X28.6030 Y46.9984 
G01 X28.5320 Y46.9984 
G01 X28.4664 Y46.9713 
G01 X28.4161 Y46.9211 
G01 X28.3890 Y46.8555 
G01 X28.3890 Y46.0902 
G01 X28.4242 Y45.9701 
G01 X28.4919 Y45.8649 
G01 X28.5864 Y45.7829 
G01 X28.7002 Y45.7310 
G01 X28.8241 Y45.7132 
G01 X28.9479 Y45.7310 
G01 X29.0617 Y45.7829 
G01 X29.1563 Y45.8649 
G01 X29.2239 Y45.9701 
G01 X29.2592 Y46.0902 
G01 X29.2592 Y46.1172 
G01 X29.2592 Y46.7839 
G01 X29.2861 Y46.7188 
G01 X29.3363 Y46.6686 
G01 X29.4020 Y46.6414 
G01 X29.5156 Y46.6414 
G01 X29.5156 Y45.8606 
G00 Z2.5400  
G00 X18.3383 Y17.3378 
G01 Z-0.0350 F254   
G01 X18.3163 Y17.3346 F508   
G01 X18.2943 Y17.3378 
G01 X18.2741 Y17.3470 
G01 X18.2573 Y17.3615 
G01 X18.2453 Y17.3803 
G01 X18.2390 Y17.4016 
G01 X18.2382 Y17.4126 
G01 X18.2382 Y17.8233 
G01 X18.2390 Y17.8344 
G01 X18.2453 Y17.8557 
G01 X18.2573 Y17.8744 
G01 X18.2741 Y17.8890 
G01 X18.2943 Y17.8982 
G01 X18.3163 Y17.9014 
G01 X18.3383 Y17.8982 
G01 X18.3585 Y17.8890 
G01 X18.3754 Y17.8744 
G01 X18.3874 Y17.8557 
G01 X18.3936 Y17.8344 
G01 X18.3944 Y17.8233 
G01 X18.3944 Y17.7878 
G01 X18.3944 Y17.4127 
G01 X18.3936 Y17.4016 
G01 X18.3874 Y17.3803 
G01 X18.3754 Y17.3615 
G01 X18.3585 Y17.3470 
G01 X18.3383 Y17.3378 
G00 Z2.5400  
G00 X16.9943 Y17.8453 
G01 Z-0.0350 F254   
G01 X16.9975 Y17.8233 F508   
G01 X16.9943 Y17.8013 
G01 X16.9851 Y17.7811 
G01 X16.9705 Y17.7642 
G01 X16.9518 Y17.7522 
G01 X16.9305 Y17.7460 
G01 X16.9193 Y17.7452 
G01 X16.8412 Y17.7452 
G01 X16.8412 Y17.9014 
G01 X16.9193 Y17.9014 
G01 X16.9305 Y17.9006 
G01 X16.9518 Y17.8943 
G01 X16.9705 Y17.8823 
G01 X16.9851 Y17.8655 
G01 X16.9943 Y17.8453 
G00 Z2.5400  
G00 X15.4708 Y17.2298 
G01 Z-0.0350 F254   
G01 X15.4618 Y17.2453 F508   
G01 X15.4618 Y17.9907 
G01 X15.4708 Y18.0061 
G01 X15.5779 Y18.1917 
G01 X15.7634 Y18.2988 
G01 X15.7789 Y18.3078 
G01 X15.9534 Y18.3078 
G01 X16.0721 Y18.3078 
G01 X16.3412 Y18.3078 
G01 X16.3525 Y18.3048 
G01 X16.3942 Y18.2936 
G01 X16.4326 Y18.2936 
G01 X16.4713 Y18.2936 
G01 X16.5129 Y18.3047 
G01 X16.5244 Y18.3078 
G01 X17.0768 Y18.3078 
G01 X17.0924 Y18.2964 
G01 X17.1069 Y18.2908 
G01 X17.1203 Y18.2831 
G01 X17.1427 Y18.2771 
G01 X17.1644 Y18.2688 
G01 X17.1798 Y18.2672 
G01 X17.1948 Y18.2631 
G01 X17.2180 Y18.2631 
G01 X17.2411 Y18.2607 
G01 X17.2564 Y18.2631 
G01 X17.2719 Y18.2631 
G01 X17.2943 Y18.2692 
G01 X17.3172 Y18.2728 
G01 X17.3314 Y18.2791 
G01 X17.3464 Y18.2831 
G01 X17.3665 Y18.2947 
G01 X17.3877 Y18.3041 
G01 X17.3922 Y18.3078 
G01 X17.7934 Y18.3078 
G01 X17.8032 Y18.2980 
G01 X17.8099 Y18.2941 
G01 X17.8157 Y18.2889 
G01 X17.8432 Y18.2749 
G01 X17.8699 Y18.2594 
G01 X17.8774 Y18.2574 
G01 X17.8844 Y18.2539 
G01 X17.9146 Y18.2475 
G01 X17.9444 Y18.2395 
G01 X17.9522 Y18.2395 
G01 X17.9598 Y18.2379 
G01 X17.9906 Y18.2395 
G01 X18.0215 Y18.2395 
G01 X18.0290 Y18.2415 
G01 X18.0368 Y18.2419 
G01 X18.0661 Y18.2514 
G01 X18.0960 Y18.2594 
G01 X18.1027 Y18.2633 
G01 X18.3163 Y18.3327 
G01 X18.6579 Y18.2217 
G01 X18.6874 Y18.2102 
G01 X18.7156 Y18.1977 
G01 X18.7233 Y18.1964 
G01 X18.7305 Y18.1937 
G01 X18.7612 Y18.1904 
G01 X18.7917 Y18.1856 
G01 X18.7995 Y18.1864 
G01 X18.8072 Y18.1856 
G01 X18.8377 Y18.1905 
G01 X18.8684 Y18.1937 
G01 X18.8756 Y18.1965 
G01 X18.8833 Y18.1977 
G01 X18.9115 Y18.2103 
G01 X18.9404 Y18.2213 
G01 X18.9467 Y18.2259 
G01 X19.0908 Y18.2901 
G01 X19.1057 Y18.2941 
G01 X19.1259 Y18.3058 
G01 X19.1304 Y18.3078 
G01 X19.3649 Y18.3078 
G01 X19.4576 Y18.2543 
G01 X19.4713 Y18.2506 
G01 X19.5320 Y18.2343 
G01 X19.6091 Y18.2343 
G01 X19.6625 Y18.2486 
G01 X19.6836 Y18.2543 
G01 X19.7140 Y18.2719 
G01 X19.7504 Y18.2928 
G01 X19.7653 Y18.3078 
G01 X20.2346 Y18.3078 
G01 X20.2718 Y18.3074 
G01 X20.2745 Y18.3078 
G01 X20.3104 Y18.3174 
G01 X20.3405 Y18.3252 
G01 X20.3669 Y18.3181 
G01 X20.4027 Y18.3082 
G01 X20.4053 Y18.3078 
G01 X20.4426 Y18.3078 
G01 X20.4698 Y18.3075 
G01 X20.4967 Y18.2920 
G01 X20.5234 Y18.2763 
G01 X20.5370 Y18.2528 
G01 X20.5554 Y18.2203 
G01 X20.5833 Y18.1918 
G01 X20.6024 Y18.1723 
G01 X20.6104 Y18.1424 
G01 X20.6182 Y18.1123 
G01 X20.6111 Y18.0859 
G01 X20.6012 Y18.0501 
G01 X20.6008 Y18.0475 
G01 X20.6008 Y18.0102 
G01 X20.6006 Y17.9830 
G01 X20.5850 Y17.9560 
G01 X20.5662 Y17.9241 
G01 X20.5554 Y17.8854 
G01 X20.3106 Y17.0041 
G01 X20.1463 Y16.9112 
G01 X19.8899 Y16.9825 
G01 X19.8834 Y16.9863 
G01 X19.8808 Y16.9874 
G01 X19.8447 Y16.9971 
G01 X19.8091 Y17.0070 
G01 X19.8063 Y17.0073 
G01 X19.7690 Y17.0073 
G01 X19.7320 Y17.0077 
G01 X19.7292 Y17.0073 
G01 X19.6932 Y16.9977 
G01 X19.6573 Y16.9884 
G01 X19.6547 Y16.9874 
G01 X19.6224 Y16.9687 
G01 X19.5902 Y16.9505 
G01 X19.5673 Y16.9282 
G01 X19.0073 Y16.9282 
G01 X18.9955 Y16.9303 
G01 X18.9689 Y16.9282 
G01 X18.9422 Y16.9282 
G01 X18.9306 Y16.9251 
G01 X18.8733 Y16.9204 
G01 X18.8491 Y16.9444 
G01 X18.8424 Y16.9483 
G01 X18.8366 Y16.9535 
G01 X18.8091 Y16.9675 
G01 X18.7824 Y16.9829 
G01 X18.7748 Y16.9849 
G01 X18.7679 Y16.9885 
G01 X18.7377 Y16.9949 
G01 X18.7079 Y17.0029 
G01 X18.7001 Y17.0029 
G01 X18.6925 Y17.0045 
G01 X18.6617 Y17.0029 
G01 X18.6308 Y17.0029 
G01 X18.6233 Y17.0009 
G01 X18.6155 Y17.0005 
G01 X18.5861 Y16.9909 
G01 X18.5563 Y16.9829 
G01 X18.5496 Y16.9790 
G01 X18.3163 Y16.9033 
G01 X18.1027 Y16.9727 
G01 X18.0960 Y16.9766 
G01 X18.0661 Y16.9845 
G01 X18.0368 Y16.9941 
G01 X18.0290 Y16.9945 
G01 X18.0215 Y16.9965 
G01 X17.9906 Y16.9965 
G01 X17.9598 Y16.9981 
G01 X17.9522 Y16.9965 
G01 X17.9444 Y16.9965 
G01 X17.9146 Y16.9885 
G01 X17.8844 Y16.9821 
G01 X17.8774 Y16.9786 
G01 X17.8699 Y16.9765 
G01 X17.8432 Y16.9611 
G01 X17.8157 Y16.9471 
G01 X17.8099 Y16.9419 
G01 X17.8032 Y16.9380 
G01 X17.7934 Y16.9282 
G01 X17.3993 Y16.9282 
G01 X17.3125 Y17.0150 
G01 X17.2600 Y17.0675 
G01 X17.2306 Y17.0853 
G01 X17.1912 Y17.1080 
G01 X17.1168 Y17.1280 
G01 X17.0397 Y17.1280 
G01 X16.9652 Y17.1080 
G01 X16.8984 Y17.0695 
G01 X16.8448 Y17.0158 
G01 X16.7571 Y16.9282 
G01 X16.5244 Y16.9282 
G01 X16.5132 Y16.9312 
G01 X16.4714 Y16.9424 
G01 X16.4330 Y16.9424 
G01 X16.3943 Y16.9424 
G01 X16.3527 Y16.9313 
G01 X16.3412 Y16.9282 
G01 X15.7789 Y16.9282 
G01 X15.7635 Y16.9371 
G01 X15.5779 Y17.0443 
G01 X15.4708 Y17.2298 
G00 Z2.5400  
G00 X19.6812 Y17.9417 
G01 Z-0.0350 F254   
G01 X19.7084 Y17.8761 F508   
G01 X19.7586 Y17.8259 
G01 X19.8242 Y17.7987 
G01 X19.8952 Y17.7987 
G01 X19.9608 Y17.8259 
G01 X20.0110 Y17.8761 
G01 X20.0215 Y17.9014 
G01 X20.1381 Y17.9014 
G01 X19.9348 Y17.1697 
G01 X19.9434 Y17.0992 
G01 X19.9784 Y17.0373 
G01 X20.0343 Y16.9936 
G01 X20.1027 Y16.9746 
G01 X20.1732 Y16.9832 
G01 X20.2351 Y17.0182 
G01 X20.2788 Y17.0741 
G01 X20.5420 Y18.0216 
G01 X20.5514 Y18.0444 
G01 X20.5514 Y18.0556 
G01 X20.5544 Y18.0663 
G01 X20.5514 Y18.0908 
G01 X20.5514 Y18.1154 
G01 X20.5471 Y18.1257 
G01 X20.5458 Y18.1368 
G01 X20.5337 Y18.1583 
G01 X20.5242 Y18.1810 
G01 X20.5163 Y18.1889 
G01 X20.5108 Y18.1986 
G01 X20.4914 Y18.2138 
G01 X20.4740 Y18.2312 
G01 X20.4637 Y18.2355 
G01 X20.4549 Y18.2424 
G01 X20.4312 Y18.2490 
G01 X20.4084 Y18.2584 
G01 X20.3973 Y18.2584 
G01 X20.3865 Y18.2614 
G01 X20.3620 Y18.2584 
G01 X19.8242 Y18.2584 
G01 X19.7586 Y18.2312 
G01 X19.7084 Y18.1810 
G01 X19.6812 Y18.1154 
G01 X19.6812 Y18.0444 
G01 X19.6812 Y17.9417 
G00 Z2.5400  
G00 X19.6514 Y17.8134 
G01 Z-0.0350 F254   
G01 X19.6514 Y17.9028 F508   
G01 X19.6235 Y18.0070 
G01 X19.5696 Y18.1003 
G01 X19.4934 Y18.1766 
G01 X19.4000 Y18.2305 
G01 X19.2959 Y18.2584 
G01 X19.2775 Y18.2584 
G01 X19.1819 Y18.2584 
G01 X19.0655 Y18.2285 
G01 X18.9603 Y18.1706 
G01 X18.8727 Y18.0883 
G01 X18.8084 Y17.9868 
G01 X18.7899 Y17.9296 
G01 X18.7789 Y17.8958 
G01 X18.7846 Y17.8250 
G01 X18.8169 Y17.7618 
G01 X18.8709 Y17.7157 
G01 X18.9385 Y17.6938 
G01 X19.0093 Y17.6995 
G01 X19.0725 Y17.7318 
G01 X19.1186 Y17.7858 
G01 X19.1295 Y17.8196 
G01 X19.1350 Y17.8334 
G01 X19.1508 Y17.8585 
G01 X19.1725 Y17.8788 
G01 X19.1984 Y17.8931 
G01 X19.2272 Y17.9005 
G01 X19.2419 Y17.9014 
G01 X19.2488 Y17.9009 
G01 X19.2620 Y17.8974 
G01 X19.2739 Y17.8906 
G01 X19.2836 Y17.8809 
G01 X19.2904 Y17.8690 
G01 X19.2940 Y17.8558 
G01 X19.2944 Y17.8489 
G01 X19.2938 Y17.8396 
G01 X19.2888 Y17.8215 
G01 X19.2831 Y17.8121 
G01 X19.2660 Y17.7921 
G01 X19.2471 Y17.7741 
G01 X19.2432 Y17.7652 
G01 X18.8284 Y17.2772 
G01 X18.8084 Y17.2572 
G01 X18.8055 Y17.2503 
G01 X18.8007 Y17.2446 
G01 X18.7920 Y17.2177 
G01 X18.7812 Y17.1916 
G01 X18.7812 Y17.1841 
G01 X18.7789 Y17.1771 
G01 X18.7812 Y17.1489 
G01 X18.7812 Y17.1206 
G01 X18.7841 Y17.1137 
G01 X18.7847 Y17.1063 
G01 X18.7976 Y17.0811 
G01 X18.8084 Y17.0550 
G01 X18.8136 Y17.0497 
G01 X18.8170 Y17.0431 
G01 X18.8386 Y17.0248 
G01 X18.8586 Y17.0048 
G01 X18.8655 Y17.0019 
G01 X18.8712 Y16.9971 
G01 X18.8981 Y16.9884 
G01 X18.9242 Y16.9776 
G01 X18.9317 Y16.9776 
G01 X18.9387 Y16.9753 
G01 X18.9669 Y16.9776 
G01 X19.5084 Y16.9776 
G01 X19.5740 Y17.0048 
G01 X19.6242 Y17.0550 
G01 X19.6514 Y17.1206 
G01 X19.6514 Y17.1916 
G01 X19.6242 Y17.2572 
G01 X19.5740 Y17.3074 
G01 X19.5084 Y17.3346 
G01 X19.3457 Y17.3346 
G01 X19.5259 Y17.5465 
G01 X19.5610 Y17.5800 
G01 X19.6205 Y17.6794 
G01 X19.6514 Y17.7910 
G01 X19.6514 Y17.8134 
G00 Z2.5400  
G00 X15.9305 Y18.2584 
G01 Z-0.0350 F254   
G01 X15.8342 Y18.2584 F508   
G01 X15.7186 Y18.2208 
G01 X15.6202 Y18.1494 
G01 X15.5488 Y18.0510 
G01 X15.5112 Y17.9354 
G01 X15.5112 Y17.3109 
G01 X15.5374 Y17.2132 
G01 X15.5879 Y17.1257 
G01 X15.6593 Y17.0543 
G01 X15.7469 Y17.0037 
G01 X15.8445 Y16.9776 
G01 X16.2384 Y16.9776 
G01 X16.3040 Y17.0048 
G01 X16.3543 Y17.0550 
G01 X16.3814 Y17.1206 
G01 X16.3814 Y17.7048 
G01 X16.3543 Y17.7704 
G01 X16.3040 Y17.8206 
G01 X16.2384 Y17.8478 
G01 X16.0135 Y17.8478 
G01 X15.9479 Y17.8206 
G01 X15.8976 Y17.7704 
G01 X15.8705 Y17.7048 
G01 X15.8705 Y17.6338 
G01 X15.8976 Y17.5682 
G01 X15.9479 Y17.5180 
G01 X16.0135 Y17.4908 
G01 X16.0244 Y17.4908 
G01 X16.0244 Y17.3346 
G01 X15.8950 Y17.3346 
G01 X15.8915 Y17.3348 
G01 X15.8848 Y17.3366 
G01 X15.8787 Y17.3401 
G01 X15.8738 Y17.3451 
G01 X15.8703 Y17.3511 
G01 X15.8684 Y17.3579 
G01 X15.8682 Y17.3614 
G01 X15.8682 Y17.8746 
G01 X15.8685 Y17.8788 
G01 X15.8711 Y17.8868 
G01 X15.8761 Y17.8935 
G01 X15.8828 Y17.8985 
G01 X15.8908 Y17.9011 
G01 X15.8950 Y17.9014 
G01 X16.2384 Y17.9014 
G01 X16.3040 Y17.9286 
G01 X16.3543 Y17.9788 
G01 X16.3814 Y18.0444 
G01 X16.3814 Y18.1154 
G01 X16.3543 Y18.1810 
G01 X16.3040 Y18.2312 
G01 X16.2384 Y18.2584 
G01 X15.9305 Y18.2584 
G00 Z2.5400  
G00 X16.4842 Y17.1206 
G01 Z-0.0350 F254   
G01 X16.5114 Y17.0550 F508   
G01 X16.5616 Y17.0048 
G01 X16.6272 Y16.9776 
G01 X16.6982 Y16.9776 
G01 X16.7638 Y17.0048 
G01 X16.8141 Y17.0550 
G01 X16.8412 Y17.1206 
G01 X16.8412 Y17.3882 
G01 X16.9819 Y17.3882 
G01 X17.1019 Y17.4234 
G01 X17.2072 Y17.4911 
G01 X17.2891 Y17.5856 
G01 X17.3411 Y17.6994 
G01 X17.3589 Y17.8233 
G01 X17.3411 Y17.9471 
G01 X17.2891 Y18.0609 
G01 X17.2072 Y18.1555 
G01 X17.1019 Y18.2231 
G01 X16.9819 Y18.2584 
G01 X16.6272 Y18.2584 
G01 X16.5616 Y18.2312 
G01 X16.5114 Y18.1810 
G01 X16.4842 Y18.1154 
G01 X16.4842 Y17.5312 
G01 X16.4842 Y17.1206 
G00 Z2.5400  
G00 X17.4178 Y17.3179 
G01 Z-0.0350 F254   
G01 X17.3926 Y17.3074 F508   
G01 X17.3424 Y17.2572 
G01 X17.3152 Y17.1916 
G01 X17.3152 Y17.1206 
G01 X17.3424 Y17.0550 
G01 X17.3926 Y17.0048 
G01 X17.4582 Y16.9776 
G01 X17.7345 Y16.9776 
G01 X17.8001 Y17.0048 
G01 X17.8503 Y17.0550 
G01 X17.8775 Y17.1206 
G01 X17.8775 Y17.1916 
G01 X17.8503 Y17.2572 
G01 X17.8001 Y17.3074 
G01 X17.7748 Y17.3179 
G01 X17.7748 Y17.9181 
G01 X17.8001 Y17.9286 
G01 X17.8503 Y17.9788 
G01 X17.8775 Y18.0444 
G01 X17.8775 Y18.1154 
G01 X17.8503 Y18.1810 
G01 X17.8001 Y18.2312 
G01 X17.7345 Y18.2584 
G01 X17.4582 Y18.2584 
G01 X17.3926 Y18.2312 
G01 X17.3424 Y18.1810 
G01 X17.3152 Y18.1154 
G01 X17.3152 Y18.0444 
G01 X17.3424 Y17.9788 
G01 X17.3926 Y17.9286 
G01 X17.4178 Y17.9181 
G01 X17.4178 Y17.3179 
G00 Z2.5400  
G00 X18.7514 Y17.8858 
G01 Z-0.0350 F254   
G01 X18.7514 Y17.8858 F508   
G01 X18.7162 Y18.0059 
G01 X18.6485 Y18.1111 
G01 X18.5540 Y18.1931 
G01 X18.4402 Y18.2451 
G01 X18.3163 Y18.2629 
G01 X18.1925 Y18.2451 
G01 X18.0787 Y18.1931 
G01 X17.9841 Y18.1111 
G01 X17.9165 Y18.0059 
G01 X17.8812 Y17.8858 
G01 X17.8812 Y17.4482 
G01 X17.8812 Y17.3501 
G01 X17.9165 Y17.2301 
G01 X17.9841 Y17.1248 
G01 X18.0787 Y17.0429 
G01 X18.1925 Y16.9909 
G01 X18.3163 Y16.9731 
G01 X18.4402 Y16.9909 
G01 X18.5540 Y17.0429 
G01 X18.6485 Y17.1248 
G01 X18.7162 Y17.2301 
G01 X18.7514 Y17.3501 
G01 X18.7514 Y17.8588 
G01 X18.7514 Y17.8858 
G00 Z2.5400  
G00 X80.9342 Y16.8739 
G01 Z-0.0350 F254   
G01 X80.9326 Y16.8728 F508   
G01 X80.9296 Y16.8718 
G01 X80.9387 Y16.8833 
G01 X80.9342 Y16.8739 
G00 Z2.5400  
G00 X80.9209 Y17.4361 
G01 Z-0.0350 F254   
G01 X80.9224 Y17.4372 F508   
G01 X80.9255 Y17.4382 
G01 X80.9163 Y17.4267 
G01 X80.9209 Y17.4361 
G00 Z2.5400  
G00 X78.7055 Y17.3823 
G01 Z-0.0350 F254   
G01 X78.7087 Y17.3603 F508   
G01 X78.7055 Y17.3383 
G01 X78.6963 Y17.3180 
G01 X78.6817 Y17.3012 
G01 X78.6630 Y17.2892 
G01 X78.6417 Y17.2830 
G01 X78.6305 Y17.2822 
G01 X78.5524 Y17.2822 
G01 X78.5524 Y17.4384 
G01 X78.6306 Y17.4384 
G01 X78.6417 Y17.4376 
G01 X78.6630 Y17.4313 
G01 X78.6817 Y17.4193 
G01 X78.6963 Y17.4025 
G01 X78.7055 Y17.3823 
G00 Z2.5400  
G00 X80.0495 Y16.8748 
G01 Z-0.0350 F254   
G01 X80.0275 Y16.8716 F508   
G01 X80.0055 Y16.8748 
G01 X79.9853 Y16.8840 
G01 X79.9685 Y16.8985 
G01 X79.9565 Y16.9173 
G01 X79.9502 Y16.9386 
G01 X79.9494 Y16.9497 
G01 X79.9494 Y17.3603 
G01 X79.9502 Y17.3714 
G01 X79.9565 Y17.3927 
G01 X79.9685 Y17.4114 
G01 X79.9853 Y17.4260 
G01 X80.0055 Y17.4352 
G01 X80.0275 Y17.4384 
G01 X80.0495 Y17.4352 
G01 X80.0698 Y17.4260 
G01 X80.0866 Y17.4114 
G01 X80.0986 Y17.3927 
G01 X80.1048 Y17.3714 
G01 X80.1056 Y17.3603 
G01 X80.1056 Y17.3248 
G01 X80.1056 Y16.9497 
G01 X80.1048 Y16.9386 
G01 X80.0986 Y16.9172 
G01 X80.0866 Y16.8985 
G01 X80.0698 Y16.8840 
G01 X80.0495 Y16.8748 
G00 Z2.5400  
G00 X77.1820 Y16.7668 
G01 Z-0.0350 F254   
G01 X77.1730 Y16.7823 F508   
G01 X77.1730 Y17.5277 
G01 X77.2891 Y17.7287 
G01 X77.4746 Y17.8358 
G01 X77.4901 Y17.8448 
G01 X77.6678 Y17.8448 
G01 X77.7833 Y17.8448 
G01 X78.0524 Y17.8448 
G01 X78.0637 Y17.8418 
G01 X78.1055 Y17.8306 
G01 X78.1438 Y17.8306 
G01 X78.1826 Y17.8306 
G01 X78.2241 Y17.8417 
G01 X78.2357 Y17.8448 
G01 X78.7880 Y17.8448 
G01 X78.8036 Y17.8334 
G01 X78.8181 Y17.8278 
G01 X78.8316 Y17.8201 
G01 X78.8540 Y17.8141 
G01 X78.8756 Y17.8058 
G01 X78.8910 Y17.8042 
G01 X78.9060 Y17.8001 
G01 X78.9292 Y17.8001 
G01 X78.9523 Y17.7977 
G01 X78.9676 Y17.8001 
G01 X78.9831 Y17.8001 
G01 X79.0055 Y17.8062 
G01 X79.0284 Y17.8098 
G01 X79.0426 Y17.8161 
G01 X79.0576 Y17.8201 
G01 X79.0777 Y17.8317 
G01 X79.0989 Y17.8411 
G01 X79.1034 Y17.8448 
G01 X79.5046 Y17.8448 
G01 X79.5144 Y17.8350 
G01 X79.5211 Y17.8311 
G01 X79.5269 Y17.8259 
G01 X79.5544 Y17.8119 
G01 X79.5811 Y17.7964 
G01 X79.5887 Y17.7944 
G01 X79.5956 Y17.7909 
G01 X79.6258 Y17.7845 
G01 X79.6556 Y17.7765 
G01 X79.6634 Y17.7765 
G01 X79.6710 Y17.7749 
G01 X79.7018 Y17.7765 
G01 X79.7327 Y17.7765 
G01 X79.7402 Y17.7785 
G01 X79.7480 Y17.7789 
G01 X79.7773 Y17.7884 
G01 X79.8072 Y17.7964 
G01 X79.8139 Y17.8003 
G01 X80.0275 Y17.8697 
G01 X80.3535 Y17.7638 
G01 X80.3616 Y17.7571 
G01 X80.3976 Y17.7408 
G01 X80.4318 Y17.7252 
G01 X80.4709 Y17.7187 
G01 X80.5078 Y17.7125 
G01 X80.5475 Y17.7164 
G01 X80.5846 Y17.7200 
G01 X80.6219 Y17.7340 
G01 X80.6568 Y17.7470 
G01 X80.6891 Y17.7701 
G01 X80.7936 Y17.8448 
G01 X81.0614 Y17.8448 
G01 X81.1760 Y17.7630 
G01 X81.1843 Y17.7544 
G01 X81.2073 Y17.7406 
G01 X81.2291 Y17.7250 
G01 X81.2402 Y17.7209 
G01 X81.2504 Y17.7148 
G01 X81.2762 Y17.7074 
G01 X81.3013 Y17.6980 
G01 X81.3131 Y17.6969 
G01 X81.3245 Y17.6936 
G01 X81.3513 Y17.6931 
G01 X81.3780 Y17.6906 
G01 X81.3897 Y17.6925 
G01 X81.4016 Y17.6923 
G01 X81.4276 Y17.6988 
G01 X81.4540 Y17.7032 
G01 X81.4649 Y17.7082 
G01 X81.4764 Y17.7110 
G01 X81.4998 Y17.7240 
G01 X81.5242 Y17.7352 
G01 X81.5334 Y17.7427 
G01 X81.7480 Y17.8620 
G01 X81.9296 Y17.8101 
G01 X82.0213 Y17.6451 
G01 X82.0096 Y17.6041 
G01 X81.9990 Y17.5672 
G01 X81.9891 Y17.5324 
G01 X81.9884 Y17.5276 
G01 X81.9884 Y17.4915 
G01 X81.9878 Y17.4553 
G01 X81.9884 Y17.4505 
G01 X81.9977 Y17.4156 
G01 X82.0065 Y17.3805 
G01 X82.0084 Y17.3760 
G01 X82.0264 Y17.3447 
G01 X82.0440 Y17.3131 
G01 X82.0469 Y17.3092 
G01 X82.0725 Y17.2837 
G01 X82.0976 Y17.2577 
G01 X82.1696 Y17.1866 
G01 X82.1780 Y17.1550 
G01 X82.2166 Y17.0882 
G01 X82.2711 Y17.0337 
G01 X82.3120 Y16.9928 
G01 X82.3120 Y16.8040 
G01 X82.2166 Y16.7085 
G01 X82.1780 Y16.6417 
G01 X82.1696 Y16.6102 
G01 X82.0246 Y16.4652 
G01 X81.8358 Y16.4652 
G01 X81.7224 Y16.5786 
G01 X81.6973 Y16.6045 
G01 X81.6935 Y16.6075 
G01 X81.6621 Y16.6256 
G01 X81.6312 Y16.6441 
G01 X81.6267 Y16.6460 
G01 X81.6119 Y16.6500 
G01 X81.5761 Y16.6599 
G01 X81.5413 Y16.6698 
G01 X81.5365 Y16.6705 
G01 X81.5004 Y16.6705 
G01 X81.4642 Y16.6711 
G01 X81.4528 Y16.6728 
G01 X81.4285 Y16.6705 
G01 X81.4041 Y16.6705 
G01 X81.3903 Y16.6668 
G01 X81.3760 Y16.6654 
G01 X81.3532 Y16.6568 
G01 X81.3296 Y16.6505 
G01 X81.3172 Y16.6434 
G01 X81.3038 Y16.6383 
G01 X81.2840 Y16.6242 
G01 X81.2629 Y16.6120 
G01 X81.2527 Y16.6019 
G01 X81.0614 Y16.4652 
G01 X80.7936 Y16.4652 
G01 X80.6889 Y16.5400 
G01 X80.6588 Y16.5618 
G01 X80.6217 Y16.5761 
G01 X80.5869 Y16.5895 
G01 X80.5473 Y16.5936 
G01 X80.5102 Y16.5975 
G01 X80.4710 Y16.5913 
G01 X80.4340 Y16.5854 
G01 X80.3978 Y16.5693 
G01 X80.3636 Y16.5541 
G01 X80.3535 Y16.5462 
G01 X80.0275 Y16.4403 
G01 X79.8139 Y16.5097 
G01 X79.8072 Y16.5136 
G01 X79.7774 Y16.5215 
G01 X79.7480 Y16.5311 
G01 X79.7402 Y16.5315 
G01 X79.7327 Y16.5335 
G01 X79.7018 Y16.5335 
G01 X79.6710 Y16.5351 
G01 X79.6634 Y16.5335 
G01 X79.6556 Y16.5335 
G01 X79.6258 Y16.5255 
G01 X79.5956 Y16.5191 
G01 X79.5887 Y16.5156 
G01 X79.5811 Y16.5135 
G01 X79.5544 Y16.4981 
G01 X79.5269 Y16.4841 
G01 X79.5211 Y16.4789 
G01 X79.5144 Y16.4750 
G01 X79.5046 Y16.4652 
G01 X79.1105 Y16.4652 
G01 X79.0237 Y16.5520 
G01 X78.9712 Y16.6045 
G01 X78.9418 Y16.6223 
G01 X78.9024 Y16.6450 
G01 X78.8280 Y16.6650 
G01 X78.7509 Y16.6650 
G01 X78.6764 Y16.6450 
G01 X78.6096 Y16.6065 
G01 X78.5560 Y16.5528 
G01 X78.4683 Y16.4652 
G01 X78.2357 Y16.4652 
G01 X78.2244 Y16.4682 
G01 X78.1826 Y16.4794 
G01 X78.1443 Y16.4794 
G01 X78.1055 Y16.4794 
G01 X78.0640 Y16.4683 
G01 X78.0524 Y16.4652 
G01 X77.4901 Y16.4652 
G01 X77.4746 Y16.4741 
G01 X77.2891 Y16.5813 
G01 X77.1820 Y16.7668 
G00 Z2.5400  
G00 X81.9576 Y17.6020 
G01 Z-0.0350 F254   
G01 X81.9495 Y17.6725 F508   
G01 X81.9150 Y17.7346 
G01 X81.8594 Y17.7788 
G01 X81.7911 Y17.7983 
G01 X81.7206 Y17.7902 
G01 X81.6585 Y17.7557 
G01 X81.6143 Y17.7001 
G01 X81.4021 Y16.9572 
G01 X81.3924 Y16.9339 
G01 X81.3924 Y16.9234 
G01 X81.3895 Y16.9133 
G01 X81.3924 Y16.8881 
G01 X81.3924 Y16.8629 
G01 X81.3964 Y16.8532 
G01 X81.3976 Y16.8427 
G01 X81.4099 Y16.8206 
G01 X81.4196 Y16.7973 
G01 X81.4270 Y16.7898 
G01 X81.4321 Y16.7807 
G01 X81.4519 Y16.7649 
G01 X81.4698 Y16.7471 
G01 X81.4795 Y16.7430 
G01 X81.4877 Y16.7365 
G01 X81.5121 Y16.7296 
G01 X81.5354 Y16.7199 
G01 X81.5459 Y16.7199 
G01 X81.5560 Y16.7170 
G01 X81.5811 Y16.7199 
G01 X81.7517 Y16.7199 
G01 X81.7517 Y16.6576 
G01 X81.7788 Y16.5920 
G01 X81.8291 Y16.5418 
G01 X81.8947 Y16.5146 
G01 X81.9657 Y16.5146 
G01 X82.0313 Y16.5418 
G01 X82.0815 Y16.5920 
G01 X82.1087 Y16.6576 
G01 X82.1087 Y16.7199 
G01 X82.1196 Y16.7199 
G01 X82.1852 Y16.7471 
G01 X82.2355 Y16.7973 
G01 X82.2626 Y16.8629 
G01 X82.2626 Y16.9339 
G01 X82.2355 Y16.9995 
G01 X82.1852 Y17.0497 
G01 X82.1196 Y17.0769 
G01 X82.1087 Y17.0769 
G01 X82.1087 Y17.1392 
G01 X82.0815 Y17.2048 
G01 X82.0313 Y17.2550 
G01 X81.9657 Y17.2822 
G01 X81.8947 Y17.2822 
G01 X81.8624 Y17.2688 
G01 X81.9576 Y17.6020 
G00 Z2.5400  
G00 X80.4626 Y17.4228 
G01 Z-0.0350 F254   
G01 X80.4626 Y17.4228 F508   
G01 X80.4274 Y17.5429 
G01 X80.3597 Y17.6481 
G01 X80.2652 Y17.7301 
G01 X80.1514 Y17.7821 
G01 X80.0275 Y17.7999 
G01 X79.9037 Y17.7821 
G01 X79.7899 Y17.7301 
G01 X79.6953 Y17.6481 
G01 X79.6277 Y17.5429 
G01 X79.5924 Y17.4228 
G01 X79.5924 Y16.9852 
G01 X79.5924 Y16.8871 
G01 X79.6277 Y16.7671 
G01 X79.6953 Y16.6618 
G01 X79.7899 Y16.5799 
G01 X79.9037 Y16.5279 
G01 X80.0275 Y16.5101 
G01 X80.1514 Y16.5279 
G01 X80.2652 Y16.5799 
G01 X80.3597 Y16.6618 
G01 X80.4274 Y16.7671 
G01 X80.4626 Y16.8871 
G01 X80.4626 Y17.3958 
G01 X80.4626 Y17.4228 
G00 Z2.5400  
G00 X79.1290 Y16.8549 
G01 Z-0.0350 F254   
G01 X79.1038 Y16.8444 F508   
G01 X79.0536 Y16.7942 
G01 X79.0264 Y16.7286 
G01 X79.0264 Y16.6576 
G01 X79.0536 Y16.5920 
G01 X79.1038 Y16.5418 
G01 X79.1694 Y16.5146 
G01 X79.4457 Y16.5146 
G01 X79.5113 Y16.5418 
G01 X79.5615 Y16.5920 
G01 X79.5887 Y16.6576 
G01 X79.5887 Y16.7286 
G01 X79.5615 Y16.7942 
G01 X79.5113 Y16.8444 
G01 X79.4860 Y16.8549 
G01 X79.4860 Y17.4551 
G01 X79.5113 Y17.4656 
G01 X79.5615 Y17.5158 
G01 X79.5887 Y17.5814 
G01 X79.5887 Y17.6524 
G01 X79.5615 Y17.7180 
G01 X79.5113 Y17.7682 
G01 X79.4457 Y17.7954 
G01 X79.1694 Y17.7954 
G01 X79.1038 Y17.7682 
G01 X79.0536 Y17.7180 
G01 X79.0264 Y17.6524 
G01 X79.0264 Y17.5814 
G01 X79.0536 Y17.5158 
G01 X79.1038 Y17.4656 
G01 X79.1290 Y17.4551 
G01 X79.1290 Y16.8549 
G00 Z2.5400  
G00 X77.5454 Y17.7954 
G01 Z-0.0350 F254   
G01 X77.5454 Y17.7954 F508   
G01 X77.4298 Y17.7578 
G01 X77.3315 Y17.6864 
G01 X77.2600 Y17.5880 
G01 X77.2224 Y17.4724 
G01 X77.2224 Y16.8479 
G01 X77.2486 Y16.7502 
G01 X77.2991 Y16.6627 
G01 X77.3706 Y16.5913 
G01 X77.4581 Y16.5407 
G01 X77.5557 Y16.5146 
G01 X77.9497 Y16.5146 
G01 X78.0153 Y16.5418 
G01 X78.0655 Y16.5920 
G01 X78.0926 Y16.6576 
G01 X78.0926 Y17.2418 
G01 X78.0655 Y17.3074 
G01 X78.0153 Y17.3576 
G01 X77.9497 Y17.3848 
G01 X77.7247 Y17.3848 
G01 X77.6591 Y17.3576 
G01 X77.6089 Y17.3074 
G01 X77.5817 Y17.2418 
G01 X77.5817 Y17.1708 
G01 X77.6089 Y17.1052 
G01 X77.6591 Y17.0550 
G01 X77.7247 Y17.0278 
G01 X77.7357 Y17.0278 
G01 X77.7357 Y16.8716 
G01 X77.6062 Y16.8716 
G01 X77.6027 Y16.8718 
G01 X77.5960 Y16.8736 
G01 X77.5899 Y16.8771 
G01 X77.5850 Y16.8821 
G01 X77.5815 Y16.8881 
G01 X77.5797 Y16.8949 
G01 X77.5794 Y16.8984 
G01 X77.5794 Y17.4116 
G01 X77.5798 Y17.4158 
G01 X77.5823 Y17.4238 
G01 X77.5873 Y17.4305 
G01 X77.5941 Y17.4355 
G01 X77.6020 Y17.4381 
G01 X77.6062 Y17.4384 
G01 X77.9497 Y17.4384 
G01 X78.0153 Y17.4656 
G01 X78.0655 Y17.5158 
G01 X78.0926 Y17.5814 
G01 X78.0926 Y17.6524 
G01 X78.0655 Y17.7180 
G01 X78.0153 Y17.7682 
G01 X77.9497 Y17.7954 
G01 X77.5707 Y17.7954 
G01 X77.5454 Y17.7954 
G00 Z2.5400  
G00 X78.1954 Y16.6576 
G01 Z-0.0350 F254   
G01 X78.2226 Y16.5920 F508   
G01 X78.2728 Y16.5418 
G01 X78.3384 Y16.5146 
G01 X78.4094 Y16.5146 
G01 X78.4751 Y16.5418 
G01 X78.5253 Y16.5920 
G01 X78.5524 Y16.6576 
G01 X78.5524 Y16.9252 
G01 X78.6931 Y16.9252 
G01 X78.8132 Y16.9604 
G01 X78.9184 Y17.0281 
G01 X79.0003 Y17.1226 
G01 X79.0523 Y17.2364 
G01 X79.0701 Y17.3603 
G01 X79.0523 Y17.4841 
G01 X79.0003 Y17.5979 
G01 X78.9184 Y17.6925 
G01 X78.8132 Y17.7601 
G01 X78.6931 Y17.7954 
G01 X78.3384 Y17.7954 
G01 X78.2728 Y17.7682 
G01 X78.2226 Y17.7180 
G01 X78.1954 Y17.6524 
G01 X78.1954 Y17.5814 
G01 X78.1954 Y16.6576 
G00 Z2.5400  
G00 X80.5563 Y17.5028 
G01 Z-0.0350 F254   
G01 X80.5563 Y17.5028 F508   
G01 X80.5139 Y17.3669 
G01 X80.4924 Y17.2262 
G01 X80.4924 Y17.0838 
G01 X80.5139 Y16.9431 
G01 X80.5563 Y16.8072 
G01 X80.5826 Y16.7531 
G01 X80.5977 Y16.7090 
G01 X80.6665 Y16.6167 
G01 X80.7603 Y16.5497 
G01 X80.8699 Y16.5146 
G01 X80.9851 Y16.5146 
G01 X81.0948 Y16.5497 
G01 X81.1885 Y16.6167 
G01 X81.2573 Y16.7090 
G01 X81.2724 Y16.7530 
G01 X81.2988 Y16.8072 
G01 X81.3412 Y16.9431 
G01 X81.3626 Y17.0838 
G01 X81.3626 Y17.2262 
G01 X81.3412 Y17.3669 
G01 X81.2988 Y17.5028 
G01 X81.2724 Y17.5569 
G01 X81.2573 Y17.6009 
G01 X81.1885 Y17.6933 
G01 X81.0948 Y17.7602 
G01 X80.9851 Y17.7954 
G01 X80.8699 Y17.7954 
G01 X80.7603 Y17.7602 
G01 X80.6665 Y17.6933 
G01 X80.5977 Y17.6010 
G01 X80.5826 Y17.5569 
G01 X80.5563 Y17.5028 
G00 Z2.5400  
G00 X62.6848 Y16.8306 
G01 Z-0.0350 F254   
G01 X62.6628 Y16.8274 F508   
G01 X62.6408 Y16.8306 
G01 X62.6205 Y16.8398 
G01 X62.6037 Y16.8543 
G01 X62.5917 Y16.8731 
G01 X62.5854 Y16.8944 
G01 X62.5847 Y16.9055 
G01 X62.5847 Y17.3161 
G01 X62.5854 Y17.3272 
G01 X62.5917 Y17.3485 
G01 X62.6037 Y17.3672 
G01 X62.6205 Y17.3818 
G01 X62.6408 Y17.3910 
G01 X62.6628 Y17.3942 
G01 X62.6848 Y17.3910 
G01 X62.7050 Y17.3818 
G01 X62.7218 Y17.3672 
G01 X62.7338 Y17.3485 
G01 X62.7401 Y17.3272 
G01 X62.7409 Y17.3161 
G01 X62.7409 Y17.2806 
G01 X62.7409 Y16.9055 
G01 X62.7401 Y16.8944 
G01 X62.7338 Y16.8731 
G01 X62.7218 Y16.8543 
G01 X62.7050 Y16.8398 
G01 X62.6848 Y16.8306 
G00 Z2.5400  
G00 X61.3407 Y17.3381 
G01 Z-0.0350 F254   
G01 X61.3439 Y17.3161 F508   
G01 X61.3407 Y17.2941 
G01 X61.3315 Y17.2738 
G01 X61.3169 Y17.2570 
G01 X61.2982 Y17.2450 
G01 X61.2769 Y17.2388 
G01 X61.2658 Y17.2380 
G01 X61.1877 Y17.2380 
G01 X61.1877 Y17.3942 
G01 X61.2658 Y17.3942 
G01 X61.2769 Y17.3934 
G01 X61.2982 Y17.3871 
G01 X61.3169 Y17.3751 
G01 X61.3315 Y17.3583 
G01 X61.3407 Y17.3381 
G00 Z2.5400  
G00 X59.8172 Y16.7226 
G01 Z-0.0350 F254   
G01 X59.8083 Y16.7381 F508   
G01 X59.8083 Y17.4835 
G01 X59.9243 Y17.6845 
G01 X60.1099 Y17.7916 
G01 X60.1254 Y17.8006 
G01 X60.3034 Y17.8006 
G01 X60.4186 Y17.8006 
G01 X60.6877 Y17.8006 
G01 X60.7407 Y17.7864 
G01 X60.8178 Y17.7864 
G01 X60.8709 Y17.8006 
G01 X61.4232 Y17.8006 
G01 X61.4389 Y17.7892 
G01 X61.4534 Y17.7836 
G01 X61.4668 Y17.7759 
G01 X61.4892 Y17.7699 
G01 X61.5109 Y17.7616 
G01 X61.5263 Y17.7600 
G01 X61.5413 Y17.7559 
G01 X61.5645 Y17.7559 
G01 X61.5875 Y17.7535 
G01 X61.6028 Y17.7559 
G01 X61.6184 Y17.7559 
G01 X61.6408 Y17.7620 
G01 X61.6637 Y17.7656 
G01 X61.6778 Y17.7719 
G01 X61.6928 Y17.7759 
G01 X61.7129 Y17.7875 
G01 X61.7341 Y17.7969 
G01 X61.7386 Y17.8006 
G01 X62.1398 Y17.8006 
G01 X62.1496 Y17.7908 
G01 X62.1564 Y17.7869 
G01 X62.1621 Y17.7817 
G01 X62.1896 Y17.7677 
G01 X62.2164 Y17.7522 
G01 X62.2239 Y17.7502 
G01 X62.2308 Y17.7467 
G01 X62.2610 Y17.7403 
G01 X62.2909 Y17.7323 
G01 X62.2986 Y17.7323 
G01 X62.3062 Y17.7307 
G01 X62.3371 Y17.7323 
G01 X62.3679 Y17.7323 
G01 X62.3755 Y17.7343 
G01 X62.3832 Y17.7347 
G01 X62.4126 Y17.7442 
G01 X62.4424 Y17.7522 
G01 X62.4492 Y17.7561 
G01 X62.6628 Y17.8255 
G01 X63.0043 Y17.7145 
G01 X63.0338 Y17.7030 
G01 X63.0620 Y17.6905 
G01 X63.0697 Y17.6892 
G01 X63.0770 Y17.6865 
G01 X63.1076 Y17.6832 
G01 X63.1382 Y17.6784 
G01 X63.1459 Y17.6792 
G01 X63.1536 Y17.6784 
G01 X63.1841 Y17.6833 
G01 X63.2148 Y17.6865 
G01 X63.2221 Y17.6893 
G01 X63.2298 Y17.6905 
G01 X63.2580 Y17.7031 
G01 X63.2868 Y17.7141 
G01 X63.2931 Y17.7187 
G01 X63.4372 Y17.7829 
G01 X63.4522 Y17.7870 
G01 X63.4723 Y17.7986 
G01 X63.4768 Y17.8006 
G01 X63.7114 Y17.8006 
G01 X63.7372 Y17.7857 
G01 X63.8040 Y17.7471 
G01 X63.8429 Y17.7367 
G01 X63.8785 Y17.7271 
G01 X63.9556 Y17.7271 
G01 X64.0300 Y17.7471 
G01 X64.0636 Y17.7665 
G01 X64.0968 Y17.7856 
G01 X64.1118 Y17.8006 
G01 X64.5811 Y17.8006 
G01 X64.6183 Y17.8003 
G01 X64.6209 Y17.8006 
G01 X64.6569 Y17.8102 
G01 X64.6869 Y17.8180 
G01 X64.7134 Y17.8109 
G01 X64.7491 Y17.8010 
G01 X64.7518 Y17.8006 
G01 X64.7890 Y17.8006 
G01 X64.8163 Y17.8003 
G01 X64.8431 Y17.7849 
G01 X64.8699 Y17.7691 
G01 X64.8834 Y17.7456 
G01 X64.9018 Y17.7131 
G01 X64.9297 Y17.6847 
G01 X64.9489 Y17.6651 
G01 X64.9569 Y17.6352 
G01 X64.9647 Y17.6051 
G01 X64.9576 Y17.5787 
G01 X64.9476 Y17.5429 
G01 X64.9473 Y17.5403 
G01 X64.9473 Y17.5030 
G01 X64.9470 Y17.4758 
G01 X64.9314 Y17.4488 
G01 X64.9126 Y17.4169 
G01 X64.9019 Y17.3782 
G01 X64.6571 Y16.4969 
G01 X64.4927 Y16.4040 
G01 X64.2363 Y16.4753 
G01 X64.2298 Y16.4791 
G01 X64.2272 Y16.4802 
G01 X64.1912 Y16.4899 
G01 X64.1555 Y16.4998 
G01 X64.1527 Y16.5001 
G01 X64.1155 Y16.5001 
G01 X64.0784 Y16.5005 
G01 X64.0757 Y16.5001 
G01 X64.0396 Y16.4905 
G01 X64.0038 Y16.4812 
G01 X64.0012 Y16.4802 
G01 X63.9689 Y16.4615 
G01 X63.9366 Y16.4433 
G01 X63.9138 Y16.4210 
G01 X63.3538 Y16.4210 
G01 X63.3420 Y16.4231 
G01 X63.3154 Y16.4210 
G01 X63.2887 Y16.4210 
G01 X63.2771 Y16.4179 
G01 X63.2197 Y16.4132 
G01 X63.1956 Y16.4372 
G01 X63.1888 Y16.4411 
G01 X63.1830 Y16.4463 
G01 X63.1555 Y16.4603 
G01 X63.1288 Y16.4757 
G01 X63.1213 Y16.4777 
G01 X63.1144 Y16.4813 
G01 X63.0842 Y16.4877 
G01 X63.0543 Y16.4957 
G01 X63.0465 Y16.4957 
G01 X63.0389 Y16.4973 
G01 X63.0081 Y16.4957 
G01 X62.9772 Y16.4957 
G01 X62.9697 Y16.4937 
G01 X62.9620 Y16.4933 
G01 X62.9326 Y16.4837 
G01 X62.9028 Y16.4757 
G01 X62.8960 Y16.4718 
G01 X62.6628 Y16.3961 
G01 X62.4492 Y16.4655 
G01 X62.4424 Y16.4694 
G01 X62.4126 Y16.4773 
G01 X62.3832 Y16.4869 
G01 X62.3755 Y16.4873 
G01 X62.3679 Y16.4893 
G01 X62.3371 Y16.4893 
G01 X62.3062 Y16.4909 
G01 X62.2986 Y16.4893 
G01 X62.2908 Y16.4893 
G01 X62.2610 Y16.4813 
G01 X62.2308 Y16.4749 
G01 X62.2239 Y16.4714 
G01 X62.2164 Y16.4693 
G01 X62.1896 Y16.4539 
G01 X62.1621 Y16.4399 
G01 X62.1563 Y16.4347 
G01 X62.1496 Y16.4308 
G01 X62.1398 Y16.4210 
G01 X61.7457 Y16.4210 
G01 X61.6589 Y16.5078 
G01 X61.6064 Y16.5603 
G01 X61.5771 Y16.5781 
G01 X61.5377 Y16.6008 
G01 X61.4632 Y16.6208 
G01 X61.3861 Y16.6208 
G01 X61.3116 Y16.6008 
G01 X61.2449 Y16.5623 
G01 X61.1912 Y16.5086 
G01 X61.1036 Y16.4210 
G01 X60.8709 Y16.4210 
G01 X60.8597 Y16.4240 
G01 X60.8179 Y16.4352 
G01 X60.7795 Y16.4352 
G01 X60.7408 Y16.4352 
G01 X60.6992 Y16.4241 
G01 X60.6877 Y16.4210 
G01 X60.1254 Y16.4210 
G01 X60.1099 Y16.4299 
G01 X59.9243 Y16.5371 
G01 X59.8172 Y16.7226 
G00 Z2.5400  
G00 X64.0277 Y17.4345 
G01 Z-0.0350 F254   
G01 X64.0548 Y17.3689 F508   
G01 X64.1050 Y17.3187 
G01 X64.1706 Y17.2915 
G01 X64.2417 Y17.2915 
G01 X64.3073 Y17.3187 
G01 X64.3575 Y17.3689 
G01 X64.3679 Y17.3942 
G01 X64.4845 Y17.3942 
G01 X64.2813 Y16.6625 
G01 X64.2899 Y16.5920 
G01 X64.3248 Y16.5302 
G01 X64.3808 Y16.4864 
G01 X64.4492 Y16.4674 
G01 X64.5197 Y16.4760 
G01 X64.5815 Y16.5110 
G01 X64.6252 Y16.5669 
G01 X64.8884 Y17.5144 
G01 X64.8979 Y17.5372 
G01 X64.8979 Y17.5484 
G01 X64.9009 Y17.5591 
G01 X64.8979 Y17.5836 
G01 X64.8979 Y17.6082 
G01 X64.8936 Y17.6185 
G01 X64.8922 Y17.6296 
G01 X64.8801 Y17.6511 
G01 X64.8707 Y17.6738 
G01 X64.8628 Y17.6817 
G01 X64.8573 Y17.6914 
G01 X64.8379 Y17.7066 
G01 X64.8205 Y17.7240 
G01 X64.8102 Y17.7283 
G01 X64.8014 Y17.7352 
G01 X64.7776 Y17.7418 
G01 X64.7549 Y17.7512 
G01 X64.7437 Y17.7512 
G01 X64.7329 Y17.7542 
G01 X64.7085 Y17.7512 
G01 X64.1706 Y17.7512 
G01 X64.1050 Y17.7240 
G01 X64.0548 Y17.6738 
G01 X64.0277 Y17.6082 
G01 X64.0277 Y17.5372 
G01 X64.0277 Y17.4345 
G00 Z2.5400  
G00 X63.9979 Y17.3956 
G01 Z-0.0350 F254   
G01 X63.9979 Y17.3956 F508   
G01 X63.9700 Y17.4998 
G01 X63.9161 Y17.5931 
G01 X63.8398 Y17.6694 
G01 X63.7465 Y17.7233 
G01 X63.6423 Y17.7512 
G01 X63.6239 Y17.7512 
G01 X63.5283 Y17.7512 
G01 X63.4120 Y17.7213 
G01 X63.3067 Y17.6634 
G01 X63.2192 Y17.5811 
G01 X63.1548 Y17.4796 
G01 X63.1363 Y17.4224 
G01 X63.1254 Y17.3886 
G01 X63.1310 Y17.3178 
G01 X63.1633 Y17.2546 
G01 X63.2174 Y17.2085 
G01 X63.2849 Y17.1866 
G01 X63.3557 Y17.1923 
G01 X63.4190 Y17.2246 
G01 X63.4650 Y17.2786 
G01 X63.4760 Y17.3124 
G01 X63.4814 Y17.3262 
G01 X63.4973 Y17.3513 
G01 X63.5189 Y17.3716 
G01 X63.5449 Y17.3859 
G01 X63.5736 Y17.3933 
G01 X63.5884 Y17.3942 
G01 X63.5953 Y17.3937 
G01 X63.6085 Y17.3902 
G01 X63.6204 Y17.3834 
G01 X63.6300 Y17.3737 
G01 X63.6369 Y17.3618 
G01 X63.6404 Y17.3486 
G01 X63.6409 Y17.3417 
G01 X63.6402 Y17.3324 
G01 X63.6353 Y17.3143 
G01 X63.6296 Y17.3049 
G01 X63.6125 Y17.2849 
G01 X63.5936 Y17.2669 
G01 X63.5897 Y17.2580 
G01 X63.1748 Y16.7700 
G01 X63.1548 Y16.7500 
G01 X63.1520 Y16.7431 
G01 X63.1472 Y16.7374 
G01 X63.1385 Y16.7105 
G01 X63.1277 Y16.6844 
G01 X63.1277 Y16.6769 
G01 X63.1254 Y16.6699 
G01 X63.1277 Y16.6417 
G01 X63.1277 Y16.6134 
G01 X63.1305 Y16.6065 
G01 X63.1311 Y16.5991 
G01 X63.1440 Y16.5739 
G01 X63.1548 Y16.5478 
G01 X63.1601 Y16.5425 
G01 X63.1635 Y16.5359 
G01 X63.1851 Y16.5176 
G01 X63.2050 Y16.4976 
G01 X63.2119 Y16.4947 
G01 X63.2176 Y16.4899 
G01 X63.2445 Y16.4812 
G01 X63.2706 Y16.4704 
G01 X63.2781 Y16.4704 
G01 X63.2852 Y16.4681 
G01 X63.3134 Y16.4704 
G01 X63.8549 Y16.4704 
G01 X63.9205 Y16.4976 
G01 X63.9707 Y16.5478 
G01 X63.9979 Y16.6134 
G01 X63.9979 Y16.6844 
G01 X63.9707 Y16.7500 
G01 X63.9205 Y16.8002 
G01 X63.8549 Y16.8274 
G01 X63.6921 Y16.8274 
G01 X63.8723 Y17.0393 
G01 X63.9074 Y17.0728 
G01 X63.9670 Y17.1722 
G01 X63.9979 Y17.2838 
G01 X63.9979 Y17.3417 
G01 X63.9979 Y17.3956 
G00 Z2.5400  
G00 X60.1807 Y17.7512 
G01 Z-0.0350 F254   
G01 X60.1807 Y17.7512 F508   
G01 X60.0650 Y17.7136 
G01 X59.9667 Y17.6422 
G01 X59.8952 Y17.5438 
G01 X59.8577 Y17.4282 
G01 X59.8577 Y16.8037 
G01 X59.8838 Y16.7060 
G01 X59.9343 Y16.6185 
G01 X60.0058 Y16.5471 
G01 X60.0933 Y16.4965 
G01 X60.1909 Y16.4704 
G01 X60.5849 Y16.4704 
G01 X60.6505 Y16.4976 
G01 X60.7007 Y16.5478 
G01 X60.7279 Y16.6134 
G01 X60.7279 Y17.1976 
G01 X60.7007 Y17.2632 
G01 X60.6505 Y17.3134 
G01 X60.5849 Y17.3406 
G01 X60.3599 Y17.3406 
G01 X60.2943 Y17.3134 
G01 X60.2441 Y17.2632 
G01 X60.2169 Y17.1976 
G01 X60.2169 Y17.1266 
G01 X60.2441 Y17.0610 
G01 X60.2943 Y17.0108 
G01 X60.3599 Y16.9836 
G01 X60.3709 Y16.9836 
G01 X60.3709 Y16.8274 
G01 X60.2414 Y16.8274 
G01 X60.2380 Y16.8276 
G01 X60.2312 Y16.8294 
G01 X60.2251 Y16.8329 
G01 X60.2202 Y16.8379 
G01 X60.2167 Y16.8439 
G01 X60.2149 Y16.8507 
G01 X60.2147 Y16.8542 
G01 X60.2147 Y17.3674 
G01 X60.2150 Y17.3716 
G01 X60.2176 Y17.3796 
G01 X60.2225 Y17.3863 
G01 X60.2293 Y17.3913 
G01 X60.2373 Y17.3939 
G01 X60.2414 Y17.3942 
G01 X60.5849 Y17.3942 
G01 X60.6505 Y17.4214 
G01 X60.7007 Y17.4716 
G01 X60.7279 Y17.5372 
G01 X60.7279 Y17.6082 
G01 X60.7007 Y17.6738 
G01 X60.6505 Y17.7240 
G01 X60.5849 Y17.7512 
G01 X60.2059 Y17.7512 
G01 X60.1807 Y17.7512 
G00 Z2.5400  
G00 X60.8307 Y16.6134 
G01 Z-0.0350 F254   
G01 X60.8579 Y16.5478 F508   
G01 X60.9081 Y16.4976 
G01 X60.9737 Y16.4704 
G01 X61.0447 Y16.4704 
G01 X61.1103 Y16.4976 
G01 X61.1605 Y16.5478 
G01 X61.1877 Y16.6134 
G01 X61.1877 Y16.8810 
G01 X61.3283 Y16.8810 
G01 X61.4484 Y16.9162 
G01 X61.5536 Y16.9839 
G01 X61.6356 Y17.0784 
G01 X61.6876 Y17.1922 
G01 X61.7054 Y17.3161 
G01 X61.6876 Y17.4399 
G01 X61.6356 Y17.5537 
G01 X61.5537 Y17.6483 
G01 X61.4484 Y17.7159 
G01 X61.3283 Y17.7512 
G01 X60.9737 Y17.7512 
G01 X60.9081 Y17.7240 
G01 X60.8579 Y17.6738 
G01 X60.8307 Y17.6082 
G01 X60.8307 Y17.0240 
G01 X60.8307 Y16.6134 
G00 Z2.5400  
G00 X61.7643 Y16.8107 
G01 Z-0.0350 F254   
G01 X61.7390 Y16.8002 F508   
G01 X61.6888 Y16.7500 
G01 X61.6616 Y16.6844 
G01 X61.6616 Y16.6134 
G01 X61.6888 Y16.5478 
G01 X61.7390 Y16.4976 
G01 X61.8046 Y16.4704 
G01 X62.0809 Y16.4704 
G01 X62.1465 Y16.4976 
G01 X62.1967 Y16.5478 
G01 X62.2239 Y16.6134 
G01 X62.2239 Y16.6844 
G01 X62.1967 Y16.7500 
G01 X62.1465 Y16.8002 
G01 X62.1213 Y16.8107 
G01 X62.1213 Y17.4109 
G01 X62.1465 Y17.4214 
G01 X62.1967 Y17.4716 
G01 X62.2239 Y17.5372 
G01 X62.2239 Y17.6082 
G01 X62.1967 Y17.6738 
G01 X62.1465 Y17.7240 
G01 X62.0809 Y17.7512 
G01 X61.8046 Y17.7512 
G01 X61.7390 Y17.7240 
G01 X61.6888 Y17.6738 
G01 X61.6616 Y17.6082 
G01 X61.6616 Y17.5372 
G01 X61.6888 Y17.4716 
G01 X61.7390 Y17.4214 
G01 X61.7643 Y17.4109 
G01 X61.7643 Y16.8107 
G00 Z2.5400  
G00 X63.0979 Y17.3786 
G01 Z-0.0350 F254   
G01 X63.0979 Y17.3786 F508   
G01 X63.0626 Y17.4987 
G01 X62.9950 Y17.6039 
G01 X62.9004 Y17.6859 
G01 X62.7866 Y17.7379 
G01 X62.6628 Y17.7557 
G01 X62.5389 Y17.7379 
G01 X62.4251 Y17.6859 
G01 X62.3306 Y17.6039 
G01 X62.2629 Y17.4987 
G01 X62.2277 Y17.3786 
G01 X62.2277 Y16.9410 
G01 X62.2277 Y16.8429 
G01 X62.2629 Y16.7229 
G01 X62.3305 Y16.6176 
G01 X62.4251 Y16.5357 
G01 X62.5389 Y16.4837 
G01 X62.6628 Y16.4659 
G01 X62.7866 Y16.4837 
G01 X62.9004 Y16.5357 
G01 X62.9950 Y16.6176 
G01 X63.0626 Y16.7229 
G01 X63.0979 Y16.8429 
G01 X63.0979 Y17.3516 
G01 X63.0979 Y17.3786 
G00 Z2.5400  
G00 X50.0866 Y16.9190 
G01 Z-0.0350 F254   
G01 X50.0646 Y16.9158 F508   
G01 X50.0426 Y16.9190 
G01 X50.0223 Y16.9282 
G01 X50.0055 Y16.9427 
G01 X49.9935 Y16.9615 
G01 X49.9873 Y16.9828 
G01 X49.9865 Y16.9939 
G01 X49.9865 Y17.4045 
G01 X49.9873 Y17.4156 
G01 X49.9935 Y17.4369 
G01 X50.0055 Y17.4556 
G01 X50.0223 Y17.4702 
G01 X50.0426 Y17.4794 
G01 X50.0646 Y17.4826 
G01 X50.0866 Y17.4794 
G01 X50.1068 Y17.4702 
G01 X50.1236 Y17.4556 
G01 X50.1356 Y17.4369 
G01 X50.1419 Y17.4156 
G01 X50.1427 Y17.4045 
G01 X50.1427 Y17.3690 
G01 X50.1427 Y16.9939 
G01 X50.1419 Y16.9828 
G01 X50.1356 Y16.9614 
G01 X50.1236 Y16.9427 
G01 X50.1068 Y16.9282 
G01 X50.0866 Y16.9190 
G00 Z2.5400  
G00 X48.7425 Y17.4265 
G01 Z-0.0350 F254   
G01 X48.7457 Y17.4045 F508   
G01 X48.7425 Y17.3825 
G01 X48.7333 Y17.3622 
G01 X48.7188 Y17.3454 
G01 X48.7000 Y17.3334 
G01 X48.6787 Y17.3272 
G01 X48.6676 Y17.3264 
G01 X48.5895 Y17.3264 
G01 X48.5895 Y17.4826 
G01 X48.6676 Y17.4826 
G01 X48.6787 Y17.4818 
G01 X48.7000 Y17.4755 
G01 X48.7188 Y17.4635 
G01 X48.7333 Y17.4467 
G01 X48.7425 Y17.4265 
G00 Z2.5400  
G00 X47.2190 Y16.8110 
G01 Z-0.0350 F254   
G01 X47.2101 Y16.8265 F508   
G01 X47.2101 Y17.5719 
G01 X47.2190 Y17.5873 
G01 X47.3261 Y17.7729 
G01 X47.5117 Y17.8800 
G01 X47.5272 Y17.8890 
G01 X47.6983 Y17.8890 
G01 X47.8204 Y17.8890 
G01 X48.0895 Y17.8890 
G01 X48.1007 Y17.8860 
G01 X48.1425 Y17.8748 
G01 X48.1809 Y17.8748 
G01 X48.2196 Y17.8748 
G01 X48.2612 Y17.8859 
G01 X48.2727 Y17.8890 
G01 X48.8250 Y17.8890 
G01 X48.8407 Y17.8776 
G01 X48.8552 Y17.8720 
G01 X48.8686 Y17.8643 
G01 X48.8910 Y17.8583 
G01 X48.9127 Y17.8500 
G01 X48.9281 Y17.8484 
G01 X48.9431 Y17.8443 
G01 X48.9663 Y17.8443 
G01 X48.9893 Y17.8419 
G01 X49.0047 Y17.8443 
G01 X49.0202 Y17.8443 
G01 X49.0426 Y17.8504 
G01 X49.0655 Y17.8540 
G01 X49.0796 Y17.8603 
G01 X49.0946 Y17.8643 
G01 X49.1147 Y17.8759 
G01 X49.1359 Y17.8853 
G01 X49.1404 Y17.8890 
G01 X49.5416 Y17.8890 
G01 X49.5514 Y17.8792 
G01 X49.5582 Y17.8753 
G01 X49.5639 Y17.8701 
G01 X49.5915 Y17.8561 
G01 X49.6182 Y17.8406 
G01 X49.6257 Y17.8386 
G01 X49.6326 Y17.8351 
G01 X49.6628 Y17.8287 
G01 X49.6927 Y17.8207 
G01 X49.7004 Y17.8207 
G01 X49.7080 Y17.8191 
G01 X49.7389 Y17.8207 
G01 X49.7698 Y17.8207 
G01 X49.7773 Y17.8227 
G01 X49.7850 Y17.8231 
G01 X49.8144 Y17.8326 
G01 X49.8442 Y17.8406 
G01 X49.8510 Y17.8445 
G01 X50.0646 Y17.9139 
G01 X50.3640 Y17.8166 
G01 X50.3699 Y17.8116 
G01 X50.3742 Y17.8062 
G01 X50.3997 Y17.7874 
G01 X50.4244 Y17.7674 
G01 X50.4307 Y17.7646 
G01 X50.4363 Y17.7605 
G01 X50.4659 Y17.7490 
G01 X50.4949 Y17.7361 
G01 X50.5017 Y17.7350 
G01 X50.5081 Y17.7325 
G01 X50.5397 Y17.7290 
G01 X50.5710 Y17.7240 
G01 X50.5779 Y17.7247 
G01 X50.5847 Y17.7240 
G01 X50.6161 Y17.7288 
G01 X50.6477 Y17.7321 
G01 X50.6541 Y17.7345 
G01 X50.6609 Y17.7356 
G01 X50.6900 Y17.7483 
G01 X50.7197 Y17.7597 
G01 X50.7252 Y17.7638 
G01 X50.7315 Y17.7665 
G01 X50.7563 Y17.7863 
G01 X50.7820 Y17.8050 
G01 X50.7850 Y17.8087 
G01 X50.7966 Y17.8154 
G01 X50.8123 Y17.8312 
G01 X50.8298 Y17.8451 
G01 X50.8395 Y17.8583 
G01 X50.8809 Y17.8997 
G01 X50.9390 Y17.8932 
G01 X50.9549 Y17.8890 
G01 X50.9772 Y17.8890 
G01 X50.9994 Y17.8865 
G01 X51.0156 Y17.8890 
G01 X51.0738 Y17.8890 
G01 X51.0891 Y17.8702 
G01 X51.1023 Y17.8605 
G01 X51.1139 Y17.8489 
G01 X51.1333 Y17.8377 
G01 X51.1512 Y17.8245 
G01 X51.1665 Y17.8186 
G01 X51.1807 Y17.8104 
G01 X51.2023 Y17.8046 
G01 X51.2230 Y17.7965 
G01 X51.2393 Y17.7947 
G01 X51.2551 Y17.7904 
G01 X51.2775 Y17.7904 
G01 X51.2997 Y17.7879 
G01 X51.3159 Y17.7904 
G01 X51.3322 Y17.7904 
G01 X51.3538 Y17.7962 
G01 X51.3759 Y17.7995 
G01 X51.3909 Y17.8061 
G01 X51.4067 Y17.8104 
G01 X51.4261 Y17.8215 
G01 X51.4465 Y17.8305 
G01 X51.4593 Y17.8407 
G01 X51.4735 Y17.8489 
G01 X51.4893 Y17.8647 
G01 X51.5067 Y17.8786 
G01 X51.5143 Y17.8890 
G01 X51.9829 Y17.8890 
G01 X52.0201 Y17.8887 
G01 X52.0228 Y17.8890 
G01 X52.0587 Y17.8986 
G01 X52.0887 Y17.9064 
G01 X52.1152 Y17.8993 
G01 X52.1509 Y17.8894 
G01 X52.1536 Y17.8890 
G01 X52.1908 Y17.8890 
G01 X52.2181 Y17.8887 
G01 X52.2449 Y17.8733 
G01 X52.2717 Y17.8575 
G01 X52.2852 Y17.8340 
G01 X52.3036 Y17.8015 
G01 X52.3315 Y17.7730 
G01 X52.3507 Y17.7535 
G01 X52.3587 Y17.7236 
G01 X52.3665 Y17.6935 
G01 X52.3594 Y17.6671 
G01 X52.3494 Y17.6313 
G01 X52.3491 Y17.6287 
G01 X52.3491 Y17.5914 
G01 X52.3488 Y17.5642 
G01 X52.3333 Y17.5372 
G01 X52.3144 Y17.5053 
G01 X52.3037 Y17.4666 
G01 X52.0589 Y16.5853 
G01 X51.8945 Y16.4924 
G01 X51.6381 Y16.5637 
G01 X51.6316 Y16.5675 
G01 X51.6290 Y16.5686 
G01 X51.5930 Y16.5783 
G01 X51.5573 Y16.5882 
G01 X51.5546 Y16.5885 
G01 X51.5173 Y16.5885 
G01 X51.4802 Y16.5889 
G01 X51.4775 Y16.5885 
G01 X51.4414 Y16.5789 
G01 X51.4056 Y16.5696 
G01 X51.4030 Y16.5686 
G01 X51.3707 Y16.5499 
G01 X51.3385 Y16.5317 
G01 X51.3156 Y16.5094 
G01 X50.6136 Y16.5094 
G01 X50.5974 Y16.5256 
G01 X50.5906 Y16.5295 
G01 X50.5849 Y16.5347 
G01 X50.5574 Y16.5487 
G01 X50.5306 Y16.5641 
G01 X50.5231 Y16.5661 
G01 X50.5162 Y16.5697 
G01 X50.4860 Y16.5761 
G01 X50.4561 Y16.5841 
G01 X50.4484 Y16.5841 
G01 X50.4408 Y16.5857 
G01 X50.4099 Y16.5841 
G01 X50.3790 Y16.5841 
G01 X50.3715 Y16.5821 
G01 X50.3638 Y16.5817 
G01 X50.3344 Y16.5721 
G01 X50.3046 Y16.5641 
G01 X50.2978 Y16.5602 
G01 X50.0646 Y16.4845 
G01 X49.8510 Y16.5539 
G01 X49.8442 Y16.5578 
G01 X49.8144 Y16.5657 
G01 X49.7850 Y16.5753 
G01 X49.7773 Y16.5757 
G01 X49.7698 Y16.5777 
G01 X49.7389 Y16.5777 
G01 X49.7080 Y16.5793 
G01 X49.7004 Y16.5777 
G01 X49.6927 Y16.5777 
G01 X49.6628 Y16.5697 
G01 X49.6326 Y16.5633 
G01 X49.6257 Y16.5598 
G01 X49.6182 Y16.5577 
G01 X49.5915 Y16.5423 
G01 X49.5639 Y16.5283 
G01 X49.5582 Y16.5231 
G01 X49.5514 Y16.5192 
G01 X49.5416 Y16.5094 
G01 X49.1475 Y16.5094 
G01 X49.0062 Y16.6507 
G01 X48.9395 Y16.6892 
G01 X48.8650 Y16.7092 
G01 X48.7879 Y16.7092 
G01 X48.7134 Y16.6892 
G01 X48.6757 Y16.6675 
G01 X48.6467 Y16.6507 
G01 X48.5922 Y16.5962 
G01 X48.5054 Y16.5094 
G01 X48.2727 Y16.5094 
G01 X48.2615 Y16.5124 
G01 X48.2197 Y16.5236 
G01 X48.1813 Y16.5236 
G01 X48.1426 Y16.5236 
G01 X48.1010 Y16.5125 
G01 X48.0895 Y16.5094 
G01 X47.5272 Y16.5094 
G01 X47.5117 Y16.5183 
G01 X47.3261 Y16.6255 
G01 X47.2190 Y16.8110 
G00 Z2.5400  
G00 X51.4295 Y17.5229 
G01 Z-0.0350 F254   
G01 X51.4566 Y17.4573 F508   
G01 X51.5069 Y17.4071 
G01 X51.5725 Y17.3799 
G01 X51.6435 Y17.3799 
G01 X51.7091 Y17.4071 
G01 X51.7593 Y17.4573 
G01 X51.7697 Y17.4826 
G01 X51.8863 Y17.4826 
G01 X51.6831 Y16.7509 
G01 X51.6917 Y16.6804 
G01 X51.7266 Y16.6185 
G01 X51.7826 Y16.5748 
G01 X51.8510 Y16.5558 
G01 X51.9215 Y16.5644 
G01 X51.9833 Y16.5994 
G01 X52.0271 Y16.6553 
G01 X52.2903 Y17.6028 
G01 X52.2997 Y17.6256 
G01 X52.2997 Y17.6368 
G01 X52.3027 Y17.6475 
G01 X52.2997 Y17.6720 
G01 X52.2997 Y17.6966 
G01 X52.2954 Y17.7069 
G01 X52.2940 Y17.7180 
G01 X52.2819 Y17.7395 
G01 X52.2725 Y17.7622 
G01 X52.2646 Y17.7701 
G01 X52.2591 Y17.7798 
G01 X52.2397 Y17.7950 
G01 X52.2223 Y17.8124 
G01 X52.2120 Y17.8167 
G01 X52.2032 Y17.8236 
G01 X52.1794 Y17.8302 
G01 X52.1567 Y17.8396 
G01 X52.1455 Y17.8396 
G01 X52.1347 Y17.8426 
G01 X52.1103 Y17.8396 
G01 X51.5725 Y17.8396 
G01 X51.5069 Y17.8124 
G01 X51.4566 Y17.7622 
G01 X51.4295 Y17.6966 
G01 X51.4295 Y17.6256 
G01 X51.4295 Y17.5229 
G00 Z2.5400  
G00 X50.8808 Y17.8227 
G01 Z-0.0350 F254   
G01 X50.8729 Y17.8163 F508   
G01 X50.8635 Y17.8124 
G01 X50.8454 Y17.7943 
G01 X50.5687 Y17.5730 
G01 X50.5345 Y17.5108 
G01 X50.5266 Y17.4402 
G01 X50.5464 Y17.3720 
G01 X50.5908 Y17.3166 
G01 X50.6530 Y17.2823 
G01 X50.7235 Y17.2745 
G01 X50.7861 Y17.2926 
G01 X50.7861 Y16.9158 
G01 X50.6725 Y16.9158 
G01 X50.6069 Y16.8886 
G01 X50.5566 Y16.8384 
G01 X50.5295 Y16.7728 
G01 X50.5295 Y16.7018 
G01 X50.5566 Y16.6362 
G01 X50.6069 Y16.5860 
G01 X50.6725 Y16.5588 
G01 X51.2567 Y16.5588 
G01 X51.3223 Y16.5860 
G01 X51.3725 Y16.6362 
G01 X51.3997 Y16.7018 
G01 X51.3997 Y16.7728 
G01 X51.3725 Y16.8384 
G01 X51.3223 Y16.8886 
G01 X51.2567 Y16.9158 
G01 X51.1431 Y16.9158 
G01 X51.1431 Y17.6512 
G01 X51.1459 Y17.6767 
G01 X51.1431 Y17.6864 
G01 X51.1431 Y17.6966 
G01 X51.1333 Y17.7203 
G01 X51.1261 Y17.7449 
G01 X51.1198 Y17.7528 
G01 X51.1159 Y17.7622 
G01 X51.0978 Y17.7803 
G01 X51.0818 Y17.8003 
G01 X51.0729 Y17.8052 
G01 X51.0657 Y17.8124 
G01 X51.0420 Y17.8222 
G01 X51.0196 Y17.8346 
G01 X51.0095 Y17.8357 
G01 X51.0001 Y17.8396 
G01 X50.9745 Y17.8396 
G01 X50.9490 Y17.8424 
G01 X50.9392 Y17.8396 
G01 X50.9291 Y17.8396 
G01 X50.9054 Y17.8298 
G01 X50.8808 Y17.8227 
G00 Z2.5400  
G00 X48.2325 Y16.7018 
G01 Z-0.0350 F254   
G01 X48.2597 Y16.6362 F508   
G01 X48.3099 Y16.5860 
G01 X48.3755 Y16.5588 
G01 X48.4465 Y16.5588 
G01 X48.5121 Y16.5860 
G01 X48.5623 Y16.6362 
G01 X48.5895 Y16.7018 
G01 X48.5895 Y16.9694 
G01 X48.7302 Y16.9694 
G01 X48.8502 Y17.0046 
G01 X48.9555 Y17.0723 
G01 X49.0374 Y17.1668 
G01 X49.0894 Y17.2806 
G01 X49.1072 Y17.4045 
G01 X49.0894 Y17.5283 
G01 X49.0374 Y17.6421 
G01 X48.9555 Y17.7367 
G01 X48.8502 Y17.8043 
G01 X48.7302 Y17.8396 
G01 X48.3755 Y17.8396 
G01 X48.3099 Y17.8124 
G01 X48.2597 Y17.7622 
G01 X48.2325 Y17.6966 
G01 X48.2325 Y17.6256 
G01 X48.2325 Y16.7018 
G00 Z2.5400  
G00 X47.5825 Y17.8396 
G01 Z-0.0350 F254   
G01 X47.5825 Y17.8396 F508   
G01 X47.4669 Y17.8020 
G01 X47.3685 Y17.7306 
G01 X47.2970 Y17.6322 
G01 X47.2595 Y17.5166 
G01 X47.2595 Y16.8921 
G01 X47.2856 Y16.7944 
G01 X47.3362 Y16.7069 
G01 X47.4076 Y16.6355 
G01 X47.4951 Y16.5849 
G01 X47.5927 Y16.5588 
G01 X47.9867 Y16.5588 
G01 X48.0523 Y16.5860 
G01 X48.1025 Y16.6362 
G01 X48.1297 Y16.7018 
G01 X48.1297 Y17.2860 
G01 X48.1025 Y17.3516 
G01 X48.0523 Y17.4018 
G01 X47.9867 Y17.4290 
G01 X47.7617 Y17.4290 
G01 X47.6961 Y17.4018 
G01 X47.6459 Y17.3516 
G01 X47.6187 Y17.2860 
G01 X47.6187 Y17.2150 
G01 X47.6459 Y17.1494 
G01 X47.6961 Y17.0992 
G01 X47.7617 Y17.0720 
G01 X47.7727 Y17.0720 
G01 X47.7727 Y16.9158 
G01 X47.6433 Y16.9158 
G01 X47.6398 Y16.9160 
G01 X47.6330 Y16.9178 
G01 X47.6270 Y16.9213 
G01 X47.6220 Y16.9263 
G01 X47.6185 Y16.9323 
G01 X47.6167 Y16.9391 
G01 X47.6165 Y16.9426 
G01 X47.6165 Y17.4558 
G01 X47.6168 Y17.4600 
G01 X47.6194 Y17.4680 
G01 X47.6243 Y17.4747 
G01 X47.6311 Y17.4797 
G01 X47.6391 Y17.4823 
G01 X47.6433 Y17.4826 
G01 X47.9867 Y17.4826 
G01 X48.0523 Y17.5098 
G01 X48.1025 Y17.5600 
G01 X48.1297 Y17.6256 
G01 X48.1297 Y17.6966 
G01 X48.1025 Y17.7622 
G01 X48.0523 Y17.8124 
G01 X47.9867 Y17.8396 
G01 X47.6078 Y17.8396 
G01 X47.5825 Y17.8396 
G00 Z2.5400  
G00 X49.1661 Y16.8991 
G01 Z-0.0350 F254   
G01 X49.1408 Y16.8886 F508   
G01 X49.0906 Y16.8384 
G01 X49.0634 Y16.7728 
G01 X49.0634 Y16.7018 
G01 X49.0906 Y16.6362 
G01 X49.1408 Y16.5860 
G01 X49.2064 Y16.5588 
G01 X49.4827 Y16.5588 
G01 X49.5483 Y16.5860 
G01 X49.5985 Y16.6362 
G01 X49.6257 Y16.7018 
G01 X49.6257 Y16.7728 
G01 X49.5985 Y16.8384 
G01 X49.5483 Y16.8886 
G01 X49.5231 Y16.8991 
G01 X49.5231 Y17.4993 
G01 X49.5483 Y17.5098 
G01 X49.5985 Y17.5600 
G01 X49.6257 Y17.6256 
G01 X49.6257 Y17.6966 
G01 X49.5985 Y17.7622 
G01 X49.5483 Y17.8124 
G01 X49.4827 Y17.8396 
G01 X49.2064 Y17.8396 
G01 X49.1408 Y17.8124 
G01 X49.0906 Y17.7622 
G01 X49.0634 Y17.6966 
G01 X49.0634 Y17.6256 
G01 X49.0906 Y17.5600 
G01 X49.1408 Y17.5098 
G01 X49.1661 Y17.4993 
G01 X49.1661 Y16.8991 
G00 Z2.5400  
G00 X50.4997 Y17.4670 
G01 Z-0.0350 F254   
G01 X50.4997 Y17.4670 F508   
G01 X50.4644 Y17.5871 
G01 X50.3968 Y17.6923 
G01 X50.3022 Y17.7743 
G01 X50.1884 Y17.8263 
G01 X50.0646 Y17.8441 
G01 X49.9407 Y17.8263 
G01 X49.8269 Y17.7743 
G01 X49.7324 Y17.6923 
G01 X49.6647 Y17.5871 
G01 X49.6295 Y17.4670 
G01 X49.6295 Y17.0294 
G01 X49.6295 Y16.9313 
G01 X49.6647 Y16.8113 
G01 X49.7324 Y16.7060 
G01 X49.8269 Y16.6241 
G01 X49.9407 Y16.5721 
G01 X50.0646 Y16.5543 
G01 X50.1884 Y16.5721 
G01 X50.3022 Y16.6241 
G01 X50.3968 Y16.7060 
G01 X50.4644 Y16.8113 
G01 X50.4997 Y16.9313 
G01 X50.4997 Y17.4400 
G01 X50.4997 Y17.4670 
G00 Z2.5400  
G00 X21.6542 Y61.0140 
G01 Z-0.0350 F254   
G01 X21.6345 Y61.0087 F508   
G01 X21.6243 Y61.0081 
G01 X21.5462 Y61.0081 
G01 X21.5462 Y61.5749 
G01 X21.6243 Y61.5749 
G01 X21.6345 Y61.5742 
G01 X21.6542 Y61.5689 
G01 X21.6719 Y61.5587 
G01 X21.6863 Y61.5443 
G01 X21.6965 Y61.5267 
G01 X21.7018 Y61.5070 
G01 X21.7025 Y61.4968 
G01 X21.7025 Y61.0862 
G01 X21.7018 Y61.0760 
G01 X21.6965 Y61.0563 
G01 X21.6863 Y61.0386 
G01 X21.6719 Y61.0242 
G01 X21.6542 Y61.0140 
G00 Z2.5400  
G00 X19.2288 Y60.9033 
G01 Z-0.0350 F254   
G01 X19.2198 Y60.9188 F508   
G01 X19.2198 Y61.6642 
G01 X19.2288 Y61.6796 
G01 X19.3359 Y61.8652 
G01 X19.5215 Y61.9723 
G01 X19.5370 Y61.9813 
G01 X19.6916 Y61.9813 
G01 X19.8301 Y61.9813 
G01 X20.1170 Y61.9813 
G01 X20.1457 Y61.9736 
G01 X20.1918 Y61.9736 
G01 X20.2228 Y61.9736 
G01 X20.2517 Y61.9813 
G01 X20.2703 Y61.9813 
G01 X20.3065 Y61.9807 
G01 X20.3114 Y61.9813 
G01 X20.3462 Y61.9906 
G01 X20.3778 Y61.9985 
G01 X20.4025 Y61.9919 
G01 X20.4373 Y61.9820 
G01 X20.4421 Y61.9813 
G01 X20.4782 Y61.9813 
G01 X20.5144 Y61.9807 
G01 X20.5354 Y61.9695 
G01 X20.5513 Y61.9603 
G01 X20.5828 Y61.9519 
G01 X20.6258 Y61.9403 
G01 X20.7029 Y61.9403 
G01 X20.7454 Y61.9517 
G01 X20.7774 Y61.9603 
G01 X20.7924 Y61.9690 
G01 X20.8137 Y61.9813 
G01 X21.0770 Y61.9813 
G01 X21.1057 Y61.9736 
G01 X21.1518 Y61.9736 
G01 X21.1828 Y61.9736 
G01 X21.2116 Y61.9813 
G01 X21.7542 Y61.9813 
G01 X21.9790 Y61.8515 
G01 X22.1089 Y61.6266 
G01 X22.1089 Y60.9564 
G01 X21.9790 Y60.7315 
G01 X21.7542 Y60.6017 
G01 X21.6830 Y60.6017 
G01 X21.2116 Y60.6017 
G01 X21.1829 Y60.6094 
G01 X21.1522 Y60.6094 
G01 X21.1058 Y60.6094 
G01 X21.0770 Y60.6017 
G01 X21.0583 Y60.6017 
G01 X21.0222 Y60.6023 
G01 X21.0173 Y60.6017 
G01 X20.9824 Y60.5923 
G01 X20.9509 Y60.5844 
G01 X20.9262 Y60.5911 
G01 X20.8914 Y60.6010 
G01 X20.8866 Y60.6017 
G01 X20.8505 Y60.6017 
G01 X20.8143 Y60.6023 
G01 X20.7933 Y60.6135 
G01 X20.7774 Y60.6227 
G01 X20.7459 Y60.6311 
G01 X20.7029 Y60.6426 
G01 X20.6258 Y60.6426 
G01 X20.5833 Y60.6312 
G01 X20.5513 Y60.6227 
G01 X20.5363 Y60.6140 
G01 X20.5150 Y60.6017 
G01 X20.2517 Y60.6017 
G01 X20.2230 Y60.6094 
G01 X20.1769 Y60.6094 
G01 X20.1459 Y60.6094 
G01 X20.1170 Y60.6017 
G01 X19.5370 Y60.6017 
G01 X19.5215 Y60.6106 
G01 X19.3359 Y60.7178 
G01 X19.2288 Y60.9033 
G00 Z2.5400  
G00 X19.5922 Y61.9319 
G01 Z-0.0350 F254   
G01 X19.5922 Y61.9319 F508   
G01 X19.4766 Y61.8943 
G01 X19.3783 Y61.8229 
G01 X19.3068 Y61.7245 
G01 X19.2692 Y61.6089 
G01 X19.2692 Y60.9843 
G01 X19.2954 Y60.8867 
G01 X19.3459 Y60.7992 
G01 X19.4174 Y60.7278 
G01 X19.5049 Y60.6772 
G01 X19.6025 Y60.6511 
G01 X19.9965 Y60.6511 
G01 X20.0621 Y60.6783 
G01 X20.1123 Y60.7285 
G01 X20.1395 Y60.7941 
G01 X20.1395 Y61.3783 
G01 X20.1123 Y61.4439 
G01 X20.0621 Y61.4941 
G01 X19.9965 Y61.5213 
G01 X19.7715 Y61.5213 
G01 X19.7059 Y61.4941 
G01 X19.6557 Y61.4439 
G01 X19.6285 Y61.3783 
G01 X19.6285 Y61.3073 
G01 X19.6557 Y61.2417 
G01 X19.7059 Y61.1915 
G01 X19.7715 Y61.1643 
G01 X19.7825 Y61.1643 
G01 X19.7825 Y61.0081 
G01 X19.6530 Y61.0081 
G01 X19.6495 Y61.0083 
G01 X19.6428 Y61.0101 
G01 X19.6367 Y61.0136 
G01 X19.6318 Y61.0186 
G01 X19.6283 Y61.0246 
G01 X19.6265 Y61.0314 
G01 X19.6262 Y61.0349 
G01 X19.6262 Y61.5481 
G01 X19.6266 Y61.5523 
G01 X19.6292 Y61.5603 
G01 X19.6341 Y61.5670 
G01 X19.6409 Y61.5720 
G01 X19.6488 Y61.5746 
G01 X19.6530 Y61.5749 
G01 X19.9965 Y61.5749 
G01 X20.0621 Y61.6021 
G01 X20.1123 Y61.6523 
G01 X20.1395 Y61.7179 
G01 X20.1395 Y61.7889 
G01 X20.1123 Y61.8545 
G01 X20.0621 Y61.9047 
G01 X19.9965 Y61.9319 
G01 X19.6175 Y61.9319 
G01 X19.5922 Y61.9319 
G00 Z2.5400  
G00 X20.2292 Y61.7889 
G01 Z-0.0350 F254   
G01 X20.2292 Y61.7784 F508   
G01 X20.2263 Y61.7683 
G01 X20.2292 Y61.7431 
G01 X20.2292 Y60.7941 
G01 X20.2564 Y60.7285 
G01 X20.3066 Y60.6783 
G01 X20.3722 Y60.6511 
G01 X20.4432 Y60.6511 
G01 X20.5088 Y60.6783 
G01 X20.5591 Y60.7285 
G01 X20.5862 Y60.7941 
G01 X20.5862 Y61.0645 
G01 X20.7600 Y60.7518 
G01 X20.7696 Y60.7285 
G01 X20.7771 Y60.7210 
G01 X20.7822 Y60.7119 
G01 X20.8020 Y60.6961 
G01 X20.8198 Y60.6783 
G01 X20.8296 Y60.6742 
G01 X20.8378 Y60.6677 
G01 X20.8621 Y60.6608 
G01 X20.8854 Y60.6511 
G01 X20.8960 Y60.6511 
G01 X20.9061 Y60.6482 
G01 X20.9312 Y60.6511 
G01 X20.9565 Y60.6511 
G01 X20.9662 Y60.6551 
G01 X20.9766 Y60.6563 
G01 X20.9987 Y60.6686 
G01 X21.0221 Y60.6783 
G01 X21.0295 Y60.6857 
G01 X21.0387 Y60.6908 
G01 X21.0544 Y60.7106 
G01 X21.0723 Y60.7285 
G01 X21.0763 Y60.7382 
G01 X21.0828 Y60.7464 
G01 X21.0898 Y60.7707 
G01 X21.0995 Y60.7941 
G01 X21.0995 Y60.8046 
G01 X21.1023 Y60.8147 
G01 X21.0995 Y60.8398 
G01 X21.0995 Y61.7889 
G01 X21.0723 Y61.8545 
G01 X21.0221 Y61.9047 
G01 X20.9565 Y61.9319 
G01 X20.8854 Y61.9319 
G01 X20.8198 Y61.9047 
G01 X20.7696 Y61.8545 
G01 X20.7425 Y61.7889 
G01 X20.7425 Y61.5184 
G01 X20.5687 Y61.8311 
G01 X20.5591 Y61.8545 
G01 X20.5516 Y61.8619 
G01 X20.5465 Y61.8711 
G01 X20.5267 Y61.8868 
G01 X20.5088 Y61.9047 
G01 X20.4991 Y61.9087 
G01 X20.4909 Y61.9153 
G01 X20.4666 Y61.9222 
G01 X20.4432 Y61.9319 
G01 X20.4327 Y61.9319 
G01 X20.4226 Y61.9348 
G01 X20.3975 Y61.9319 
G01 X20.3722 Y61.9319 
G01 X20.3625 Y61.9279 
G01 X20.3521 Y61.9267 
G01 X20.3300 Y61.9144 
G01 X20.3066 Y61.9047 
G01 X20.2992 Y61.8973 
G01 X20.2900 Y61.8922 
G01 X20.2743 Y61.8724 
G01 X20.2564 Y61.8545 
G01 X20.2524 Y61.8448 
G01 X20.2459 Y61.8366 
G01 X20.2389 Y61.8122 
G01 X20.2292 Y61.7889 
G00 Z2.5400  
G00 X21.6816 Y60.6511 
G01 Z-0.0350 F254   
G01 X21.6816 Y60.6511 F508   
G01 X21.7923 Y60.6807 
G01 X21.8915 Y60.7380 
G01 X21.9725 Y60.8190 
G01 X22.0298 Y60.9182 
G01 X22.0595 Y61.0289 
G01 X22.0595 Y61.5541 
G01 X22.0298 Y61.6647 
G01 X21.9725 Y61.7639 
G01 X21.8915 Y61.8449 
G01 X21.7923 Y61.9022 
G01 X21.6816 Y61.9319 
G01 X21.3322 Y61.9319 
G01 X21.2666 Y61.9047 
G01 X21.2164 Y61.8545 
G01 X21.1892 Y61.7889 
G01 X21.1892 Y60.7941 
G01 X21.2164 Y60.7285 
G01 X21.2666 Y60.6783 
G01 X21.3322 Y60.6511 
G01 X21.6598 Y60.6511 
G01 X21.6816 Y60.6511 
G00 Z2.5400  
G00 X23.1461 Y58.4556 
G01 Z-0.0350 F254   
G01 X23.0850 Y58.4720 F508   
G01 X23.0301 Y58.5036 
G01 X22.9853 Y58.5484 
G01 X22.9536 Y58.6033 
G01 X22.9372 Y58.6645 
G01 X22.9372 Y59.2035 
G01 X23.0374 Y59.2035 
G01 X23.0374 Y58.6682 
G01 X23.0588 Y58.6166 
G01 X23.0983 Y58.5771 
G01 X23.1499 Y58.5558 
G01 X23.3676 Y58.5558 
G01 X23.3676 Y58.4556 
G01 X23.1461 Y58.4556 
G00 Z2.5400  
G00 X24.5956 Y60.7937 
G01 Z-0.0350 F254   
G01 X24.6404 Y60.7489 F508   
G01 X24.6720 Y60.6940 
G01 X24.6884 Y60.6328 
G01 X24.6884 Y60.0939 
G01 X24.5882 Y60.0939 
G01 X24.5882 Y60.6291 
G01 X24.5668 Y60.6807 
G01 X24.5274 Y60.7202 
G01 X24.4758 Y60.7416 
G01 X24.2580 Y60.7416 
G01 X24.2580 Y60.8418 
G01 X24.4795 Y60.8418 
G01 X24.5407 Y60.8254 
G01 X24.5956 Y60.7937 
G00 Z2.5400  
G00 X4.0499  Y57.7685 
G01 Z-0.0350 F254   
G01 X4.0699  Y57.6940 F508   
G01 X4.1084  Y57.6272 
G01 X4.1629  Y57.5727 
G01 X4.2297  Y57.5342 
G01 X4.3042  Y57.5142 
G01 X4.5863  Y57.5142 
G01 X4.6975  Y57.4030 
G01 X4.6975  Y55.4428 
G01 X4.5863  Y55.3316 
G01 X2.8291  Y55.3316 
G01 X2.7179  Y55.4428 
G01 X2.7179  Y57.4030 
G01 X2.8291  Y57.5142 
G01 X3.1113  Y57.5142 
G01 X3.1857  Y57.5342 
G01 X3.2525  Y57.5727 
G01 X3.3070  Y57.6272 
G01 X3.3456  Y57.6940 
G01 X3.3655  Y57.7685 
G01 X3.3655  Y58.3746 
G01 X3.3456  Y58.4491 
G01 X3.3070  Y58.5159 
G01 X3.2525  Y58.5704 
G01 X3.1857  Y58.6089 
G01 X3.1113  Y58.6289 
G01 X2.9539  Y58.6289 
G01 X2.8428  Y58.7401 
G01 X2.8428  Y60.7003 
G01 X2.9539  Y60.8115 
G01 X4.7112  Y60.8115 
G01 X4.8224  Y60.7003 
G01 X4.8224  Y58.7401 
G01 X4.7112  Y58.6289 
G01 X4.3042  Y58.6289 
G01 X4.2297  Y58.6089 
G01 X4.1629  Y58.5704 
G01 X4.1084  Y58.5159 
G01 X4.0699  Y58.4491 
G01 X4.0499  Y58.3746 
G01 X4.0499  Y58.2975 
G01 X4.0499  Y57.7685 
G00 Z2.5400  
G00 X4.7730  Y58.7907 
G01 Z-0.0350 F254   
G01 X4.7730  Y60.6496 F508   
G01 X4.7516  Y60.7012 
G01 X4.7121  Y60.7407 
G01 X4.6605  Y60.7621 
G01 X3.0046  Y60.7621 
G01 X2.9530  Y60.7407 
G01 X2.9135  Y60.7012 
G01 X2.8922  Y60.6496 
G01 X2.8922  Y58.7907 
G01 X2.9135  Y58.7391 
G01 X2.9530  Y58.6996 
G01 X3.0046  Y58.6783 
G01 X3.4149  Y58.6783 
G01 X3.4149  Y57.4648 
G01 X2.8798  Y57.4648 
G01 X2.8282  Y57.4434 
G01 X2.7887  Y57.4039 
G01 X2.7673  Y57.3523 
G01 X2.7673  Y55.4935 
G01 X2.7887  Y55.4419 
G01 X2.8282  Y55.4024 
G01 X2.8798  Y55.3810 
G01 X4.5356  Y55.3810 
G01 X4.5872  Y55.4024 
G01 X4.6267  Y55.4419 
G01 X4.6481  Y55.4935 
G01 X4.6481  Y57.3523 
G01 X4.6267  Y57.4039 
G01 X4.5872  Y57.4434 
G01 X4.5356  Y57.4648 
G01 X4.0005  Y57.4648 
G01 X4.0005  Y58.6783 
G01 X4.6605  Y58.6783 
G01 X4.7121  Y58.6996 
G01 X4.7516  Y58.7391 
G01 X4.7730  Y58.7907 
G00 Z2.5400  
G00 X5.7200  Y55.2808 
G01 Z-0.0350 F254   
G01 X5.6588  Y55.2972 F508   
G01 X5.6040  Y55.3289 
G01 X5.5592  Y55.3737 
G01 X5.5275  Y55.4285 
G01 X5.5111  Y55.4897 
G01 X5.5111  Y55.9777 
G01 X5.6113  Y55.9777 
G01 X5.6113  Y55.4935 
G01 X5.6327  Y55.4419 
G01 X5.6722  Y55.4024 
G01 X5.7238  Y55.3810 
G01 X6.1065  Y55.3810 
G01 X6.1065  Y55.2808 
G01 X5.7200  Y55.2808 
G00 Z2.5400  
G00 X8.2715  Y55.5396 
G01 Z-0.0350 F254   
G01 X8.2103  Y55.5560 F508   
G01 X8.1555  Y55.5877 
G01 X8.1179  Y55.6253 
G01 X8.1037  Y55.6395 
G01 X8.0634  Y55.6798 
G01 X7.9966  Y55.7184 
G01 X7.9577  Y55.7288 
G01 X7.9221  Y55.7383 
G01 X7.8450  Y55.7383 
G01 X7.7706  Y55.7184 
G01 X7.7370  Y55.6990 
G01 X7.7038  Y55.6798 
G01 X7.6493  Y55.6253 
G01 X7.6107  Y55.5585 
G01 X7.5983  Y55.5122 
G01 X7.5908  Y55.4841 
G01 X7.5759  Y55.4285 
G01 X7.5442  Y55.3737 
G01 X7.4994  Y55.3289 
G01 X7.4446  Y55.2972 
G01 X7.3834  Y55.2808 
G01 X6.9969  Y55.2808 
G01 X6.9969  Y55.3810 
G01 X7.3796  Y55.3810 
G01 X7.4312  Y55.4024 
G01 X7.4707  Y55.4419 
G01 X7.4921  Y55.4935 
G01 X7.4921  Y55.9777 
G01 X7.8179  Y55.9777 
G01 X7.8466  Y55.9700 
G01 X8.1628  Y55.9700 
G01 X8.1628  Y55.7523 
G01 X8.1842  Y55.7007 
G01 X8.2237  Y55.6612 
G01 X8.2753  Y55.6398 
G01 X8.8105  Y55.6398 
G01 X8.8105  Y55.5396 
G01 X8.2715  Y55.5396 
G00 Z2.5400  
G00 X10.2399 Y57.2908 
G01 Z-0.0350 F254   
G01 X10.3011 Y57.2744 F508   
G01 X10.3559 Y57.2428 
G01 X10.4007 Y57.1980 
G01 X10.4324 Y57.1431 
G01 X10.4488 Y57.0819 
G01 X10.4488 Y56.8604 
G01 X10.3486 Y56.8604 
G01 X10.3486 Y57.0782 
G01 X10.3272 Y57.1298 
G01 X10.2877 Y57.1693 
G01 X10.2361 Y57.1906 
G01 X9.7009  Y57.1906 
G01 X9.7009  Y57.2908 
G01 X10.2399 Y57.2908 
G00 Z2.5400  
G00 X20.4303 Y63.8434 
G01 Z-0.0350 F254   
G01 X20.4942 Y63.9689 F508   
G01 X20.5770 Y64.0828 
G01 X20.6766 Y64.1824 
G01 X20.7905 Y64.2651 
G01 X20.9159 Y64.3291 
G01 X20.9189 Y64.3300 
G01 X20.9189 Y64.2188 
G01 X20.8831 Y64.2040 
G01 X20.7529 Y64.1170 
G01 X20.6423 Y64.0064 
G01 X20.5554 Y63.8763 
G01 X20.5405 Y63.8404 
G01 X20.4293 Y63.8404 
G01 X20.4303 Y63.8434 
G00 Z2.5400  
G00 X34.3763 Y19.8456 
G01 Z-0.0350 F254   
G01 X34.3763 Y19.8457 F508   
G01 X34.3466 Y19.8754 
G01 X34.3218 Y19.9002 
G01 X34.2550 Y19.9387 
G01 X34.1806 Y19.9587 
G01 X34.1035 Y19.9587 
G01 X34.0538 Y19.9454 
G01 X34.0290 Y19.9387 
G01 X33.9622 Y19.9002 
G01 X33.9107 Y19.8486 
G01 X33.9077 Y19.8457 
G01 X33.8861 Y19.8240 
G01 X32.1289 Y19.8240 
G01 X32.0177 Y19.9352 
G01 X32.0177 Y21.8954 
G01 X32.1289 Y22.0066 
G01 X33.8861 Y22.0066 
G01 X33.9009 Y21.9918 
G01 X33.9540 Y21.9387 
G01 X34.0221 Y21.8988 
G01 X34.0758 Y21.8844 
G01 X34.0966 Y21.8788 
G01 X34.1737 Y21.8788 
G01 X34.2482 Y21.8988 
G01 X34.3149 Y21.9373 
G01 X34.3686 Y21.9910 
G01 X34.3911 Y22.0135 
G01 X36.1483 Y22.0135 
G01 X36.2595 Y21.9023 
G01 X36.2595 Y19.9421 
G01 X36.1483 Y19.8309 
G01 X34.3911 Y19.8309 
G01 X34.3763 Y19.8456 
G00 Z2.5400  
G00 X32.0671 Y21.8447 
G01 Z-0.0350 F254   
G01 X32.0671 Y19.9859 F508   
G01 X32.0885 Y19.9343 
G01 X32.1279 Y19.8948 
G01 X32.1795 Y19.8734 
G01 X33.8354 Y19.8734 
G01 X33.8870 Y19.8948 
G01 X33.9265 Y19.9343 
G01 X33.9479 Y19.9859 
G01 X33.9479 Y20.6225 
G01 X34.3293 Y20.6225 
G01 X34.3293 Y19.9927 
G01 X34.3507 Y19.9411 
G01 X34.3902 Y19.9016 
G01 X34.4418 Y19.8803 
G01 X36.0977 Y19.8803 
G01 X36.1493 Y19.9016 
G01 X36.1887 Y19.9411 
G01 X36.2101 Y19.9927 
G01 X36.2101 Y21.8516 
G01 X36.1887 Y21.9032 
G01 X36.1493 Y21.9427 
G01 X36.0977 Y21.9641 
G01 X34.4418 Y21.9641 
G01 X34.3902 Y21.9427 
G01 X34.3507 Y21.9032 
G01 X34.3293 Y21.8516 
G01 X34.3293 Y21.2081 
G01 X33.9479 Y21.2081 
G01 X33.9479 Y21.8447 
G01 X33.9265 Y21.8963 
G01 X33.8870 Y21.9358 
G01 X33.8354 Y21.9572 
G01 X32.1795 Y21.9572 
G01 X32.1279 Y21.9358 
G01 X32.0885 Y21.8963 
G01 X32.0671 Y21.8447 
G00 Z2.5400  
G00 X21.9633 Y63.8763 
G01 Z-0.0350 F254   
G01 X21.8764 Y64.0064 F508   
G01 X21.7658 Y64.1170 
G01 X21.6356 Y64.2040 
G01 X21.5997 Y64.2189 
G01 X21.5997 Y64.3300 
G01 X21.6028 Y64.3291 
G01 X21.7282 Y64.2651 
G01 X21.8421 Y64.1824 
G01 X21.9417 Y64.0828 
G01 X22.0245 Y63.9689 
G01 X22.0884 Y63.8434 
G01 X22.0894 Y63.8404 
G01 X21.9782 Y63.8404 
G01 X21.9633 Y63.8763 
G00 Z2.5400  
G00 X21.8421 Y62.8176 
G01 Z-0.0350 F254   
G01 X21.7282 Y62.7349 F508   
G01 X21.6028 Y62.6709 
G01 X21.5997 Y62.6700 
G01 X21.5997 Y62.7811 
G01 X21.6356 Y62.7960 
G01 X21.7658 Y62.8830 
G01 X21.8764 Y62.9936 
G01 X21.9633 Y63.1237 
G01 X21.9782 Y63.1596 
G01 X22.0894 Y63.1596 
G01 X22.0884 Y63.1566 
G01 X22.0245 Y63.0311 
G01 X21.9417 Y62.9172 
G01 X21.8421 Y62.8176 
G00 Z2.5400  
G00 X20.9159 Y62.6709 
G01 Z-0.0350 F254   
G01 X20.7905 Y62.7349 F508   
G01 X20.6766 Y62.8176 
G01 X20.5770 Y62.9172 
G01 X20.4942 Y63.0311 
G01 X20.4303 Y63.1566 
G01 X20.4293 Y63.1596 
G01 X20.5405 Y63.1596 
G01 X20.5554 Y63.1237 
G01 X20.6423 Y62.9936 
G01 X20.7529 Y62.8830 
G01 X20.8831 Y62.7960 
G01 X20.9189 Y62.7812 
G01 X20.9189 Y62.6700 
G01 X20.9159 Y62.6709 
G00 Z2.5400  
G00 X7.5759  Y57.4173 
G01 Z-0.0350 F254   
G01 X7.5923  Y57.3561 F508   
G01 X7.5923  Y57.3479 
G01 X7.6006  Y57.3171 
G01 X7.6123  Y57.2734 
G01 X7.6508  Y57.2067 
G01 X7.7053  Y57.1522 
G01 X7.7227  Y57.1421 
G01 X7.7721  Y57.1136 
G01 X7.8466  Y57.0937 
G01 X7.9237  Y57.0937 
G01 X7.9545  Y57.1019 
G01 X7.9981  Y57.1136 
G01 X8.0649  Y57.1522 
G01 X8.1194  Y57.2067 
G01 X8.1555  Y57.2428 
G01 X8.2103  Y57.2744 
G01 X8.2715  Y57.2908 
G01 X8.8105  Y57.2908 
G01 X8.8105  Y57.1906 
G01 X8.2753  Y57.1906 
G01 X8.2237  Y57.1693 
G01 X8.1842  Y57.1298 
G01 X8.1628  Y57.0782 
G01 X8.1628  Y56.8604 
G01 X7.8370  Y56.8604 
G01 X7.8084  Y56.8681 
G01 X7.4921  Y56.8681 
G01 X7.4921  Y57.3523 
G01 X7.4707  Y57.4039 
G01 X7.4312  Y57.4434 
G01 X7.3796  Y57.4648 
G01 X6.9969  Y57.4648 
G01 X6.9969  Y57.5650 
G01 X7.3834  Y57.5650 
G01 X7.4446  Y57.5486 
G01 X7.4994  Y57.5169 
G01 X7.5442  Y57.4721 
G01 X7.5759  Y57.4173 
G00 Z2.5400  
G00 X5.7238  Y57.4648 
G01 Z-0.0350 F254   
G01 X5.6722  Y57.4434 F508   
G01 X5.6327  Y57.4039 
G01 X5.6113  Y57.3523 
G01 X5.6113  Y56.8681 
G01 X5.5111  Y56.8681 
G01 X5.5111  Y57.3561 
G01 X5.5275  Y57.4173 
G01 X5.5592  Y57.4721 
G01 X5.6040  Y57.5169 
G01 X5.6588  Y57.5486 
G01 X5.7200  Y57.5650 
G01 X6.1065  Y57.5650 
G01 X6.1065  Y57.4648 
G01 X5.7238  Y57.4648 
G00 Z2.5400  
G00 X10.4488 Y55.7486 
G01 Z-0.0350 F254   
G01 X10.4324 Y55.6874 F508   
G01 X10.4007 Y55.6325 
G01 X10.3559 Y55.5877 
G01 X10.3011 Y55.5560 
G01 X10.2399 Y55.5396 
G01 X9.7009  Y55.5396 
G01 X9.7009  Y55.6398 
G01 X10.2361 Y55.6398 
G01 X10.2877 Y55.6612 
G01 X10.3272 Y55.7007 
G01 X10.3486 Y55.7523 
G01 X10.3486 Y55.9700 
G01 X10.4488 Y55.9700 
G01 X10.4488 Y55.7486 
G00 Z2.5400  
G00 X24.6884 Y58.6645 
G01 Z-0.0350 F254   
G01 X24.6720 Y58.6033 F508   
G01 X24.6404 Y58.5484 
G01 X24.5956 Y58.5036 
G01 X24.5407 Y58.4720 
G01 X24.4795 Y58.4556 
G01 X24.2580 Y58.4556 
G01 X24.2580 Y58.5558 
G01 X24.4758 Y58.5558 
G01 X24.5274 Y58.5771 
G01 X24.5668 Y58.6166 
G01 X24.5882 Y58.6682 
G01 X24.5882 Y59.2035 
G01 X24.6884 Y59.2035 
G01 X24.6884 Y58.6645 
G00 Z2.5400  
G00 X22.9372 Y60.6328 
G01 Z-0.0350 F254   
G01 X22.9536 Y60.6940 F508   
G01 X22.9853 Y60.7489 
G01 X23.0301 Y60.7937 
G01 X23.0850 Y60.8254 
G01 X23.1461 Y60.8418 
G01 X23.3676 Y60.8418 
G01 X23.3676 Y60.7416 
G01 X23.1499 Y60.7416 
G01 X23.0983 Y60.7202 
G01 X23.0588 Y60.6807 
G01 X23.0374 Y60.6291 
G01 X23.0374 Y60.0939 
G01 X22.9372 Y60.0939 
G01 X22.9372 Y60.6328 
G00 Z2.5400  
G00 X11.5839 Y25.1708 
G01 Z-0.0350 F254   
G01 X11.5871 Y25.1488 F508   
G01 X11.5839 Y25.1268 
G01 X11.5747 Y25.1066 
