(.../pcb-gcode-3.6.0.4/pcb-gcode.ulp)
(Copyright 2005 - 2012 by John Johnson)
(See readme.txt for licensing terms.)
(This file generated from the board:)
(.../gits_go_here/ESPlash/pcb/1.0/esplash.brd)
(Current profile is .../pcb-gcode-3.6.0.4/profiles/mach.pp  )
(This file generated 03/05/2021 14:58)
(Settings from pcb-machine.h)
(  Tool Size)
(0.2300  )
(Z Axis Settings)
(  High     Up        Down     Drill)
(12.7000 	2.5400  	-0.0350 	-1.8000 )
(spindle on time = 1.0000)
(milling depth = -1.7000)
(text depth = -0.0350)
(tool change at 12.7000 15.2400 25.4000 )
(feed rate xy = F508   )
(feed rate z  = F254   )
(Settings from pcb-defaults.h)
(isolate min = 0.0254)
(isolate max = 0.5080)
(isolate step = 0.1270)
(Generated top outlines, top drill, bottom outlines, )
(Unit of measure: mm)
(Metric Mode)
G21
(Absolute Coordinates)
G90
G00 X0.0000  Y0.0000  
M03
G04 P1.000000
G00 Z2.5400  
G00 X-43.9153 Y13.2253 
G01 Z-0.0350 F254   
G01 X-44.3141 Y13.3905 F508   
G01 X-44.7459 Y13.3905 
G01 X-45.1447 Y13.2253 
G01 X-45.4499 Y12.9200 
G01 X-45.6151 Y12.5212 
G01 X-45.6151 Y10.2988 
G01 X-45.4499 Y9.9000  
G01 X-45.1447 Y9.5947  
G01 X-44.7459 Y9.4295  
G01 X-44.3141 Y9.4295  
G01 X-43.9153 Y9.5947  
G01 X-43.6101 Y9.9000  
G01 X-43.4448 Y10.2988 
G01 X-43.4448 Y12.5212 
G01 X-43.6101 Y12.9200 
G01 X-43.9153 Y13.2253 
G00 Z2.5400  
G00 X-43.4943 Y12.3869 
G01 Z-0.0350 F254   
G01 X-43.4943 Y10.4331 F508   
G01 X-43.5198 Y10.2721 
G01 X-43.5701 Y10.1171 
G01 X-43.6441 Y9.9718  
G01 X-43.7400 Y9.8399  
G01 X-43.8553 Y9.7246  
G01 X-43.9871 Y9.6288  
G01 X-44.1324 Y9.5548  
G01 X-44.2875 Y9.5044  
G01 X-44.4485 Y9.4789  
G01 X-44.6115 Y9.4789  
G01 X-44.7725 Y9.5044  
G01 X-44.9276 Y9.5548  
G01 X-45.0729 Y9.6288  
G01 X-45.2047 Y9.7246  
G01 X-45.3200 Y9.8399  
G01 X-45.4158 Y9.9718  
G01 X-45.4899 Y10.1171 
G01 X-45.5402 Y10.2721 
G01 X-45.5657 Y10.4331 
G01 X-45.5657 Y12.3869 
G01 X-45.5402 Y12.5479 
G01 X-45.4899 Y12.7029 
G01 X-45.4158 Y12.8482 
G01 X-45.3200 Y12.9801 
G01 X-45.2047 Y13.0954 
G01 X-45.0729 Y13.1912 
G01 X-44.9276 Y13.2652 
G01 X-44.7725 Y13.3156 
G01 X-44.6115 Y13.3411 
G01 X-44.4485 Y13.3411 
G01 X-44.2875 Y13.3156 
G01 X-44.1324 Y13.2652 
G01 X-43.9871 Y13.1912 
G01 X-43.8553 Y13.0954 
G01 X-43.7400 Y12.9801 
G01 X-43.6441 Y12.8482 
G01 X-43.5701 Y12.7029 
G01 X-43.5198 Y12.5479 
G01 X-43.4943 Y12.3869 
G00 Z2.5400  
G00 X-93.6346 Y32.6165 
G01 Z-0.0350 F254   
G01 X-93.7793 Y32.7216 F508   
G01 X-93.9386 Y32.8027 
G01 X-94.1086 Y32.8580 
G01 X-94.2853 Y32.8859 
G01 X-94.8311 Y32.8859 
G01 X-94.8311 Y32.7857 
G01 X-94.2931 Y32.7857 
G01 X-94.1321 Y32.7602 
G01 X-93.9771 Y32.7099 
G01 X-93.8318 Y32.6359 
G01 X-93.6999 Y32.5400 
G01 X-93.5846 Y32.4247 
G01 X-93.4888 Y32.2929 
G01 X-93.4358 Y32.1888 
G01 X-93.3233 Y32.1888 
G01 X-93.4031 Y32.3454 
G01 X-93.5082 Y32.4900 
G01 X-93.6346 Y32.6165 
G00 Z2.5400  
G00 X-96.2547 Y32.8859 
G01 Z-0.0350 F254   
G01 X-96.4314 Y32.8580 F508   
G01 X-96.6014 Y32.8027 
G01 X-96.7607 Y32.7215 
G01 X-96.9054 Y32.6165 
G01 X-97.0318 Y32.4900 
G01 X-97.1369 Y32.3454 
G01 X-97.2167 Y32.1888 
G01 X-97.1042 Y32.1888 
G01 X-97.0512 Y32.2929 
G01 X-96.9554 Y32.4247 
G01 X-96.8401 Y32.5400 
G01 X-96.7082 Y32.6359 
G01 X-96.5629 Y32.7099 
G01 X-96.4079 Y32.7602 
G01 X-96.2469 Y32.7857 
G01 X-95.7088 Y32.7857 
G01 X-95.7088 Y32.8859 
G01 X-96.2547 Y32.8859 
G00 Z2.5400  
G00 X-97.1369 Y31.1546 
G01 Z-0.0350 F254   
G01 X-97.0318 Y31.0100 F508   
G01 X-96.9054 Y30.8835 
G01 X-96.7607 Y30.7784 
G01 X-96.6014 Y30.6973 
G01 X-96.4313 Y30.6420 
G01 X-96.2547 Y30.6140 
G01 X-95.7088 Y30.6140 
G01 X-95.7088 Y30.7142 
G01 X-96.2469 Y30.7142 
G01 X-96.4079 Y30.7398 
G01 X-96.5629 Y30.7901 
G01 X-96.7082 Y30.8641 
G01 X-96.8401 Y30.9600 
G01 X-96.9554 Y31.0753 
G01 X-97.0512 Y31.2071 
G01 X-97.1042 Y31.3111 
G01 X-97.2167 Y31.3111 
G01 X-97.1369 Y31.1546 
G00 Z2.5400  
G00 X-94.2853 Y30.6140 
G01 Z-0.0350 F254   
G01 X-94.1086 Y30.6420 F508   
G01 X-93.9386 Y30.6973 
G01 X-93.7793 Y30.7784 
G01 X-93.6346 Y30.8835 
G01 X-93.5082 Y31.0100 
G01 X-93.4031 Y31.1546 
G01 X-93.3233 Y31.3111 
G01 X-93.4358 Y31.3111 
G01 X-93.4888 Y31.2071 
G01 X-93.5846 Y31.0753 
G01 X-93.6999 Y30.9600 
G01 X-93.8318 Y30.8641 
G01 X-93.9771 Y30.7901 
G01 X-94.1321 Y30.7398 
G01 X-94.2931 Y30.7142 
G01 X-94.8311 Y30.7142 
G01 X-94.8311 Y30.6140 
G01 X-94.2853 Y30.6140 
G00 Z2.5400  
G00 X-93.4547 Y51.3753 
G01 Z-0.0350 F254   
G01 X-93.2895 Y51.7741 F508   
G01 X-93.2895 Y52.2059 
G01 X-93.4547 Y52.6047 
G01 X-93.7600 Y52.9099 
G01 X-94.1588 Y53.0751 
G01 X-96.3812 Y53.0751 
G01 X-96.7800 Y52.9099 
G01 X-97.0853 Y52.6047 
G01 X-97.2505 Y52.2059 
G01 X-97.2505 Y51.7741 
G01 X-97.0853 Y51.3753 
G01 X-96.7800 Y51.0701 
G01 X-96.3812 Y50.9048 
G01 X-94.1588 Y50.9048 
G01 X-93.7600 Y51.0701 
G01 X-93.4547 Y51.3753 
G00 Z2.5400  
G00 X-94.2931 Y50.9543 
G01 Z-0.0350 F254   
G01 X-96.2469 Y50.9543 F508   
G01 X-96.4079 Y50.9798 
G01 X-96.5629 Y51.0301 
G01 X-96.7082 Y51.1041 
G01 X-96.8401 Y51.2000 
G01 X-96.9554 Y51.3153 
G01 X-97.0512 Y51.4471 
G01 X-97.1252 Y51.5924 
G01 X-97.1756 Y51.7475 
G01 X-97.2011 Y51.9085 
G01 X-97.2011 Y52.0715 
G01 X-97.1756 Y52.2325 
G01 X-97.1252 Y52.3876 
G01 X-97.0512 Y52.5329 
G01 X-96.9554 Y52.6647 
G01 X-96.8401 Y52.7800 
G01 X-96.7082 Y52.8758 
G01 X-96.5629 Y52.9499 
G01 X-96.4079 Y53.0002 
G01 X-96.2469 Y53.0257 
G01 X-94.2931 Y53.0257 
G01 X-94.1321 Y53.0002 
G01 X-93.9771 Y52.9499 
G01 X-93.8318 Y52.8758 
G01 X-93.6999 Y52.7800 
G01 X-93.5846 Y52.6647 
G01 X-93.4888 Y52.5329 
G01 X-93.4148 Y52.3876 
G01 X-93.3644 Y52.2325 
G01 X-93.3389 Y52.0715 
G01 X-93.3389 Y51.9085 
G01 X-93.3644 Y51.7475 
G01 X-93.4148 Y51.5924 
G01 X-93.4888 Y51.4471 
G01 X-93.5846 Y51.3153 
G01 X-93.6999 Y51.2000 
G01 X-93.8318 Y51.1041 
G01 X-93.9771 Y51.0301 
G01 X-94.1321 Y50.9798 
G01 X-94.2931 Y50.9543 
G00 Z2.5400  
G00 X-75.6653 Y13.2253 
G01 Z-0.0350 F254   
G01 X-76.0641 Y13.3905 F508   
G01 X-76.4959 Y13.3905 
G01 X-76.8947 Y13.2253 
G01 X-77.1999 Y12.9200 
G01 X-77.3651 Y12.5212 
G01 X-77.3651 Y10.2988 
G01 X-77.1999 Y9.9000  
G01 X-76.8947 Y9.5947  
G01 X-76.4959 Y9.4295  
G01 X-76.0641 Y9.4295  
G01 X-75.6653 Y9.5947  
G01 X-75.3601 Y9.9000  
G01 X-75.1948 Y10.2988 
G01 X-75.1948 Y12.5212 
G01 X-75.3601 Y12.9200 
G01 X-75.6653 Y13.2253 
G00 Z2.5400  
G00 X-75.2443 Y12.3869 
G01 Z-0.0350 F254   
G01 X-75.2443 Y10.4331 F508   
G01 X-75.2698 Y10.2721 
G01 X-75.3201 Y10.1171 
G01 X-75.3941 Y9.9718  
G01 X-75.4900 Y9.8399  
G01 X-75.6053 Y9.7246  
G01 X-75.7371 Y9.6288  
G01 X-75.8824 Y9.5548  
G01 X-76.0375 Y9.5044  
G01 X-76.1985 Y9.4789  
G01 X-76.3615 Y9.4789  
G01 X-76.5225 Y9.5044  
G01 X-76.6776 Y9.5548  
G01 X-76.8229 Y9.6288  
G01 X-76.9547 Y9.7246  
G01 X-77.0700 Y9.8399  
G01 X-77.1659 Y9.9718  
G01 X-77.2399 Y10.1171 
G01 X-77.2902 Y10.2721 
G01 X-77.3157 Y10.4331 
G01 X-77.3157 Y12.3869 
G01 X-77.2902 Y12.5479 
G01 X-77.2399 Y12.7029 
G01 X-77.1659 Y12.8482 
G01 X-77.0700 Y12.9801 
G01 X-76.9547 Y13.0954 
G01 X-76.8229 Y13.1912 
G01 X-76.6776 Y13.2652 
G01 X-76.5225 Y13.3156 
G01 X-76.3615 Y13.3411 
G01 X-76.1985 Y13.3411 
G01 X-76.0375 Y13.3156 
G01 X-75.8824 Y13.2652 
G01 X-75.7371 Y13.1912 
G01 X-75.6053 Y13.0954 
G01 X-75.4900 Y12.9801 
G01 X-75.3941 Y12.8482 
G01 X-75.3201 Y12.7029 
G01 X-75.2698 Y12.5479 
G01 X-75.2443 Y12.3869 
G00 Z2.5400  
G00 X-19.9165 Y13.0454 
G01 Z-0.0350 F254   
G01 X-20.0216 Y12.9007 F508   
G01 X-20.1027 Y12.7414 
G01 X-20.1580 Y12.5713 
G01 X-20.1859 Y12.3947 
G01 X-20.1859 Y11.8488 
G01 X-20.0857 Y11.8488 
G01 X-20.0857 Y12.3869 
G01 X-20.0602 Y12.5479 
G01 X-20.0099 Y12.7029 
G01 X-19.9359 Y12.8482 
G01 X-19.8400 Y12.9801 
G01 X-19.7247 Y13.0954 
G01 X-19.5929 Y13.1912 
G01 X-19.4888 Y13.2442 
G01 X-19.4888 Y13.3567 
G01 X-19.6454 Y13.2769 
G01 X-19.7900 Y13.1718 
G01 X-19.9165 Y13.0454 
G00 Z2.5400  
G00 X-20.1859 Y10.4253 
G01 Z-0.0350 F254   
G01 X-20.1580 Y10.2486 F508   
G01 X-20.1027 Y10.0786 
G01 X-20.0216 Y9.9193  
G01 X-19.9165 Y9.7746  
G01 X-19.7900 Y9.6482  
G01 X-19.6454 Y9.5431  
G01 X-19.4888 Y9.4633  
G01 X-19.4888 Y9.5758  
G01 X-19.5929 Y9.6288  
G01 X-19.7247 Y9.7246  
G01 X-19.8400 Y9.8399  
G01 X-19.9359 Y9.9718  
G01 X-20.0099 Y10.1171 
G01 X-20.0602 Y10.2721 
G01 X-20.0857 Y10.4331 
G01 X-20.0857 Y10.9711 
G01 X-20.1859 Y10.9711 
G01 X-20.1859 Y10.4253 
G00 Z2.5400  
G00 X-18.4546 Y9.5431  
G01 Z-0.0350 F254   
G01 X-18.3100 Y9.6482  F508   
G01 X-18.1835 Y9.7746  
G01 X-18.0784 Y9.9193  
G01 X-17.9973 Y10.0786 
G01 X-17.9420 Y10.2486 
G01 X-17.9140 Y10.4253 
G01 X-17.9140 Y10.9711 
G01 X-18.0143 Y10.9711 
G01 X-18.0143 Y10.4331 
G01 X-18.0398 Y10.2721 
G01 X-18.0901 Y10.1171 
G01 X-18.1641 Y9.9718  
G01 X-18.2600 Y9.8399  
G01 X-18.3753 Y9.7246  
G01 X-18.5071 Y9.6288  
G01 X-18.6111 Y9.5758  
G01 X-18.6111 Y9.4633  
G01 X-18.4546 Y9.5431  
G00 Z2.5400  
G00 X-17.9140 Y12.3947 
G01 Z-0.0350 F254   
G01 X-17.9420 Y12.5714 F508   
G01 X-17.9973 Y12.7414 
G01 X-18.0784 Y12.9007 
G01 X-18.1835 Y13.0454 
G01 X-18.3100 Y13.1718 
G01 X-18.4546 Y13.2769 
G01 X-18.6111 Y13.3567 
G01 X-18.6111 Y13.2442 
G01 X-18.5071 Y13.1912 
G01 X-18.3753 Y13.0954 
G01 X-18.2600 Y12.9801 
G01 X-18.1641 Y12.8482 
G01 X-18.0901 Y12.7029 
G01 X-18.0398 Y12.5479 
G01 X-18.0143 Y12.3869 
G01 X-18.0143 Y11.8488 
G01 X-17.9140 Y11.8488 
G01 X-17.9140 Y12.3947 
G00 Z2.5400  
G00 X-6.8753 Y17.2047 
G01 Z-0.0350 F254   
G01 X-7.0405 Y16.8058 F508   
G01 X-7.0405 Y16.3741 
G01 X-6.8753 Y15.9753 
G01 X-6.5700 Y15.6701 
G01 X-6.1712 Y15.5048 
G01 X-3.9488 Y15.5048 
G01 X-3.5500 Y15.6701 
G01 X-3.2447 Y15.9753 
G01 X-3.0795 Y16.3741 
G01 X-3.0795 Y16.8058 
G01 X-3.2447 Y17.2047 
G01 X-3.5500 Y17.5099 
G01 X-3.9488 Y17.6751 
G01 X-6.1712 Y17.6751 
G01 X-6.5700 Y17.5099 
G01 X-6.8753 Y17.2047 
G00 Z2.5400  
G00 X-6.0369 Y17.6257 
G01 Z-0.0350 F254   
G01 X-4.0831 Y17.6257 F508   
G01 X-3.9221 Y17.6002 
G01 X-3.7671 Y17.5499 
G01 X-3.6218 Y17.4759 
G01 X-3.4899 Y17.3800 
G01 X-3.3746 Y17.2647 
G01 X-3.2788 Y17.1329 
G01 X-3.2048 Y16.9876 
G01 X-3.1544 Y16.8325 
G01 X-3.1289 Y16.6715 
G01 X-3.1289 Y16.5085 
G01 X-3.1544 Y16.3475 
G01 X-3.2048 Y16.1924 
G01 X-3.2788 Y16.0471 
G01 X-3.3746 Y15.9153 
G01 X-3.4899 Y15.8000 
G01 X-3.6218 Y15.7041 
G01 X-3.7671 Y15.6301 
G01 X-3.9221 Y15.5798 
G01 X-4.0831 Y15.5543 
G01 X-6.0369 Y15.5543 
G01 X-6.1979 Y15.5798 
G01 X-6.3529 Y15.6301 
G01 X-6.4982 Y15.7041 
G01 X-6.6301 Y15.8000 
G01 X-6.7454 Y15.9153 
G01 X-6.8412 Y16.0471 
G01 X-6.9152 Y16.1924 
G01 X-6.9656 Y16.3475 
G01 X-6.9911 Y16.5085 
G01 X-6.9911 Y16.6715 
G01 X-6.9656 Y16.8325 
G01 X-6.9152 Y16.9876 
G01 X-6.8412 Y17.1329 
G01 X-6.7454 Y17.2647 
G01 X-6.6301 Y17.3800 
G01 X-6.4982 Y17.4759 
G01 X-6.3529 Y17.5499 
G01 X-6.1979 Y17.6002 
G01 X-6.0369 Y17.6257 
G00 Z2.5400  
G00 X-6.8753 Y42.4447 
G01 Z-0.0350 F254   
G01 X-7.0405 Y42.0459 F508   
G01 X-7.0405 Y41.6141 
G01 X-6.8753 Y41.2153 
G01 X-6.5700 Y40.9101 
G01 X-6.1712 Y40.7448 
G01 X-3.9488 Y40.7448 
G01 X-3.5500 Y40.9101 
G01 X-3.2447 Y41.2153 
G01 X-3.0795 Y41.6141 
G01 X-3.0795 Y42.0459 
G01 X-3.2447 Y42.4447 
G01 X-3.5500 Y42.7499 
G01 X-3.9488 Y42.9151 
G01 X-6.1712 Y42.9151 
G01 X-6.5700 Y42.7499 
G01 X-6.8753 Y42.4447 
G00 Z2.5400  
G00 X-6.0369 Y42.8657 
G01 Z-0.0350 F254   
G01 X-4.0831 Y42.8657 F508   
G01 X-3.9221 Y42.8402 
G01 X-3.7671 Y42.7899 
G01 X-3.6218 Y42.7159 
G01 X-3.4899 Y42.6200 
G01 X-3.3746 Y42.5047 
G01 X-3.2788 Y42.3728 
G01 X-3.2048 Y42.2276 
G01 X-3.1544 Y42.0725 
G01 X-3.1289 Y41.9115 
G01 X-3.1289 Y41.7485 
G01 X-3.1544 Y41.5875 
G01 X-3.2048 Y41.4324 
G01 X-3.2788 Y41.2871 
G01 X-3.3746 Y41.1553 
G01 X-3.4899 Y41.0400 
G01 X-3.6218 Y40.9441 
G01 X-3.7671 Y40.8701 
G01 X-3.9221 Y40.8198 
G01 X-4.0831 Y40.7943 
G01 X-6.0369 Y40.7943 
G01 X-6.1979 Y40.8198 
G01 X-6.3529 Y40.8701 
G01 X-6.4982 Y40.9441 
G01 X-6.6301 Y41.0400 
G01 X-6.7454 Y41.1553 
G01 X-6.8412 Y41.2871 
G01 X-6.9152 Y41.4324 
G01 X-6.9656 Y41.5875 
G01 X-6.9911 Y41.7485 
G01 X-6.9911 Y41.9115 
G01 X-6.9656 Y42.0725 
G01 X-6.9152 Y42.2276 
G01 X-6.8412 Y42.3728 
G01 X-6.7454 Y42.5047 
G01 X-6.6301 Y42.6200 
G01 X-6.4982 Y42.7159 
G01 X-6.3529 Y42.7899 
G01 X-6.1979 Y42.8402 
G01 X-6.0369 Y42.8657 
G00 Z2.5400  
G00 X-39.8194 Y56.2467 
G01 Z-0.0350 F254   
G01 X-39.5718 Y56.1441 F508   
G01 X-39.3037 Y56.1441 
G01 X-39.0561 Y56.2467 
G01 X-38.8665 Y56.4362 
G01 X-38.7640 Y56.6839 
G01 X-38.7640 Y56.9519 
G01 X-38.8788 Y57.2292 
G01 X-38.8936 Y57.2547 
G01 X-38.9013 Y57.2835 
G01 X-38.9036 Y57.2890 
G01 X-38.9044 Y57.2949 
G01 X-38.9136 Y57.3292 
G01 X-38.9136 Y57.3650 
G01 X-38.9136 Y57.3699 
G01 X-38.9136 Y57.4063 
G01 X-38.9044 Y57.4409 
G01 X-38.9036 Y57.4468 
G01 X-38.9013 Y57.4523 
G01 X-38.8937 Y57.4807 
G01 X-38.8788 Y57.5065 
G01 X-38.7640 Y57.7839 
G01 X-38.7640 Y58.0519 
G01 X-38.8665 Y58.2996 
G01 X-39.0561 Y58.4891 
G01 X-39.3037 Y58.5917 
G01 X-39.5718 Y58.5917 
G01 X-39.8194 Y58.4891 
G01 X-40.0090 Y58.2996 
G01 X-40.1116 Y58.0519 
G01 X-40.1116 Y57.7839 
G01 X-39.9967 Y57.5065 
G01 X-39.9819 Y57.4809 
G01 X-39.9742 Y57.4523 
G01 X-39.9719 Y57.4468 
G01 X-39.9712 Y57.4409 
G01 X-39.9619 Y57.4064 
G01 X-39.9619 Y57.3708 
G01 X-39.9619 Y57.3659 
G01 X-39.9619 Y57.3293 
G01 X-39.9712 Y57.2949 
G01 X-39.9719 Y57.2890 
G01 X-39.9742 Y57.2835 
G01 X-39.9819 Y57.2549 
G01 X-39.9967 Y57.2292 
G01 X-40.1116 Y56.9519 
G01 X-40.1116 Y56.6839 
G01 X-40.0090 Y56.4362 
G01 X-39.8194 Y56.2467 
G00 Z2.5400  
G00 X-40.0622 Y56.7564 
G01 Z-0.0350 F254   
G01 X-40.0622 Y56.8794 F508   
G01 X-40.0382 Y57.0000 
G01 X-39.9911 Y57.1137 
G01 X-39.9228 Y57.2159 
G01 X-39.8358 Y57.3029 
G01 X-39.7385 Y57.3679 
G01 X-39.8358 Y57.4329 
G01 X-39.9228 Y57.5199 
G01 X-39.9911 Y57.6221 
G01 X-40.0382 Y57.7358 
G01 X-40.0622 Y57.8564 
G01 X-40.0622 Y57.9794 
G01 X-40.0382 Y58.1000 
G01 X-39.9911 Y58.2137 
G01 X-39.9228 Y58.3159 
G01 X-39.8358 Y58.4029 
G01 X-39.7335 Y58.4712 
G01 X-39.6199 Y58.5183 
G01 X-39.4993 Y58.5423 
G01 X-39.3763 Y58.5423 
G01 X-39.2556 Y58.5183 
G01 X-39.1420 Y58.4712 
G01 X-39.0397 Y58.4029 
G01 X-38.9528 Y58.3159 
G01 X-38.8844 Y58.2137 
G01 X-38.8374 Y58.1000 
G01 X-38.8134 Y57.9794 
G01 X-38.8134 Y57.8564 
G01 X-38.8374 Y57.7358 
G01 X-38.8844 Y57.6221 
G01 X-38.9528 Y57.5199 
G01 X-39.0397 Y57.4329 
G01 X-39.1370 Y57.3679 
G01 X-39.0397 Y57.3029 
G01 X-38.9528 Y57.2159 
G01 X-38.8844 Y57.1137 
G01 X-38.8374 Y57.0000 
G01 X-38.8134 Y56.8794 
G01 X-38.8134 Y56.7564 
G01 X-38.8374 Y56.6358 
G01 X-38.8844 Y56.5221 
G01 X-38.9528 Y56.4199 
G01 X-39.0397 Y56.3329 
G01 X-39.1420 Y56.2646 
G01 X-39.2556 Y56.2175 
G01 X-39.3763 Y56.1935 
G01 X-39.4993 Y56.1935 
G01 X-39.6199 Y56.2175 
G01 X-39.7335 Y56.2646 
G01 X-39.8358 Y56.3329 
G01 X-39.9228 Y56.4199 
G01 X-39.9911 Y56.5221 
G01 X-40.0382 Y56.6358 
G01 X-40.0622 Y56.7564 
G00 Z2.5400  
G00 X-28.6753 Y13.2253 
G01 Z-0.0350 F254   
G01 X-29.0741 Y13.3905 F508   
G01 X-29.5059 Y13.3905 
G01 X-29.9047 Y13.2253 
G01 X-30.2099 Y12.9200 
G01 X-30.3751 Y12.5212 
G01 X-30.3751 Y10.2988 
G01 X-30.2099 Y9.9000  
G01 X-29.9047 Y9.5947  
G01 X-29.5059 Y9.4295  
G01 X-29.0741 Y9.4295  
G01 X-28.6753 Y9.5947  
G01 X-28.3701 Y9.9000  
G01 X-28.2048 Y10.2988 
G01 X-28.2048 Y12.5212 
G01 X-28.3701 Y12.9200 
G01 X-28.6753 Y13.2253 
G00 Z2.5400  
G00 X-28.2543 Y12.3869 
G01 Z-0.0350 F254   
G01 X-28.2543 Y10.4331 F508   
G01 X-28.2798 Y10.2721 
G01 X-28.3301 Y10.1171 
G01 X-28.4041 Y9.9718  
G01 X-28.5000 Y9.8399  
G01 X-28.6153 Y9.7246  
G01 X-28.7471 Y9.6288  
G01 X-28.8924 Y9.5548  
G01 X-29.0475 Y9.5044  
G01 X-29.2085 Y9.4789  
G01 X-29.3715 Y9.4789  
G01 X-29.5325 Y9.5044  
G01 X-29.6876 Y9.5548  
G01 X-29.8329 Y9.6288  
G01 X-29.9647 Y9.7246  
G01 X-30.0800 Y9.8399  
G01 X-30.1759 Y9.9718  
G01 X-30.2499 Y10.1171 
G01 X-30.3002 Y10.2721 
G01 X-30.3257 Y10.4331 
G01 X-30.3257 Y12.3869 
G01 X-30.3002 Y12.5479 
G01 X-30.2499 Y12.7029 
G01 X-30.1759 Y12.8482 
G01 X-30.0800 Y12.9801 
G01 X-29.9647 Y13.0954 
G01 X-29.8329 Y13.1912 
G01 X-29.6876 Y13.2652 
G01 X-29.5325 Y13.3156 
G01 X-29.3715 Y13.3411 
G01 X-29.2085 Y13.3411 
G01 X-29.0475 Y13.3156 
G01 X-28.8924 Y13.2652 
G01 X-28.7471 Y13.1912 
G01 X-28.6153 Y13.0954 
G01 X-28.5000 Y12.9801 
G01 X-28.4041 Y12.8482 
G01 X-28.3301 Y12.7029 
G01 X-28.2798 Y12.5479 
G01 X-28.2543 Y12.3869 
G00 Z2.5400  
G00 X-6.8753 Y32.4447 
G01 Z-0.0350 F254   
G01 X-7.0405 Y32.0459 F508   
G01 X-7.0405 Y31.6141 
G01 X-6.8753 Y31.2153 
G01 X-6.5700 Y30.9101 
G01 X-6.1712 Y30.7448 
G01 X-3.9488 Y30.7448 
G01 X-3.5500 Y30.9101 
G01 X-3.2447 Y31.2153 
G01 X-3.0795 Y31.6141 
G01 X-3.0795 Y32.0459 
G01 X-3.2447 Y32.4447 
G01 X-3.5500 Y32.7499 
G01 X-3.9488 Y32.9151 
G01 X-6.1712 Y32.9151 
G01 X-6.5700 Y32.7499 
G01 X-6.8753 Y32.4447 
G00 Z2.5400  
G00 X-6.0369 Y32.8657 
G01 Z-0.0350 F254   
G01 X-4.0831 Y32.8657 F508   
G01 X-3.9221 Y32.8402 
G01 X-3.7671 Y32.7899 
G01 X-3.6218 Y32.7159 
G01 X-3.4899 Y32.6200 
G01 X-3.3746 Y32.5047 
G01 X-3.2788 Y32.3728 
G01 X-3.2048 Y32.2276 
G01 X-3.1544 Y32.0725 
G01 X-3.1289 Y31.9115 
G01 X-3.1289 Y31.7485 
G01 X-3.1544 Y31.5875 
G01 X-3.2048 Y31.4324 
G01 X-3.2788 Y31.2871 
G01 X-3.3746 Y31.1553 
G01 X-3.4899 Y31.0400 
G01 X-3.6218 Y30.9441 
G01 X-3.7671 Y30.8701 
G01 X-3.9221 Y30.8198 
G01 X-4.0831 Y30.7943 
G01 X-6.0369 Y30.7943 
G01 X-6.1979 Y30.8198 
G01 X-6.3529 Y30.8701 
G01 X-6.4982 Y30.9441 
G01 X-6.6301 Y31.0400 
G01 X-6.7454 Y31.1553 
G01 X-6.8412 Y31.2871 
G01 X-6.9152 Y31.4324 
G01 X-6.9656 Y31.5875 
G01 X-6.9911 Y31.7485 
G01 X-6.9911 Y31.9115 
G01 X-6.9656 Y32.0725 
G01 X-6.9152 Y32.2276 
G01 X-6.8412 Y32.3728 
G01 X-6.7454 Y32.5047 
G01 X-6.6301 Y32.6200 
G01 X-6.4982 Y32.7159 
G01 X-6.3529 Y32.7899 
G01 X-6.1979 Y32.8402 
G01 X-6.0369 Y32.8657 
G00 Z2.5400  
G00 X-6.6954 Y20.7235 
G01 Z-0.0350 F254   
G01 X-6.5507 Y20.6184 F508   
G01 X-6.3914 Y20.5373 
G01 X-6.2213 Y20.4820 
G01 X-6.0447 Y20.4540 
G01 X-5.4988 Y20.4540 
G01 X-5.4988 Y20.5542 
G01 X-6.0369 Y20.5542 
G01 X-6.1979 Y20.5798 
G01 X-6.3529 Y20.6301 
G01 X-6.4982 Y20.7041 
G01 X-6.6301 Y20.8000 
G01 X-6.7454 Y20.9153 
G01 X-6.8412 Y21.0471 
G01 X-6.8942 Y21.1511 
G01 X-7.0067 Y21.1511 
G01 X-6.9269 Y20.9946 
G01 X-6.8218 Y20.8500 
G01 X-6.6954 Y20.7235 
G00 Z2.5400  
G00 X-4.0753 Y20.4540 
G01 Z-0.0350 F254   
G01 X-3.8986 Y20.4820 F508   
G01 X-3.7286 Y20.5373 
G01 X-3.5693 Y20.6184 
G01 X-3.4246 Y20.7235 
G01 X-3.2982 Y20.8500 
G01 X-3.1931 Y20.9946 
G01 X-3.1133 Y21.1511 
G01 X-3.2258 Y21.1511 
G01 X-3.2788 Y21.0471 
G01 X-3.3746 Y20.9153 
G01 X-3.4899 Y20.8000 
G01 X-3.6218 Y20.7041 
G01 X-3.7671 Y20.6301 
G01 X-3.9221 Y20.5798 
G01 X-4.0831 Y20.5542 
G01 X-4.6211 Y20.5542 
G01 X-4.6211 Y20.4540 
G01 X-4.0753 Y20.4540 
G00 Z2.5400  
G00 X-3.1931 Y22.1854 
G01 Z-0.0350 F254   
G01 X-3.2982 Y22.3300 F508   
G01 X-3.4246 Y22.4565 
G01 X-3.5693 Y22.5616 
G01 X-3.7286 Y22.6427 
G01 X-3.8986 Y22.6980 
G01 X-4.0753 Y22.7259 
G01 X-4.6211 Y22.7259 
G01 X-4.6211 Y22.6257 
G01 X-4.0831 Y22.6257 
G01 X-3.9221 Y22.6002 
G01 X-3.7671 Y22.5499 
G01 X-3.6218 Y22.4759 
G01 X-3.4899 Y22.3800 
G01 X-3.3746 Y22.2647 
G01 X-3.2788 Y22.1329 
G01 X-3.2258 Y22.0288 
G01 X-3.1133 Y22.0288 
G01 X-3.1931 Y22.1854 
G00 Z2.5400  
G00 X-6.0447 Y22.7259 
G01 Z-0.0350 F254   
G01 X-6.2214 Y22.6980 F508   
G01 X-6.3914 Y22.6427 
G01 X-6.5507 Y22.5615 
G01 X-6.6954 Y22.4565 
G01 X-6.8218 Y22.3300 
G01 X-6.9269 Y22.1854 
G01 X-7.0067 Y22.0288 
G01 X-6.8942 Y22.0288 
G01 X-6.8412 Y22.1329 
G01 X-6.7454 Y22.2647 
G01 X-6.6301 Y22.3800 
G01 X-6.4982 Y22.4759 
G01 X-6.3529 Y22.5499 
G01 X-6.1979 Y22.6002 
G01 X-6.0369 Y22.6257 
G01 X-5.4988 Y22.6257 
G01 X-5.4988 Y22.7259 
G01 X-6.0447 Y22.7259 
G00 Z2.5400  
G00 X-59.1553 Y13.2253 
G01 Z-0.0350 F254   
G01 X-59.5541 Y13.3905 F508   
G01 X-59.9859 Y13.3905 
G01 X-60.3847 Y13.2253 
G01 X-60.6899 Y12.9200 
G01 X-60.8551 Y12.5212 
G01 X-60.8551 Y10.2988 
G01 X-60.6899 Y9.9000  
G01 X-60.3847 Y9.5947  
G01 X-59.9859 Y9.4295  
G01 X-59.5541 Y9.4295  
G01 X-59.1553 Y9.5947  
G01 X-58.8501 Y9.9000  
G01 X-58.6848 Y10.2988 
G01 X-58.6848 Y12.5212 
G01 X-58.8501 Y12.9200 
G01 X-59.1553 Y13.2253 
G00 Z2.5400  
G00 X-58.7343 Y12.3869 
G01 Z-0.0350 F254   
G01 X-58.7343 Y10.4331 F508   
G01 X-58.7598 Y10.2721 
G01 X-58.8101 Y10.1171 
G01 X-58.8841 Y9.9718  
G01 X-58.9800 Y9.8399  
G01 X-59.0953 Y9.7246  
G01 X-59.2271 Y9.6288  
G01 X-59.3724 Y9.5548  
G01 X-59.5275 Y9.5044  
G01 X-59.6885 Y9.4789  
G01 X-59.8515 Y9.4789  
G01 X-60.0125 Y9.5044  
G01 X-60.1676 Y9.5548  
G01 X-60.3129 Y9.6288  
G01 X-60.4447 Y9.7246  
G01 X-60.5600 Y9.8399  
G01 X-60.6559 Y9.9718  
G01 X-60.7299 Y10.1171 
G01 X-60.7802 Y10.2721 
G01 X-60.8057 Y10.4331 
G01 X-60.8057 Y12.3869 
G01 X-60.7802 Y12.5479 
G01 X-60.7299 Y12.7029 
G01 X-60.6559 Y12.8482 
G01 X-60.5600 Y12.9801 
G01 X-60.4447 Y13.0954 
G01 X-60.3129 Y13.1912 
G01 X-60.1676 Y13.2652 
G01 X-60.0125 Y13.3156 
G01 X-59.8515 Y13.3411 
G01 X-59.6885 Y13.3411 
G01 X-59.5275 Y13.3156 
G01 X-59.3724 Y13.2652 
G01 X-59.2271 Y13.1912 
G01 X-59.0953 Y13.0954 
G01 X-58.9800 Y12.9801 
G01 X-58.8841 Y12.8482 
G01 X-58.8101 Y12.7029 
G01 X-58.7598 Y12.5479 
G01 X-58.7343 Y12.3869 
G00 Z2.5400  
G00 X-85.6653 Y13.2253 
G01 Z-0.0350 F254   
G01 X-86.0641 Y13.3905 F508   
G01 X-86.4958 Y13.3905 
G01 X-86.8947 Y13.2253 
G01 X-87.1999 Y12.9200 
G01 X-87.3651 Y12.5212 
G01 X-87.3651 Y10.2988 
G01 X-87.1999 Y9.9000  
G01 X-86.8947 Y9.5947  
G01 X-86.4959 Y9.4295  
G01 X-86.0641 Y9.4295  
G01 X-85.6653 Y9.5947  
G01 X-85.3601 Y9.9000  
G01 X-85.1948 Y10.2988 
G01 X-85.1948 Y12.5212 
G01 X-85.3601 Y12.9200 
G01 X-85.6653 Y13.2253 
G00 Z2.5400  
G00 X-85.2443 Y12.3869 
G01 Z-0.0350 F254   
G01 X-85.2443 Y10.4331 F508   
G01 X-85.2698 Y10.2721 
G01 X-85.3201 Y10.1171 
G01 X-85.3941 Y9.9718  
G01 X-85.4900 Y9.8399  
G01 X-85.6053 Y9.7246  
G01 X-85.7371 Y9.6288  
G01 X-85.8824 Y9.5548  
G01 X-86.0375 Y9.5044  
G01 X-86.1985 Y9.4789  
G01 X-86.3615 Y9.4789  
G01 X-86.5225 Y9.5044  
G01 X-86.6776 Y9.5548  
G01 X-86.8229 Y9.6288  
G01 X-86.9547 Y9.7246  
G01 X-87.0700 Y9.8399  
G01 X-87.1659 Y9.9718  
G01 X-87.2399 Y10.1171 
G01 X-87.2902 Y10.2721 
G01 X-87.3157 Y10.4331 
G01 X-87.3157 Y12.3869 
G01 X-87.2902 Y12.5479 
G01 X-87.2399 Y12.7029 
G01 X-87.1659 Y12.8482 
G01 X-87.0700 Y12.9801 
G01 X-86.9547 Y13.0954 
G01 X-86.8229 Y13.1912 
G01 X-86.6776 Y13.2652 
G01 X-86.5225 Y13.3156 
G01 X-86.3615 Y13.3411 
G01 X-86.1985 Y13.3411 
G01 X-86.0375 Y13.3156 
G01 X-85.8824 Y13.2652 
G01 X-85.7371 Y13.1912 
G01 X-85.6053 Y13.0954 
G01 X-85.4900 Y12.9801 
G01 X-85.3941 Y12.8482 
G01 X-85.3201 Y12.7029 
G01 X-85.2698 Y12.5479 
G01 X-85.2443 Y12.3869 
G00 Z2.5400  
G00 X-93.6346 Y47.8565 
G01 Z-0.0350 F254   
G01 X-93.7793 Y47.9616 F508   
G01 X-93.9386 Y48.0427 
G01 X-94.1086 Y48.0980 
G01 X-94.2852 Y48.1259 
G01 X-94.8311 Y48.1259 
G01 X-94.8311 Y48.0257 
G01 X-94.2931 Y48.0257 
G01 X-94.1321 Y48.0002 
G01 X-93.9771 Y47.9499 
G01 X-93.8318 Y47.8758 
G01 X-93.6999 Y47.7800 
G01 X-93.5846 Y47.6647 
G01 X-93.4888 Y47.5329 
G01 X-93.4358 Y47.4288 
G01 X-93.3233 Y47.4288 
G01 X-93.4031 Y47.5854 
G01 X-93.5082 Y47.7300 
G01 X-93.6346 Y47.8565 
G00 Z2.5400  
G00 X-96.2547 Y48.1259 
G01 Z-0.0350 F254   
G01 X-96.4314 Y48.0980 F508   
G01 X-96.6014 Y48.0427 
G01 X-96.7607 Y47.9615 
G01 X-96.9054 Y47.8565 
G01 X-97.0318 Y47.7300 
G01 X-97.1369 Y47.5854 
G01 X-97.2167 Y47.4288 
G01 X-97.1042 Y47.4288 
G01 X-97.0512 Y47.5329 
G01 X-96.9554 Y47.6647 
G01 X-96.8401 Y47.7800 
G01 X-96.7082 Y47.8758 
G01 X-96.5629 Y47.9499 
G01 X-96.4079 Y48.0002 
G01 X-96.2469 Y48.0257 
G01 X-95.7088 Y48.0257 
G01 X-95.7088 Y48.1259 
G01 X-96.2547 Y48.1259 
G00 Z2.5400  
G00 X-97.1369 Y46.3946 
G01 Z-0.0350 F254   
G01 X-97.0318 Y46.2500 F508   
G01 X-96.9054 Y46.1235 
G01 X-96.7607 Y46.0184 
G01 X-96.6014 Y45.9373 
G01 X-96.4313 Y45.8820 
G01 X-96.2547 Y45.8540 
G01 X-95.7088 Y45.8540 
G01 X-95.7088 Y45.9543 
G01 X-96.2469 Y45.9543 
G01 X-96.4079 Y45.9798 
G01 X-96.5629 Y46.0301 
G01 X-96.7082 Y46.1041 
G01 X-96.8401 Y46.2000 
G01 X-96.9554 Y46.3153 
G01 X-97.0512 Y46.4471 
G01 X-97.1042 Y46.5511 
G01 X-97.2167 Y46.5511 
G01 X-97.1369 Y46.3946 
G00 Z2.5400  
G00 X-94.2853 Y45.8540 
G01 Z-0.0350 F254   
G01 X-94.1086 Y45.8820 F508   
G01 X-93.9386 Y45.9373 
G01 X-93.7793 Y46.0184 
G01 X-93.6346 Y46.1235 
G01 X-93.5082 Y46.2500 
G01 X-93.4031 Y46.3946 
G01 X-93.3233 Y46.5511 
G01 X-93.4358 Y46.5511 
G01 X-93.4888 Y46.4471 
G01 X-93.5846 Y46.3153 
G01 X-93.6999 Y46.2000 
G01 X-93.8318 Y46.1041 
G01 X-93.9771 Y46.0301 
G01 X-94.1321 Y45.9798 
G01 X-94.2931 Y45.9543 
G01 X-94.8311 Y45.9543 
G01 X-94.8311 Y45.8540 
G01 X-94.2853 Y45.8540 
G00 Z2.5400  
G00 X-93.4547 Y10.8953 
G01 Z-0.0350 F254   
G01 X-93.2895 Y11.2941 F508   
G01 X-93.2895 Y11.7259 
G01 X-93.4547 Y12.1247 
G01 X-93.7600 Y12.4299 
G01 X-94.1588 Y12.5951 
G01 X-96.3812 Y12.5951 
G01 X-96.7800 Y12.4299 
G01 X-97.0853 Y12.1247 
G01 X-97.2505 Y11.7259 
G01 X-97.2505 Y11.2941 
G01 X-97.0853 Y10.8953 
G01 X-96.7800 Y10.5900 
G01 X-96.3812 Y10.4248 
G01 X-94.1588 Y10.4248 
G01 X-93.7600 Y10.5900 
G01 X-93.4547 Y10.8953 
G00 Z2.5400  
G00 X-94.2931 Y10.4742 
G01 Z-0.0350 F254   
G01 X-96.2469 Y10.4742 F508   
G01 X-96.4079 Y10.4998 
G01 X-96.5629 Y10.5501 
G01 X-96.7082 Y10.6241 
G01 X-96.8401 Y10.7200 
G01 X-96.9554 Y10.8353 
G01 X-97.0512 Y10.9671 
G01 X-97.1252 Y11.1124 
G01 X-97.1756 Y11.2675 
G01 X-97.2011 Y11.4285 
G01 X-97.2011 Y11.5915 
G01 X-97.1756 Y11.7525 
G01 X-97.1252 Y11.9076 
G01 X-97.0512 Y12.0529 
G01 X-96.9554 Y12.1847 
G01 X-96.8401 Y12.3000 
G01 X-96.7082 Y12.3959 
G01 X-96.5629 Y12.4699 
G01 X-96.4079 Y12.5202 
G01 X-96.2469 Y12.5457 
G01 X-94.2931 Y12.5457 
G01 X-94.1321 Y12.5202 
G01 X-93.9771 Y12.4699 
G01 X-93.8318 Y12.3959 
G01 X-93.6999 Y12.3000 
G01 X-93.5846 Y12.1847 
G01 X-93.4888 Y12.0529 
G01 X-93.4148 Y11.9076 
G01 X-93.3644 Y11.7525 
G01 X-93.3389 Y11.5915 
G01 X-93.3389 Y11.4285 
G01 X-93.3644 Y11.2675 
G01 X-93.4148 Y11.1124 
G01 X-93.4888 Y10.9671 
G01 X-93.5846 Y10.8353 
G01 X-93.6999 Y10.7200 
G01 X-93.8318 Y10.6241 
G01 X-93.9771 Y10.5501 
G01 X-94.1321 Y10.4998 
G01 X-94.2931 Y10.4742 
G00 Z2.5400  
G00 X-53.9153 Y13.2253 
G01 Z-0.0350 F254   
G01 X-54.3141 Y13.3905 F508   
G01 X-54.7459 Y13.3905 
G01 X-55.1447 Y13.2253 
G01 X-55.4499 Y12.9200 
G01 X-55.6151 Y12.5212 
G01 X-55.6151 Y10.2988 
G01 X-55.4499 Y9.9000  
G01 X-55.1447 Y9.5947  
G01 X-54.7459 Y9.4295  
G01 X-54.3141 Y9.4295  
G01 X-53.9153 Y9.5947  
G01 X-53.6101 Y9.9000  
G01 X-53.4448 Y10.2988 
G01 X-53.4448 Y12.5212 
G01 X-53.6101 Y12.9200 
G01 X-53.9153 Y13.2253 
G00 Z2.5400  
G00 X-53.4943 Y12.3869 
G01 Z-0.0350 F254   
G01 X-53.4943 Y10.4331 F508   
G01 X-53.5198 Y10.2721 
G01 X-53.5701 Y10.1171 
G01 X-53.6441 Y9.9718  
G01 X-53.7400 Y9.8399  
G01 X-53.8553 Y9.7246  
G01 X-53.9871 Y9.6288  
G01 X-54.1324 Y9.5548  
G01 X-54.2875 Y9.5044  
G01 X-54.4485 Y9.4789  
G01 X-54.6115 Y9.4789  
G01 X-54.7725 Y9.5044  
G01 X-54.9276 Y9.5548  
G01 X-55.0729 Y9.6288  
G01 X-55.2047 Y9.7246  
G01 X-55.3200 Y9.8399  
G01 X-55.4159 Y9.9718  
G01 X-55.4899 Y10.1171 
G01 X-55.5402 Y10.2721 
G01 X-55.5657 Y10.4331 
G01 X-55.5657 Y12.3869 
G01 X-55.5402 Y12.5479 
G01 X-55.4899 Y12.7029 
G01 X-55.4159 Y12.8482 
G01 X-55.3200 Y12.9801 
G01 X-55.2047 Y13.0954 
G01 X-55.0729 Y13.1912 
G01 X-54.9276 Y13.2652 
G01 X-54.7725 Y13.3156 
G01 X-54.6115 Y13.3411 
G01 X-54.4485 Y13.3411 
G01 X-54.2875 Y13.3156 
G01 X-54.1324 Y13.2652 
G01 X-53.9871 Y13.1912 
G01 X-53.8553 Y13.0954 
G01 X-53.7400 Y12.9801 
G01 X-53.6441 Y12.8482 
G01 X-53.5701 Y12.7029 
G01 X-53.5198 Y12.5479 
G01 X-53.4943 Y12.3869 
G00 Z2.5400  
G00 X-82.3588 Y63.1403 
G01 Z-0.0350 F254   
G01 X-82.4265 Y63.2416 F508   
G01 X-82.5127 Y63.3278 
G01 X-82.6140 Y63.3955 
G01 X-82.6143 Y63.2769 
G01 X-82.5887 Y63.2621 
G01 X-82.4921 Y63.1656 
G01 X-82.4774 Y63.1400 
G01 X-82.3586 Y63.1400 
G00 Z2.5400  
G00 X-83.4555 Y62.5540 
G01 Z-0.0350 F254   
G01 X-83.3878 Y62.4527 F508   
G01 X-83.3016 Y62.3665 
G01 X-83.2002 Y62.2988 
G01 X-83.1999 Y62.4174 
G01 X-83.2256 Y62.4322 
G01 X-83.3221 Y62.5287 
G01 X-83.3369 Y62.5543 
G01 X-83.4556 Y62.5543 
G00 Z2.5400  
G00 X-83.3221 Y63.1656 
G01 Z-0.0350 F254   
G01 X-83.2256 Y63.2621 F508   
G01 X-83.1999 Y63.2769 
G01 X-83.1999 Y63.3956 
G01 X-83.3016 Y63.3278 
G01 X-83.3878 Y63.2416 
G01 X-83.4555 Y63.1402 
G01 X-83.3369 Y63.1400 
G01 X-83.3221 Y63.1656 
G00 Z2.5400  
G00 X-82.6140 Y62.2988 
G01 Z-0.0350 F254   
G01 X-82.5127 Y62.3665 F508   
G01 X-82.4265 Y62.4527 
G01 X-82.3588 Y62.5540 
G01 X-82.4774 Y62.5543 
G01 X-82.4921 Y62.5287 
G01 X-82.5887 Y62.4322 
G01 X-82.6143 Y62.4174 
G01 X-82.6143 Y62.2986 
G00 Z2.5400  
G00 X-94.2853 Y15.3740 
G01 Z-0.0350 F254   
G01 X-94.1086 Y15.4020 F508   
G01 X-93.9386 Y15.4573 
G01 X-93.7793 Y15.5384 
G01 X-93.6346 Y15.6435 
G01 X-93.5082 Y15.7700 
G01 X-93.4031 Y15.9146 
G01 X-93.3233 Y16.0711 
G01 X-93.4358 Y16.0711 
G01 X-93.4888 Y15.9671 
G01 X-93.5846 Y15.8353 
G01 X-93.6999 Y15.7200 
G01 X-93.8318 Y15.6241 
G01 X-93.9771 Y15.5501 
G01 X-94.1321 Y15.4998 
G01 X-94.2931 Y15.4743 
G01 X-94.8311 Y15.4743 
G01 X-94.8311 Y15.3740 
G01 X-94.2853 Y15.3740 
G00 Z2.5400  
G00 X-97.1369 Y15.9146 
G01 Z-0.0350 F254   
G01 X-97.0318 Y15.7700 F508   
G01 X-96.9054 Y15.6435 
G01 X-96.7607 Y15.5384 
G01 X-96.6014 Y15.4573 
G01 X-96.4313 Y15.4020 
G01 X-96.2547 Y15.3740 
G01 X-95.7088 Y15.3740 
G01 X-95.7088 Y15.4743 
G01 X-96.2469 Y15.4743 
G01 X-96.4079 Y15.4998 
G01 X-96.5629 Y15.5501 
G01 X-96.7082 Y15.6241 
G01 X-96.8401 Y15.7200 
G01 X-96.9554 Y15.8353 
G01 X-97.0512 Y15.9671 
G01 X-97.1042 Y16.0711 
G01 X-97.2167 Y16.0711 
G01 X-97.1369 Y15.9146 
G00 Z2.5400  
G00 X-96.2547 Y17.6459 
G01 Z-0.0350 F254   
G01 X-96.4314 Y17.6180 F508   
G01 X-96.6014 Y17.5627 
G01 X-96.7607 Y17.4815 
G01 X-96.9054 Y17.3765 
G01 X-97.0318 Y17.2500 
G01 X-97.1369 Y17.1054 
G01 X-97.2167 Y16.9488 
G01 X-97.1042 Y16.9488 
G01 X-97.0512 Y17.0528 
G01 X-96.9554 Y17.1847 
G01 X-96.8401 Y17.3000 
G01 X-96.7082 Y17.3958 
G01 X-96.5629 Y17.4699 
G01 X-96.4079 Y17.5202 
G01 X-96.2469 Y17.5457 
G01 X-95.7088 Y17.5457 
G01 X-95.7088 Y17.6459 
G01 X-96.2547 Y17.6459 
G00 Z2.5400  
G00 X-93.6346 Y17.3765 
G01 Z-0.0350 F254   
G01 X-93.7793 Y17.4815 F508   
G01 X-93.9386 Y17.5627 
G01 X-94.1086 Y17.6180 
G01 X-94.2853 Y17.6459 
G01 X-94.8311 Y17.6459 
G01 X-94.8311 Y17.5457 
G01 X-94.2931 Y17.5457 
G01 X-94.1321 Y17.5202 
G01 X-93.9771 Y17.4699 
G01 X-93.8318 Y17.3958 
G01 X-93.6999 Y17.3000 
G01 X-93.5846 Y17.1847 
G01 X-93.4888 Y17.0528 
G01 X-93.4358 Y16.9488 
G01 X-93.3233 Y16.9488 
G01 X-93.4031 Y17.1054 
G01 X-93.5082 Y17.2500 
G01 X-93.6346 Y17.3765 
G00 Z2.5400  
G00 X-93.4547 Y36.1353 
G01 Z-0.0350 F254   
G01 X-93.2895 Y36.5341 F508   
G01 X-93.2895 Y36.9659 
G01 X-93.4547 Y37.3647 
G01 X-93.7600 Y37.6699 
G01 X-94.1588 Y37.8351 
G01 X-96.3812 Y37.8351 
G01 X-96.7800 Y37.6699 
G01 X-97.0853 Y37.3647 
G01 X-97.2505 Y36.9659 
G01 X-97.2505 Y36.5341 
G01 X-97.0853 Y36.1353 
G01 X-96.7800 Y35.8300 
G01 X-96.3812 Y35.6648 
G01 X-94.1588 Y35.6648 
G01 X-93.7600 Y35.8300 
G01 X-93.4547 Y36.1353 
G00 Z2.5400  
G00 X-94.2931 Y35.7142 
G01 Z-0.0350 F254   
G01 X-96.2469 Y35.7142 F508   
G01 X-96.4079 Y35.7398 
G01 X-96.5629 Y35.7901 
G01 X-96.7082 Y35.8641 
G01 X-96.8401 Y35.9600 
G01 X-96.9554 Y36.0753 
G01 X-97.0512 Y36.2071 
G01 X-97.1252 Y36.3524 
G01 X-97.1756 Y36.5075 
G01 X-97.2011 Y36.6685 
G01 X-97.2011 Y36.8315 
G01 X-97.1756 Y36.9925 
G01 X-97.1252 Y37.1476 
G01 X-97.0512 Y37.2929 
G01 X-96.9554 Y37.4247 
G01 X-96.8401 Y37.5400 
G01 X-96.7082 Y37.6359 
G01 X-96.5629 Y37.7099 
G01 X-96.4079 Y37.7602 
G01 X-96.2469 Y37.7857 
G01 X-94.2931 Y37.7857 
G01 X-94.1321 Y37.7602 
G01 X-93.9771 Y37.7099 
G01 X-93.8318 Y37.6359 
G01 X-93.6999 Y37.5400 
G01 X-93.5846 Y37.4247 
G01 X-93.4888 Y37.2929 
G01 X-93.4148 Y37.1476 
G01 X-93.3644 Y36.9925 
G01 X-93.3389 Y36.8315 
G01 X-93.3389 Y36.6685 
G01 X-93.3644 Y36.5075 
G01 X-93.4148 Y36.3524 
G01 X-93.4888 Y36.2071 
G01 X-93.5846 Y36.0753 
G01 X-93.6999 Y35.9600 
G01 X-93.8318 Y35.8641 
G01 X-93.9771 Y35.7901 
G01 X-94.1321 Y35.7398 
G01 X-94.2931 Y35.7142 
G00 Z2.5400  
G00 X-93.4547 Y41.3753 
G01 Z-0.0350 F254   
G01 X-93.2895 Y41.7741 F508   
G01 X-93.2895 Y42.2059 
G01 X-93.4547 Y42.6047 
G01 X-93.7600 Y42.9099 
G01 X-94.1588 Y43.0751 
G01 X-96.3812 Y43.0751 
G01 X-96.7800 Y42.9099 
G01 X-97.0853 Y42.6047 
G01 X-97.2505 Y42.2059 
G01 X-97.2505 Y41.7741 
G01 X-97.0853 Y41.3753 
G01 X-96.7800 Y41.0701 
G01 X-96.3812 Y40.9048 
G01 X-94.1588 Y40.9048 
G01 X-93.7600 Y41.0701 
G01 X-93.4547 Y41.3753 
G00 Z2.5400  
G00 X-94.2931 Y40.9543 
G01 Z-0.0350 F254   
G01 X-96.2469 Y40.9543 F508   
G01 X-96.4079 Y40.9798 
G01 X-96.5629 Y41.0301 
G01 X-96.7082 Y41.1041 
G01 X-96.8401 Y41.2000 
G01 X-96.9554 Y41.3153 
G01 X-97.0512 Y41.4471 
G01 X-97.1252 Y41.5924 
G01 X-97.1756 Y41.7475 
G01 X-97.2011 Y41.9085 
G01 X-97.2011 Y42.0715 
G01 X-97.1756 Y42.2325 
G01 X-97.1252 Y42.3876 
G01 X-97.0512 Y42.5329 
G01 X-96.9554 Y42.6647 
G01 X-96.8401 Y42.7800 
G01 X-96.7082 Y42.8758 
G01 X-96.5629 Y42.9499 
G01 X-96.4079 Y43.0002 
G01 X-96.2469 Y43.0257 
G01 X-94.2931 Y43.0257 
G01 X-94.1321 Y43.0002 
G01 X-93.9771 Y42.9499 
G01 X-93.8318 Y42.8758 
G01 X-93.6999 Y42.7800 
G01 X-93.5846 Y42.6647 
G01 X-93.4888 Y42.5329 
G01 X-93.4148 Y42.3876 
G01 X-93.3644 Y42.2325 
G01 X-93.3389 Y42.0715 
G01 X-93.3389 Y41.9085 
G01 X-93.3644 Y41.7475 
G01 X-93.4148 Y41.5924 
G01 X-93.4888 Y41.4471 
G01 X-93.5846 Y41.3153 
G01 X-93.6999 Y41.2000 
G01 X-93.8318 Y41.1041 
G01 X-93.9771 Y41.0301 
G01 X-94.1321 Y40.9798 
G01 X-94.2931 Y40.9543 
G00 Z2.5400  
G00 X-63.6340 Y12.3947 
G01 Z-0.0350 F254   
G01 X-63.6620 Y12.5714 F508   
G01 X-63.7173 Y12.7414 
G01 X-63.7984 Y12.9007 
G01 X-63.9035 Y13.0454 
G01 X-64.0300 Y13.1718 
G01 X-64.1746 Y13.2769 
G01 X-64.3311 Y13.3567 
G01 X-64.3311 Y13.2442 
G01 X-64.2271 Y13.1912 
G01 X-64.0953 Y13.0954 
G01 X-63.9800 Y12.9801 
G01 X-63.8841 Y12.8482 
G01 X-63.8101 Y12.7029 
G01 X-63.7598 Y12.5479 
G01 X-63.7343 Y12.3869 
G01 X-63.7343 Y11.8488 
G01 X-63.6340 Y11.8488 
G01 X-63.6340 Y12.3947 
G00 Z2.5400  
G00 X-64.1746 Y9.5431  
G01 Z-0.0350 F254   
G01 X-64.0300 Y9.6482  F508   
G01 X-63.9035 Y9.7746  
G01 X-63.7984 Y9.9193  
G01 X-63.7173 Y10.0786 
G01 X-63.6620 Y10.2486 
G01 X-63.6340 Y10.4253 
G01 X-63.6340 Y10.9711 
G01 X-63.7343 Y10.9711 
G01 X-63.7343 Y10.4331 
G01 X-63.7598 Y10.2721 
G01 X-63.8101 Y10.1171 
G01 X-63.8841 Y9.9718  
G01 X-63.9800 Y9.8399  
G01 X-64.0953 Y9.7246  
G01 X-64.2271 Y9.6288  
G01 X-64.3311 Y9.5758  
G01 X-64.3311 Y9.4633  
G01 X-64.1746 Y9.5431  
G00 Z2.5400  
G00 X-65.9059 Y10.4253 
G01 Z-0.0350 F254   
G01 X-65.8780 Y10.2486 F508   
G01 X-65.8227 Y10.0786 
G01 X-65.7416 Y9.9193  
G01 X-65.6365 Y9.7746  
G01 X-65.5100 Y9.6482  
G01 X-65.3654 Y9.5431  
G01 X-65.2088 Y9.4633  
G01 X-65.2088 Y9.5758  
G01 X-65.3128 Y9.6288  
G01 X-65.4447 Y9.7246  
G01 X-65.5600 Y9.8399  
G01 X-65.6559 Y9.9718  
G01 X-65.7299 Y10.1171 
G01 X-65.7802 Y10.2721 
G01 X-65.8057 Y10.4331 
G01 X-65.8057 Y10.9711 
G01 X-65.9059 Y10.9711 
G01 X-65.9059 Y10.4253 
G00 Z2.5400  
G00 X-65.6365 Y13.0454 
G01 Z-0.0350 F254   
G01 X-65.7416 Y12.9007 F508   
G01 X-65.8227 Y12.7414 
G01 X-65.8780 Y12.5713 
G01 X-65.9059 Y12.3947 
G01 X-65.9059 Y11.8488 
G01 X-65.8057 Y11.8488 
G01 X-65.8057 Y12.3869 
G01 X-65.7802 Y12.5479 
G01 X-65.7299 Y12.7029 
G01 X-65.6559 Y12.8482 
G01 X-65.5600 Y12.9801 
G01 X-65.4447 Y13.0954 
G01 X-65.3128 Y13.1912 
G01 X-65.2088 Y13.2442 
G01 X-65.2088 Y13.3567 
G01 X-65.3654 Y13.2769 
G01 X-65.5100 Y13.1718 
G01 X-65.6365 Y13.0454 
G00 Z2.5400  
G00 X-23.4353 Y13.2253 
G01 Z-0.0350 F254   
G01 X-23.8341 Y13.3905 F508   
G01 X-24.2659 Y13.3905 
G01 X-24.6647 Y13.2253 
G01 X-24.9699 Y12.9200 
G01 X-25.1351 Y12.5212 
G01 X-25.1351 Y10.2988 
G01 X-24.9699 Y9.9000  
G01 X-24.6647 Y9.5947  
G01 X-24.2659 Y9.4295  
G01 X-23.8341 Y9.4295  
G01 X-23.4353 Y9.5947  
G01 X-23.1301 Y9.9000  
G01 X-22.9648 Y10.2988 
G01 X-22.9648 Y12.5212 
G01 X-23.1301 Y12.9200 
G01 X-23.4353 Y13.2253 
G00 Z2.5400  
G00 X-23.0143 Y12.3869 
G01 Z-0.0350 F254   
G01 X-23.0143 Y10.4331 F508   
G01 X-23.0398 Y10.2721 
G01 X-23.0901 Y10.1171 
G01 X-23.1641 Y9.9718  
G01 X-23.2600 Y9.8399  
G01 X-23.3753 Y9.7246  
G01 X-23.5071 Y9.6288  
G01 X-23.6524 Y9.5548  
G01 X-23.8075 Y9.5044  
G01 X-23.9685 Y9.4789  
G01 X-24.1315 Y9.4789  
G01 X-24.2925 Y9.5044  
G01 X-24.4476 Y9.5548  
G01 X-24.5929 Y9.6288  
G01 X-24.7247 Y9.7246  
G01 X-24.8400 Y9.8399  
G01 X-24.9359 Y9.9718  
G01 X-25.0099 Y10.1171 
G01 X-25.0602 Y10.2721 
G01 X-25.0857 Y10.4331 
G01 X-25.0857 Y12.3869 
G01 X-25.0602 Y12.5479 
G01 X-25.0099 Y12.7029 
G01 X-24.9359 Y12.8482 
G01 X-24.8400 Y12.9801 
G01 X-24.7247 Y13.0954 
G01 X-24.5929 Y13.1912 
G01 X-24.4476 Y13.2652 
G01 X-24.2925 Y13.3156 
G01 X-24.1315 Y13.3411 
G01 X-23.9685 Y13.3411 
G01 X-23.8075 Y13.3156 
G01 X-23.6524 Y13.2652 
G01 X-23.5071 Y13.1912 
G01 X-23.3753 Y13.0954 
G01 X-23.2600 Y12.9801 
G01 X-23.1641 Y12.8482 
G01 X-23.0901 Y12.7029 
G01 X-23.0398 Y12.5479 
G01 X-23.0143 Y12.3869 
G00 Z2.5400  
G00 X-6.8753 Y27.2047 
G01 Z-0.0350 F254   
G01 X-7.0405 Y26.8058 F508   
G01 X-7.0405 Y26.3741 
G01 X-6.8753 Y25.9753 
G01 X-6.5700 Y25.6700 
G01 X-6.1712 Y25.5048 
G01 X-3.9488 Y25.5048 
G01 X-3.5500 Y25.6700 
G01 X-3.2447 Y25.9753 
G01 X-3.0795 Y26.3741 
G01 X-3.0795 Y26.8058 
G01 X-3.2447 Y27.2047 
G01 X-3.5500 Y27.5099 
G01 X-3.9488 Y27.6751 
G01 X-6.1712 Y27.6751 
G01 X-6.5700 Y27.5099 
G01 X-6.8753 Y27.2047 
G00 Z2.5400  
G00 X-6.0369 Y27.6257 
G01 Z-0.0350 F254   
G01 X-4.0831 Y27.6257 F508   
G01 X-3.9221 Y27.6002 
G01 X-3.7671 Y27.5499 
G01 X-3.6218 Y27.4759 
G01 X-3.4899 Y27.3800 
G01 X-3.3746 Y27.2647 
G01 X-3.2788 Y27.1329 
G01 X-3.2048 Y26.9876 
G01 X-3.1544 Y26.8325 
G01 X-3.1289 Y26.6715 
G01 X-3.1289 Y26.5085 
G01 X-3.1544 Y26.3475 
G01 X-3.2048 Y26.1924 
G01 X-3.2788 Y26.0471 
G01 X-3.3746 Y25.9153 
G01 X-3.4899 Y25.8000 
G01 X-3.6218 Y25.7041 
G01 X-3.7671 Y25.6301 
G01 X-3.9221 Y25.5798 
G01 X-4.0831 Y25.5542 
G01 X-6.0369 Y25.5542 
G01 X-6.1979 Y25.5798 
G01 X-6.3529 Y25.6301 
G01 X-6.4982 Y25.7041 
G01 X-6.6301 Y25.8000 
G01 X-6.7454 Y25.9153 
G01 X-6.8412 Y26.0471 
G01 X-6.9152 Y26.1924 
G01 X-6.9656 Y26.3475 
G01 X-6.9911 Y26.5085 
G01 X-6.9911 Y26.6715 
G01 X-6.9656 Y26.8325 
G01 X-6.9152 Y26.9876 
G01 X-6.8412 Y27.1329 
G01 X-6.7454 Y27.2647 
G01 X-6.6301 Y27.3800 
G01 X-6.4982 Y27.4759 
G01 X-6.3529 Y27.5499 
G01 X-6.1979 Y27.6002 
G01 X-6.0369 Y27.6257 
G00 Z2.5400  
G00 X-33.1540 Y12.3947 
G01 Z-0.0350 F254   
G01 X-33.1820 Y12.5714 F508   
G01 X-33.2373 Y12.7414 
G01 X-33.3184 Y12.9007 
G01 X-33.4235 Y13.0454 
G01 X-33.5500 Y13.1718 
G01 X-33.6946 Y13.2769 
G01 X-33.8511 Y13.3567 
G01 X-33.8511 Y13.2442 
G01 X-33.7471 Y13.1912 
G01 X-33.6153 Y13.0954 
G01 X-33.5000 Y12.9801 
G01 X-33.4041 Y12.8482 
G01 X-33.3301 Y12.7029 
G01 X-33.2798 Y12.5479 
G01 X-33.2542 Y12.3869 
G01 X-33.2542 Y11.8488 
G01 X-33.1540 Y11.8488 
G01 X-33.1540 Y12.3947 
G00 Z2.5400  
G00 X-33.6946 Y9.5431  
G01 Z-0.0350 F254   
G01 X-33.5500 Y9.6482  F508   
G01 X-33.4235 Y9.7746  
G01 X-33.3184 Y9.9193  
G01 X-33.2373 Y10.0786 
G01 X-33.1820 Y10.2486 
G01 X-33.1540 Y10.4253 
G01 X-33.1540 Y10.9711 
G01 X-33.2542 Y10.9711 
G01 X-33.2542 Y10.4331 
G01 X-33.2798 Y10.2721 
G01 X-33.3301 Y10.1171 
G01 X-33.4041 Y9.9718  
G01 X-33.5000 Y9.8399  
G01 X-33.6153 Y9.7246  
G01 X-33.7471 Y9.6288  
G01 X-33.8511 Y9.5758  
G01 X-33.8511 Y9.4633  
G01 X-33.6946 Y9.5431  
G00 Z2.5400  
G00 X-35.4259 Y10.4253 
G01 Z-0.0350 F254   
G01 X-35.3980 Y10.2486 F508   
G01 X-35.3427 Y10.0786 
G01 X-35.2615 Y9.9193  
G01 X-35.1565 Y9.7746  
G01 X-35.0300 Y9.6482  
G01 X-34.8854 Y9.5431  
G01 X-34.7288 Y9.4633  
G01 X-34.7288 Y9.5758  
G01 X-34.8329 Y9.6288  
G01 X-34.9647 Y9.7246  
G01 X-35.0800 Y9.8399  
G01 X-35.1759 Y9.9718  
G01 X-35.2499 Y10.1171 
G01 X-35.3002 Y10.2721 
G01 X-35.3257 Y10.4331 
G01 X-35.3257 Y10.9711 
G01 X-35.4259 Y10.9711 
G01 X-35.4259 Y10.4253 
G00 Z2.5400  
G00 X-35.1565 Y13.0454 
G01 Z-0.0350 F254   
G01 X-35.2615 Y12.9007 F508   
G01 X-35.3427 Y12.7414 
G01 X-35.3980 Y12.5713 
G01 X-35.4259 Y12.3948 
G01 X-35.4259 Y11.8488 
G01 X-35.3257 Y11.8488 
G01 X-35.3257 Y12.3869 
G01 X-35.3002 Y12.5479 
G01 X-35.2499 Y12.7029 
G01 X-35.1759 Y12.8482 
G01 X-35.0800 Y12.9801 
G01 X-34.9647 Y13.0954 
G01 X-34.8329 Y13.1912 
G01 X-34.7288 Y13.2442 
G01 X-34.7288 Y13.3567 
G01 X-34.8854 Y13.2769 
G01 X-35.0300 Y13.1718 
G01 X-35.1565 Y13.0454 
G00 Z2.5400  
G00 X-26.9503 Y48.6308 
G01 Z-0.0350 F254   
G01 X-26.6034 Y48.4871 F508   
G01 X-26.2279 Y48.4871 
G01 X-25.8810 Y48.6308 
G01 X-25.6155 Y48.8963 
G01 X-25.4719 Y49.2432 
G01 X-25.4719 Y51.1267 
G01 X-25.6155 Y51.4736 
G01 X-25.8810 Y51.7391 
G01 X-26.2279 Y51.8827 
G01 X-26.6034 Y51.8827 
G01 X-26.9503 Y51.7391 
G01 X-27.2158 Y51.4736 
G01 X-27.3595 Y51.1267 
G01 X-27.3595 Y49.2432 
G01 X-27.2158 Y48.8963 
G01 X-26.9503 Y48.6308 
G00 Z2.5400  
G00 X-27.3101 Y49.3429 
G01 Z-0.0350 F254   
G01 X-27.3101 Y51.0270 F508   
G01 X-27.2757 Y51.1998 
G01 X-27.2083 Y51.3626 
G01 X-27.1104 Y51.5091 
G01 X-26.9858 Y51.6337 
G01 X-26.8393 Y51.7316 
G01 X-26.6766 Y51.7990 
G01 X-26.5038 Y51.8333 
G01 X-26.3276 Y51.8333 
G01 X-26.1548 Y51.7990 
G01 X-25.9920 Y51.7316 
G01 X-25.8455 Y51.6337 
G01 X-25.7209 Y51.5091 
G01 X-25.6231 Y51.3626 
G01 X-25.5556 Y51.1998 
G01 X-25.5213 Y51.0270 
G01 X-25.5213 Y49.3429 
G01 X-25.5556 Y49.1701 
G01 X-25.6231 Y49.0073 
G01 X-25.7209 Y48.8608 
G01 X-25.8455 Y48.7362 
G01 X-25.9920 Y48.6383 
G01 X-26.1548 Y48.5709 
G01 X-26.3276 Y48.5365 
G01 X-26.5038 Y48.5365 
G01 X-26.6766 Y48.5709 
G01 X-26.8393 Y48.6383 
G01 X-26.9858 Y48.7362 
G01 X-27.1104 Y48.8608 
G01 X-27.2083 Y49.0073 
G01 X-27.2757 Y49.1701 
G01 X-27.3101 Y49.3429 
G00 Z2.5400  
G00 X-24.8703 Y49.3527 
G01 Z-0.0350 F254   
G01 X-24.8458 Y49.1981 F508   
G01 X-24.7974 Y49.0491 
G01 X-24.7263 Y48.9097 
G01 X-24.6343 Y48.7830 
G01 X-24.5236 Y48.6723 
G01 X-24.3969 Y48.5803 
G01 X-24.2661 Y48.5136 
G01 X-24.2661 Y48.6246 
G01 X-24.2993 Y48.6383 
G01 X-24.4458 Y48.7362 
G01 X-24.5704 Y48.8608 
G01 X-24.6683 Y49.0073 
G01 X-24.7357 Y49.1701 
G01 X-24.7701 Y49.3429 
G01 X-24.7701 Y49.7945 
G01 X-24.8703 Y49.7945 
G01 X-24.8703 Y49.3527 
G00 Z2.5400  
G00 X-22.8811 Y51.0172 
G01 Z-0.0350 F254   
G01 X-22.9055 Y51.1718 F508   
G01 X-22.9539 Y51.3207 
G01 X-23.0250 Y51.4602 
G01 X-23.1170 Y51.5869 
G01 X-23.2277 Y51.6976 
G01 X-23.3544 Y51.7896 
G01 X-23.4853 Y51.8563 
G01 X-23.4853 Y51.7453 
G01 X-23.4520 Y51.7316 
G01 X-23.3055 Y51.6337 
G01 X-23.1809 Y51.5091 
G01 X-23.0831 Y51.3626 
G01 X-23.0156 Y51.1998 
G01 X-22.9813 Y51.0270 
G01 X-22.9813 Y50.5753 
G01 X-22.8811 Y50.5753 
G01 X-22.8811 Y51.0172 
G00 Z2.5400  
G00 X-23.1170 Y48.7830 
G01 Z-0.0350 F254   
G01 X-23.0250 Y48.9097 F508   
G01 X-22.9539 Y49.0491 
G01 X-22.9055 Y49.1981 
G01 X-22.8811 Y49.3527 
G01 X-22.8811 Y49.7945 
G01 X-22.9813 Y49.7945 
G01 X-22.9813 Y49.3429 
G01 X-23.0156 Y49.1701 
G01 X-23.0831 Y49.0073 
G01 X-23.1809 Y48.8608 
G01 X-23.3055 Y48.7362 
G01 X-23.4520 Y48.6383 
G01 X-23.4853 Y48.6246 
G01 X-23.4853 Y48.5136 
G01 X-23.3544 Y48.5803 
G01 X-23.2277 Y48.6723 
G01 X-23.1170 Y48.7830 
G00 Z2.5400  
G00 X-24.3969 Y51.7896 
G01 Z-0.0350 F254   
G01 X-24.5236 Y51.6976 F508   
G01 X-24.6343 Y51.5869 
G01 X-24.7263 Y51.4602 
G01 X-24.7974 Y51.3207 
G01 X-24.8458 Y51.1718 
G01 X-24.8703 Y51.0172 
G01 X-24.8703 Y50.5753 
G01 X-24.7701 Y50.5753 
G01 X-24.7701 Y51.0270 
G01 X-24.7357 Y51.1998 
G01 X-24.6683 Y51.3626 
G01 X-24.5704 Y51.5091 
G01 X-24.4458 Y51.6337 
G01 X-24.2993 Y51.7316 
G01 X-24.2661 Y51.7453 
G01 X-24.2661 Y51.8563 
G01 X-24.3969 Y51.7896 
G00 Z2.5400  
G00 X-21.4272 Y62.6562 
G01 Z-0.0350 F254   
G01 X-21.0915 Y62.6562 F508   
G01 X-20.7814 Y62.7847 
G01 X-20.5440 Y63.0220 
G01 X-20.4155 Y63.3322 
G01 X-20.4155 Y63.6678 
G01 X-20.5440 Y63.9780 
G01 X-20.7814 Y64.2153 
G01 X-21.0915 Y64.3438 
G01 X-21.4272 Y64.3438 
G01 X-21.7373 Y64.2153 
G01 X-21.9747 Y63.9780 
G01 X-22.1031 Y63.6678 
G01 X-22.1031 Y63.3322 
G01 X-21.9747 Y63.0220 
G01 X-21.7373 Y62.7847 
G01 X-21.4272 Y62.6562 
G00 Z2.5400  
G00 X-22.0537 Y63.4218 
G01 Z-0.0350 F254   
G01 X-22.0537 Y63.5782 F508   
G01 X-22.0232 Y63.7317 
G01 X-21.9633 Y63.8763 
G01 X-21.8764 Y64.0064 
G01 X-21.7658 Y64.1170 
G01 X-21.6356 Y64.2040 
G01 X-21.4911 Y64.2639 
G01 X-21.3376 Y64.2944 
G01 X-21.1811 Y64.2944 
G01 X-21.0276 Y64.2639 
G01 X-20.8831 Y64.2040 
G01 X-20.7529 Y64.1170 
G01 X-20.6423 Y64.0064 
G01 X-20.5554 Y63.8763 
G01 X-20.4955 Y63.7317 
G01 X-20.4650 Y63.5782 
G01 X-20.4650 Y63.4218 
G01 X-20.4955 Y63.2683 
G01 X-20.5554 Y63.1237 
G01 X-20.6423 Y62.9936 
G01 X-20.7529 Y62.8830 
G01 X-20.8831 Y62.7960 
G01 X-21.0276 Y62.7361 
G01 X-21.1811 Y62.7056 
G01 X-21.3376 Y62.7056 
G01 X-21.4911 Y62.7361 
G01 X-21.6356 Y62.7960 
G01 X-21.7658 Y62.8830 
G01 X-21.8764 Y62.9936 
G01 X-21.9633 Y63.1237 
G01 X-22.0232 Y63.2683 
G01 X-22.0537 Y63.4218 
G00 Z2.5400  
G00 X-23.9672 Y62.6562 
G01 Z-0.0350 F254   
G01 X-23.6315 Y62.6562 F508   
G01 X-23.3214 Y62.7847 
G01 X-23.0840 Y63.0220 
G01 X-22.9555 Y63.3322 
G01 X-22.9555 Y63.6678 
G01 X-23.0840 Y63.9780 
G01 X-23.3214 Y64.2153 
G01 X-23.6315 Y64.3438 
G01 X-23.9672 Y64.3438 
G01 X-24.2773 Y64.2153 
G01 X-24.5147 Y63.9780 
G01 X-24.6431 Y63.6678 
G01 X-24.6431 Y63.3322 
G01 X-24.5147 Y63.0220 
G01 X-24.2773 Y62.7847 
G01 X-23.9672 Y62.6562 
G00 Z2.5400  
G00 X-24.5937 Y63.4218 
G01 Z-0.0350 F254   
G01 X-24.5937 Y63.5782 F508   
G01 X-24.5632 Y63.7317 
G01 X-24.5033 Y63.8763 
G01 X-24.4164 Y64.0064 
G01 X-24.3057 Y64.1170 
G01 X-24.1756 Y64.2040 
G01 X-24.0311 Y64.2639 
G01 X-23.8776 Y64.2944 
G01 X-23.7211 Y64.2944 
G01 X-23.5676 Y64.2639 
G01 X-23.4231 Y64.2040 
G01 X-23.2929 Y64.1170 
G01 X-23.1823 Y64.0064 
G01 X-23.0954 Y63.8763 
G01 X-23.0355 Y63.7317 
G01 X-23.0050 Y63.5782 
G01 X-23.0050 Y63.4218 
G01 X-23.0355 Y63.2683 
G01 X-23.0954 Y63.1237 
G01 X-23.1823 Y62.9936 
G01 X-23.2929 Y62.8830 
G01 X-23.4231 Y62.7960 
G01 X-23.5676 Y62.7361 
G01 X-23.7211 Y62.7056 
G01 X-23.8776 Y62.7056 
G01 X-24.0311 Y62.7361 
G01 X-24.1756 Y62.7960 
G01 X-24.3057 Y62.8830 
G01 X-24.4164 Y62.9936 
G01 X-24.5033 Y63.1237 
G01 X-24.5632 Y63.2683 
G01 X-24.5937 Y63.4218 
G00 Z2.5400  
G00 X-26.5072 Y62.6562 
G01 Z-0.0350 F254   
G01 X-26.1715 Y62.6562 F508   
G01 X-25.8614 Y62.7847 
G01 X-25.6240 Y63.0220 
G01 X-25.4955 Y63.3322 
G01 X-25.4955 Y63.6678 
G01 X-25.6240 Y63.9780 
G01 X-25.8614 Y64.2153 
G01 X-26.1715 Y64.3438 
G01 X-26.5072 Y64.3438 
G01 X-26.8173 Y64.2153 
G01 X-27.0547 Y63.9780 
G01 X-27.1831 Y63.6678 
G01 X-27.1831 Y63.3322 
G01 X-27.0547 Y63.0220 
G01 X-26.8173 Y62.7847 
G01 X-26.5072 Y62.6562 
G00 Z2.5400  
G00 X-27.1337 Y63.4218 
G01 Z-0.0350 F254   
G01 X-27.1337 Y63.5782 F508   
G01 X-27.1032 Y63.7317 
G01 X-27.0433 Y63.8763 
G01 X-26.9564 Y64.0064 
G01 X-26.8458 Y64.1170 
G01 X-26.7156 Y64.2040 
G01 X-26.5711 Y64.2639 
G01 X-26.4176 Y64.2944 
G01 X-26.2611 Y64.2944 
G01 X-26.1076 Y64.2639 
G01 X-25.9631 Y64.2040 
G01 X-25.8329 Y64.1170 
G01 X-25.7223 Y64.0064 
G01 X-25.6354 Y63.8763 
G01 X-25.5755 Y63.7317 
G01 X-25.5450 Y63.5782 
G01 X-25.5450 Y63.4218 
G01 X-25.5755 Y63.2683 
G01 X-25.6354 Y63.1237 
G01 X-25.7223 Y62.9936 
G01 X-25.8329 Y62.8830 
G01 X-25.9631 Y62.7960 
G01 X-26.1076 Y62.7361 
G01 X-26.2611 Y62.7056 
G01 X-26.4176 Y62.7056 
G01 X-26.5711 Y62.7361 
G01 X-26.7156 Y62.7960 
G01 X-26.8458 Y62.8830 
G01 X-26.9564 Y62.9936 
G01 X-27.0433 Y63.1237 
G01 X-27.1032 Y63.2683 
G01 X-27.1337 Y63.4218 
G00 Z2.5400  
G00 X-29.7231 Y64.2326 
G01 Z-0.0350 F254   
G01 X-29.7231 Y62.7674 F508   
G01 X-29.6120 Y62.6562 
G01 X-28.1467 Y62.6562 
G01 X-28.0355 Y62.7674 
G01 X-28.0355 Y64.2326 
G01 X-28.1467 Y64.3438 
G01 X-29.6120 Y64.3438 
G01 X-29.7231 Y64.2326 
G00 Z2.5400  
G00 X-28.0850 Y64.1819 
G01 Z-0.0350 F254   
G01 X-28.0850 Y62.8181 F508   
G01 X-28.1063 Y62.7665 
G01 X-28.1458 Y62.7270 
G01 X-28.1974 Y62.7056 
G01 X-29.5613 Y62.7056 
G01 X-29.6129 Y62.7270 
G01 X-29.6524 Y62.7665 
G01 X-29.6737 Y62.8181 
G01 X-29.6737 Y64.1819 
G01 X-29.6524 Y64.2335 
G01 X-29.6129 Y64.2730 
G01 X-29.5613 Y64.2944 
G01 X-28.1974 Y64.2944 
G01 X-28.1458 Y64.2730 
G01 X-28.1063 Y64.2335 
G01 X-28.0850 Y64.1819 
G00 Z2.5400  
G00 X-38.6753 Y13.2253 
G01 Z-0.0350 F254   
G01 X-39.0741 Y13.3905 F508   
G01 X-39.5059 Y13.3905 
G01 X-39.9047 Y13.2253 
G01 X-40.2099 Y12.9200 
G01 X-40.3751 Y12.5212 
G01 X-40.3751 Y10.2988 
G01 X-40.2099 Y9.9000  
G01 X-39.9047 Y9.5947  
G01 X-39.5059 Y9.4295  
G01 X-39.0741 Y9.4295  
G01 X-38.6753 Y9.5947  
G01 X-38.3701 Y9.9000  
G01 X-38.2048 Y10.2988 
G01 X-38.2048 Y12.5212 
G01 X-38.3700 Y12.9200 
G01 X-38.6753 Y13.2253 
G00 Z2.5400  
G00 X-38.2542 Y12.3869 
G01 Z-0.0350 F254   
G01 X-38.2542 Y10.4331 F508   
G01 X-38.2798 Y10.2721 
G01 X-38.3301 Y10.1171 
G01 X-38.4041 Y9.9718  
G01 X-38.5000 Y9.8399  
G01 X-38.6153 Y9.7246  
G01 X-38.7471 Y9.6288  
G01 X-38.8924 Y9.5548  
G01 X-39.0475 Y9.5044  
G01 X-39.2085 Y9.4789  
G01 X-39.3715 Y9.4789  
G01 X-39.5325 Y9.5044  
G01 X-39.6876 Y9.5548  
G01 X-39.8329 Y9.6288  
G01 X-39.9647 Y9.7246  
G01 X-40.0800 Y9.8399  
G01 X-40.1759 Y9.9718  
G01 X-40.2499 Y10.1171 
G01 X-40.3002 Y10.2721 
G01 X-40.3257 Y10.4331 
G01 X-40.3257 Y12.3869 
G01 X-40.3002 Y12.5479 
G01 X-40.2499 Y12.7029 
G01 X-40.1759 Y12.8482 
G01 X-40.0800 Y12.9801 
G01 X-39.9647 Y13.0954 
G01 X-39.8329 Y13.1912 
G01 X-39.6876 Y13.2652 
G01 X-39.5325 Y13.3156 
G01 X-39.3715 Y13.3411 
G01 X-39.2085 Y13.3411 
G01 X-39.0475 Y13.3156 
G01 X-38.8924 Y13.2652 
G01 X-38.7471 Y13.1912 
G01 X-38.6153 Y13.0954 
G01 X-38.5000 Y12.9801 
G01 X-38.4041 Y12.8482 
G01 X-38.3301 Y12.7029 
G01 X-38.2798 Y12.5479 
G01 X-38.2542 Y12.3869 
G00 Z2.5400  
G00 X-6.0447 Y37.9659 
G01 Z-0.0350 F254   
G01 X-6.2214 Y37.9380 F508   
G01 X-6.3914 Y37.8827 
G01 X-6.5507 Y37.8015 
G01 X-6.6954 Y37.6965 
G01 X-6.8218 Y37.5700 
G01 X-6.9269 Y37.4254 
G01 X-7.0067 Y37.2688 
G01 X-6.8942 Y37.2688 
G01 X-6.8412 Y37.3728 
G01 X-6.7454 Y37.5047 
G01 X-6.6301 Y37.6200 
G01 X-6.4982 Y37.7159 
G01 X-6.3529 Y37.7899 
G01 X-6.1979 Y37.8402 
G01 X-6.0369 Y37.8657 
G01 X-5.4988 Y37.8657 
G01 X-5.4988 Y37.9659 
G01 X-6.0447 Y37.9659 
G00 Z2.5400  
G00 X-3.1931 Y37.4254 
G01 Z-0.0350 F254   
G01 X-3.2982 Y37.5700 F508   
G01 X-3.4246 Y37.6965 
G01 X-3.5693 Y37.8015 
G01 X-3.7286 Y37.8827 
G01 X-3.8986 Y37.9380 
G01 X-4.0753 Y37.9659 
G01 X-4.6211 Y37.9659 
G01 X-4.6211 Y37.8657 
G01 X-4.0831 Y37.8657 
G01 X-3.9221 Y37.8402 
G01 X-3.7671 Y37.7899 
G01 X-3.6218 Y37.7159 
G01 X-3.4899 Y37.6200 
G01 X-3.3746 Y37.5047 
G01 X-3.2788 Y37.3728 
G01 X-3.2258 Y37.2688 
G01 X-3.1133 Y37.2688 
G01 X-3.1931 Y37.4254 
G00 Z2.5400  
G00 X-4.0753 Y35.6940 
G01 Z-0.0350 F254   
G01 X-3.8986 Y35.7220 F508   
G01 X-3.7286 Y35.7773 
G01 X-3.5693 Y35.8584 
G01 X-3.4246 Y35.9635 
G01 X-3.2982 Y36.0900 
G01 X-3.1931 Y36.2346 
G01 X-3.1133 Y36.3911 
G01 X-3.2258 Y36.3911 
G01 X-3.2788 Y36.2871 
G01 X-3.3746 Y36.1553 
G01 X-3.4899 Y36.0400 
G01 X-3.6218 Y35.9441 
G01 X-3.7671 Y35.8701 
G01 X-3.9221 Y35.8198 
G01 X-4.0831 Y35.7943 
G01 X-4.6211 Y35.7943 
G01 X-4.6211 Y35.6940 
G01 X-4.0753 Y35.6940 
G00 Z2.5400  
G00 X-6.6954 Y35.9635 
G01 Z-0.0350 F254   
G01 X-6.5507 Y35.8584 F508   
G01 X-6.3914 Y35.7773 
G01 X-6.2213 Y35.7220 
G01 X-6.0447 Y35.6940 
G01 X-5.4988 Y35.6940 
G01 X-5.4988 Y35.7943 
G01 X-6.0369 Y35.7943 
G01 X-6.1979 Y35.8198 
G01 X-6.3529 Y35.8701 
G01 X-6.4982 Y35.9441 
G01 X-6.6301 Y36.0400 
G01 X-6.7454 Y36.1553 
G01 X-6.8412 Y36.2871 
G01 X-6.8942 Y36.3911 
G01 X-7.0067 Y36.3911 
G01 X-6.9269 Y36.2346 
G01 X-6.8218 Y36.0900 
G01 X-6.6954 Y35.9635 
G00 Z2.5400  
G00 X-13.4353 Y13.2253 
G01 Z-0.0350 F254   
G01 X-13.8341 Y13.3905 F508   
G01 X-14.2659 Y13.3905 
G01 X-14.6647 Y13.2253 
G01 X-14.9699 Y12.9200 
G01 X-15.1351 Y12.5212 
G01 X-15.1351 Y10.2988 
G01 X-14.9699 Y9.9000  
G01 X-14.6647 Y9.5947  
G01 X-14.2659 Y9.4295  
G01 X-13.8341 Y9.4295  
G01 X-13.4353 Y9.5947  
G01 X-13.1301 Y9.9000  
G01 X-12.9648 Y10.2988 
G01 X-12.9648 Y12.5212 
G01 X-13.1301 Y12.9200 
G01 X-13.4353 Y13.2253 
G00 Z2.5400  
G00 X-13.0143 Y12.3869 
G01 Z-0.0350 F254   
G01 X-13.0143 Y10.4331 F508   
G01 X-13.0398 Y10.2721 
G01 X-13.0901 Y10.1171 
G01 X-13.1641 Y9.9718  
G01 X-13.2600 Y9.8399  
G01 X-13.3753 Y9.7246  
G01 X-13.5071 Y9.6288  
G01 X-13.6524 Y9.5548  
G01 X-13.8075 Y9.5044  
G01 X-13.9685 Y9.4789  
G01 X-14.1315 Y9.4789  
G01 X-14.2925 Y9.5044  
G01 X-14.4476 Y9.5548  
G01 X-14.5929 Y9.6288  
G01 X-14.7247 Y9.7246  
G01 X-14.8400 Y9.8399  
G01 X-14.9359 Y9.9718  
G01 X-15.0099 Y10.1171 
G01 X-15.0602 Y10.2721 
G01 X-15.0857 Y10.4331 
G01 X-15.0857 Y12.3869 
G01 X-15.0602 Y12.5479 
G01 X-15.0099 Y12.7029 
G01 X-14.9359 Y12.8482 
G01 X-14.8400 Y12.9801 
G01 X-14.7247 Y13.0954 
G01 X-14.5929 Y13.1912 
G01 X-14.4476 Y13.2652 
G01 X-14.2925 Y13.3156 
G01 X-14.1315 Y13.3411 
G01 X-13.9685 Y13.3411 
G01 X-13.8075 Y13.3156 
G01 X-13.6524 Y13.2652 
G01 X-13.5071 Y13.1912 
G01 X-13.3753 Y13.0954 
G01 X-13.2600 Y12.9801 
G01 X-13.1641 Y12.8482 
G01 X-13.0901 Y12.7029 
G01 X-13.0398 Y12.5479 
G01 X-13.0143 Y12.3869 
G00 Z2.5400  
G00 X-69.1553 Y13.2253 
G01 Z-0.0350 F254   
G01 X-69.5541 Y13.3905 F508   
G01 X-69.9858 Y13.3905 
G01 X-70.3847 Y13.2253 
G01 X-70.6899 Y12.9200 
G01 X-70.8551 Y12.5212 
G01 X-70.8551 Y10.2988 
G01 X-70.6899 Y9.9000  
G01 X-70.3847 Y9.5947  
G01 X-69.9858 Y9.4295  
G01 X-69.5541 Y9.4295  
G01 X-69.1553 Y9.5947  
G01 X-68.8501 Y9.9000  
G01 X-68.6848 Y10.2988 
G01 X-68.6848 Y12.5212 
G01 X-68.8501 Y12.9200 
G01 X-69.1553 Y13.2253 
G00 Z2.5400  
G00 X-68.7343 Y12.3869 
G01 Z-0.0350 F254   
G01 X-68.7343 Y10.4331 F508   
G01 X-68.7598 Y10.2721 
G01 X-68.8101 Y10.1171 
G01 X-68.8841 Y9.9718  
G01 X-68.9800 Y9.8399  
G01 X-69.0953 Y9.7246  
G01 X-69.2271 Y9.6288  
G01 X-69.3724 Y9.5548  
G01 X-69.5275 Y9.5044  
G01 X-69.6885 Y9.4789  
G01 X-69.8515 Y9.4789  
G01 X-70.0125 Y9.5044  
G01 X-70.1676 Y9.5548  
G01 X-70.3128 Y9.6288  
G01 X-70.4447 Y9.7246  
G01 X-70.5600 Y9.8399  
G01 X-70.6559 Y9.9718  
G01 X-70.7299 Y10.1171 
G01 X-70.7802 Y10.2721 
G01 X-70.8057 Y10.4331 
G01 X-70.8057 Y12.3869 
G01 X-70.7802 Y12.5479 
G01 X-70.7299 Y12.7029 
G01 X-70.6559 Y12.8482 
G01 X-70.5600 Y12.9801 
G01 X-70.4447 Y13.0954 
G01 X-70.3128 Y13.1912 
G01 X-70.1676 Y13.2652 
G01 X-70.0125 Y13.3156 
G01 X-69.8515 Y13.3411 
G01 X-69.6885 Y13.3411 
G01 X-69.5275 Y13.3156 
G01 X-69.3724 Y13.2652 
G01 X-69.2271 Y13.1912 
G01 X-69.0953 Y13.0954 
G01 X-68.9800 Y12.9801 
G01 X-68.8841 Y12.8482 
G01 X-68.8101 Y12.7029 
G01 X-68.7598 Y12.5479 
G01 X-68.7343 Y12.3869 
G00 Z2.5400  
G00 X-80.1440 Y12.3947 
G01 Z-0.0350 F254   
G01 X-80.1720 Y12.5714 F508   
G01 X-80.2273 Y12.7414 
G01 X-80.3084 Y12.9007 
G01 X-80.4135 Y13.0454 
G01 X-80.5400 Y13.1718 
G01 X-80.6846 Y13.2769 
G01 X-80.8411 Y13.3567 
G01 X-80.8411 Y13.2442 
G01 X-80.7371 Y13.1912 
G01 X-80.6053 Y13.0954 
G01 X-80.4900 Y12.9801 
G01 X-80.3941 Y12.8482 
G01 X-80.3201 Y12.7029 
G01 X-80.2698 Y12.5479 
G01 X-80.2443 Y12.3869 
G01 X-80.2443 Y11.8488 
G01 X-80.1440 Y11.8488 
G01 X-80.1440 Y12.3947 
G00 Z2.5400  
G00 X-80.6846 Y9.5431  
G01 Z-0.0350 F254   
G01 X-80.5400 Y9.6482  F508   
G01 X-80.4135 Y9.7746  
G01 X-80.3084 Y9.9193  
G01 X-80.2273 Y10.0786 
G01 X-80.1720 Y10.2486 
G01 X-80.1440 Y10.4252 
G01 X-80.1440 Y10.9711 
G01 X-80.2443 Y10.9711 
G01 X-80.2443 Y10.4331 
G01 X-80.2698 Y10.2721 
G01 X-80.3201 Y10.1171 
G01 X-80.3941 Y9.9718  
G01 X-80.4900 Y9.8399  
G01 X-80.6053 Y9.7246  
G01 X-80.7371 Y9.6288  
G01 X-80.8411 Y9.5758  
G01 X-80.8411 Y9.4633  
G01 X-80.6846 Y9.5431  
G00 Z2.5400  
G00 X-82.4159 Y10.4253 
G01 Z-0.0350 F254   
G01 X-82.3880 Y10.2486 F508   
G01 X-82.3327 Y10.0786 
G01 X-82.2515 Y9.9193  
G01 X-82.1465 Y9.7746  
G01 X-82.0200 Y9.6482  
G01 X-81.8754 Y9.5431  
G01 X-81.7188 Y9.4633  
G01 X-81.7188 Y9.5758  
G01 X-81.8229 Y9.6288  
G01 X-81.9547 Y9.7246  
G01 X-82.0700 Y9.8399  
G01 X-82.1659 Y9.9718  
G01 X-82.2399 Y10.1171 
G01 X-82.2902 Y10.2721 
G01 X-82.3157 Y10.4331 
G01 X-82.3157 Y10.9711 
G01 X-82.4159 Y10.9711 
G01 X-82.4159 Y10.4253 
G00 Z2.5400  
G00 X-82.1465 Y13.0454 
G01 Z-0.0350 F254   
G01 X-82.2515 Y12.9007 F508   
G01 X-82.3327 Y12.7414 
G01 X-82.3880 Y12.5713 
G01 X-82.4159 Y12.3947 
G01 X-82.4159 Y11.8488 
G01 X-82.3157 Y11.8488 
G01 X-82.3157 Y12.3869 
G01 X-82.2902 Y12.5479 
G01 X-82.2399 Y12.7029 
G01 X-82.1659 Y12.8482 
G01 X-82.0700 Y12.9801 
G01 X-81.9547 Y13.0954 
G01 X-81.8229 Y13.1912 
G01 X-81.7188 Y13.2442 
G01 X-81.7188 Y13.3567 
G01 X-81.8754 Y13.2769 
G01 X-82.0200 Y13.1718 
G01 X-82.1465 Y13.0454 
G00 Z2.5400  
G00 X-93.4547 Y26.1353 
G01 Z-0.0350 F254   
G01 X-93.2895 Y26.5341 F508   
G01 X-93.2895 Y26.9658 
G01 X-93.4547 Y27.3647 
G01 X-93.7600 Y27.6699 
G01 X-94.1588 Y27.8351 
G01 X-96.3812 Y27.8351 
G01 X-96.7800 Y27.6699 
G01 X-97.0853 Y27.3647 
G01 X-97.2505 Y26.9658 
G01 X-97.2505 Y26.5341 
G01 X-97.0853 Y26.1353 
G01 X-96.7800 Y25.8300 
G01 X-96.3812 Y25.6648 
G01 X-94.1588 Y25.6648 
G01 X-93.7600 Y25.8300 
G01 X-93.4547 Y26.1353 
G00 Z2.5400  
G00 X-94.2931 Y25.7142 
G01 Z-0.0350 F254   
G01 X-96.2469 Y25.7142 F508   
G01 X-96.4079 Y25.7398 
G01 X-96.5629 Y25.7901 
G01 X-96.7082 Y25.8641 
G01 X-96.8401 Y25.9600 
G01 X-96.9554 Y26.0753 
G01 X-97.0512 Y26.2071 
G01 X-97.1252 Y26.3524 
G01 X-97.1756 Y26.5075 
G01 X-97.2011 Y26.6685 
G01 X-97.2011 Y26.8315 
G01 X-97.1756 Y26.9925 
G01 X-97.1252 Y27.1476 
G01 X-97.0512 Y27.2929 
G01 X-96.9554 Y27.4247 
G01 X-96.8401 Y27.5400 
G01 X-96.7082 Y27.6359 
G01 X-96.5629 Y27.7099 
G01 X-96.4079 Y27.7602 
G01 X-96.2469 Y27.7857 
G01 X-94.2931 Y27.7857 
G01 X-94.1321 Y27.7602 
G01 X-93.9771 Y27.7099 
G01 X-93.8318 Y27.6359 
G01 X-93.6999 Y27.5400 
G01 X-93.5846 Y27.4247 
G01 X-93.4888 Y27.2929 
G01 X-93.4148 Y27.1476 
G01 X-93.3644 Y26.9925 
G01 X-93.3389 Y26.8315 
G01 X-93.3389 Y26.6685 
G01 X-93.3644 Y26.5075 
G01 X-93.4148 Y26.3524 
G01 X-93.4888 Y26.2071 
G01 X-93.5846 Y26.0753 
G01 X-93.6999 Y25.9600 
G01 X-93.8318 Y25.8641 
G01 X-93.9771 Y25.7901 
G01 X-94.1321 Y25.7398 
G01 X-94.2931 Y25.7142 
G00 Z2.5400  
G00 X-93.4547 Y20.8953 
G01 Z-0.0350 F254   
G01 X-93.2895 Y21.2941 F508   
G01 X-93.2895 Y21.7259 
G01 X-93.4547 Y22.1247 
G01 X-93.7600 Y22.4299 
G01 X-94.1588 Y22.5951 
G01 X-96.3812 Y22.5951 
G01 X-96.7800 Y22.4299 
G01 X-97.0853 Y22.1247 
G01 X-97.2505 Y21.7259 
G01 X-97.2505 Y21.2941 
G01 X-97.0853 Y20.8953 
G01 X-96.7800 Y20.5901 
G01 X-96.3812 Y20.4248 
G01 X-94.1588 Y20.4248 
G01 X-93.7600 Y20.5901 
G01 X-93.4547 Y20.8953 
G00 Z2.5400  
G00 X-94.2931 Y20.4743 
G01 Z-0.0350 F254   
G01 X-96.2469 Y20.4743 F508   
G01 X-96.4079 Y20.4998 
G01 X-96.5629 Y20.5501 
G01 X-96.7082 Y20.6241 
G01 X-96.8401 Y20.7200 
G01 X-96.9554 Y20.8353 
G01 X-97.0512 Y20.9671 
G01 X-97.1252 Y21.1124 
G01 X-97.1756 Y21.2675 
G01 X-97.2011 Y21.4285 
G01 X-97.2011 Y21.5915 
G01 X-97.1756 Y21.7525 
G01 X-97.1252 Y21.9076 
G01 X-97.0512 Y22.0528 
G01 X-96.9554 Y22.1847 
G01 X-96.8401 Y22.3000 
G01 X-96.7082 Y22.3958 
G01 X-96.5629 Y22.4699 
G01 X-96.4079 Y22.5202 
G01 X-96.2469 Y22.5457 
G01 X-94.2931 Y22.5457 
G01 X-94.1321 Y22.5202 
G01 X-93.9771 Y22.4699 
G01 X-93.8318 Y22.3958 
G01 X-93.6999 Y22.3000 
G01 X-93.5846 Y22.1847 
G01 X-93.4888 Y22.0528 
G01 X-93.4148 Y21.9076 
G01 X-93.3644 Y21.7525 
G01 X-93.3389 Y21.5915 
G01 X-93.3389 Y21.4285 
G01 X-93.3644 Y21.2675 
G01 X-93.4148 Y21.1124 
G01 X-93.4888 Y20.9671 
G01 X-93.5846 Y20.8353 
G01 X-93.6999 Y20.7200 
G01 X-93.8318 Y20.6241 
G01 X-93.9771 Y20.5501 
G01 X-94.1321 Y20.4998 
G01 X-94.2931 Y20.4743 
G00 Z2.5400  
G00 X-48.3940 Y12.3947 
G01 Z-0.0350 F254   
G01 X-48.4220 Y12.5714 F508   
G01 X-48.4773 Y12.7414 
G01 X-48.5584 Y12.9007 
G01 X-48.6635 Y13.0454 
G01 X-48.7900 Y13.1718 
G01 X-48.9346 Y13.2769 
G01 X-49.0911 Y13.3567 
G01 X-49.0911 Y13.2442 
G01 X-48.9871 Y13.1912 
G01 X-48.8553 Y13.0954 
G01 X-48.7400 Y12.9801 
G01 X-48.6441 Y12.8482 
G01 X-48.5701 Y12.7029 
G01 X-48.5198 Y12.5479 
G01 X-48.4943 Y12.3869 
G01 X-48.4943 Y11.8488 
G01 X-48.3940 Y11.8488 
G01 X-48.3940 Y12.3947 
G00 Z2.5400  
G00 X-48.9346 Y9.5431  
G01 Z-0.0350 F254   
G01 X-48.7900 Y9.6482  F508   
G01 X-48.6635 Y9.7746  
G01 X-48.5584 Y9.9193  
G01 X-48.4773 Y10.0786 
G01 X-48.4220 Y10.2486 
G01 X-48.3940 Y10.4253 
G01 X-48.3940 Y10.9711 
G01 X-48.4943 Y10.9711 
G01 X-48.4943 Y10.4331 
G01 X-48.5198 Y10.2721 
G01 X-48.5701 Y10.1171 
G01 X-48.6441 Y9.9718  
G01 X-48.7400 Y9.8399  
G01 X-48.8553 Y9.7246  
G01 X-48.9871 Y9.6288  
G01 X-49.0911 Y9.5758  
G01 X-49.0911 Y9.4633  
G01 X-48.9346 Y9.5431  
G00 Z2.5400  
G00 X-50.6659 Y10.4253 
G01 Z-0.0350 F254   
G01 X-50.6380 Y10.2486 F508   
G01 X-50.5827 Y10.0786 
G01 X-50.5016 Y9.9193  
G01 X-50.3965 Y9.7746  
G01 X-50.2700 Y9.6482  
G01 X-50.1254 Y9.5431  
G01 X-49.9688 Y9.4633  
G01 X-49.9688 Y9.5758  
G01 X-50.0729 Y9.6288  
G01 X-50.2047 Y9.7246  
G01 X-50.3200 Y9.8399  
G01 X-50.4158 Y9.9718  
G01 X-50.4899 Y10.1171 
G01 X-50.5402 Y10.2721 
G01 X-50.5657 Y10.4331 
G01 X-50.5657 Y10.9711 
G01 X-50.6659 Y10.9711 
G01 X-50.6659 Y10.4253 
G00 Z2.5400  
G00 X-50.3965 Y13.0454 
G01 Z-0.0350 F254   
G01 X-50.5016 Y12.9007 F508   
G01 X-50.5827 Y12.7414 
G01 X-50.6380 Y12.5713 
G01 X-50.6659 Y12.3947 
G01 X-50.6659 Y11.8488 
G01 X-50.5657 Y11.8488 
G01 X-50.5657 Y12.3869 
G01 X-50.5402 Y12.5479 
G01 X-50.4899 Y12.7029 
G01 X-50.4158 Y12.8482 
G01 X-50.3200 Y12.9801 
G01 X-50.2047 Y13.0954 
G01 X-50.0729 Y13.1912 
G01 X-49.9688 Y13.2442 
G01 X-49.9688 Y13.3567 
G01 X-50.1254 Y13.2769 
G01 X-50.2700 Y13.1718 
G01 X-50.3965 Y13.0454 
G00 Z2.5400  
G00 X-0.9646 Y65.4976 
G01 Z-0.0350 F254   
G01 X-0.9646 Y65.4976 F508   
G01 X-0.9322 Y65.5063 
G01 X-0.8901 Y65.5175 
G01 X-0.8130 Y65.5175 
G01 X-0.7386 Y65.4976 
G01 X-0.6718 Y65.4590 
G01 X-0.6173 Y65.4045 
G01 X-0.5901 Y65.3574 
G01 X-0.5787 Y65.3377 
G01 X-0.5701 Y65.3053 
G01 X-0.5588 Y65.2633 
G01 X-0.5588 Y8.3966  
G01 X-0.5746 Y8.3375  
G01 X-0.5787 Y8.3221  
G01 X-0.5963 Y8.2916  
G01 X-0.6173 Y8.2553  
G01 X-0.6718 Y8.2008  
G01 X-0.7071 Y8.1805  
G01 X-0.7386 Y8.1623  
G01 X-0.7523 Y8.1586  
G01 X-0.8130 Y8.1423  
G01 X-0.8901 Y8.1423  
G01 X-0.9492 Y8.1581  
G01 X-0.9646 Y8.1623  
G01 X-0.9951 Y8.1799  
G01 X-1.0314 Y8.2008  
G01 X-1.0800 Y8.2495  
G01 X-1.6217 Y8.5622  
G01 X-2.2259 Y8.7241  
G01 X-2.8514 Y8.7241  
G01 X-3.4556 Y8.5622  
G01 X-3.9973 Y8.2494  
G01 X-4.4396 Y7.8071  
G01 X-4.7524 Y7.2654  
G01 X-4.9143 Y6.6612  
G01 X-4.9143 Y6.0357  
G01 X-4.7524 Y5.4315  
G01 X-4.6487 Y5.2520  
G01 X-4.6115 Y5.1876  
G01 X-4.5902 Y5.1107  
G01 X-4.5902 Y5.0336  
G01 X-4.6101 Y4.9592  
G01 X-4.6487 Y4.8924  
G01 X-4.7032 Y4.8379  
G01 X-4.7691 Y4.7998  
G01 X-4.8444 Y4.7794  
G01 X-95.4851 Y4.7794  
G01 X-95.5564 Y4.7985  
G01 X-95.5596 Y4.7993  
G01 X-95.6263 Y4.8379  
G01 X-95.6808 Y4.8924  
G01 X-95.7194 Y4.9592  
G01 X-95.7393 Y5.0336  
G01 X-95.7393 Y5.1107  
G01 X-95.7202 Y5.1820  
G01 X-95.7194 Y5.1852  
G01 X-95.6808 Y5.2520  
G01 X-95.5763 Y5.4331  
G01 X-95.4144 Y6.0372  
G01 X-95.4144 Y6.6627  
G01 X-95.5763 Y7.2669  
G01 X-95.8890 Y7.8087  
G01 X-96.3313 Y8.2510  
G01 X-96.8731 Y8.5637  
G01 X-97.4772 Y8.7256  
G01 X-98.1028 Y8.7256  
G01 X-98.7069 Y8.5637  
G01 X-99.0419 Y8.3703  
G01 X-99.1164 Y8.3503  
G01 X-99.1935 Y8.3503  
G01 X-99.2680 Y8.3703  
G01 X-99.3333 Y8.4080  
G01 X-99.3892 Y8.4634  
G01 X-99.4050 Y8.4907  
G01 X-99.4278 Y8.5301  
G01 X-99.4477 Y8.6046  
G01 X-99.4477 Y65.0554 
G01 X-99.4278 Y65.1299 
G01 X-99.4060 Y65.1676 
G01 X-99.3892 Y65.1966 
G01 X-99.3347 Y65.2511 
G01 X-99.2680 Y65.2897 
G01 X-99.1935 Y65.3096 
G01 X-99.1164 Y65.3096 
G01 X-99.0419 Y65.2897 
G01 X-98.7069 Y65.0963 
G01 X-98.1028 Y64.9344 
G01 X-97.4772 Y64.9344 
G01 X-96.8731 Y65.0963 
G01 X-96.3313 Y65.4090 
G01 X-95.8890 Y65.8513 
G01 X-95.5763 Y66.3931 
G01 X-95.4144 Y66.9972 
G01 X-95.4144 Y67.6227 
G01 X-95.5763 Y68.2269 
G01 X-95.8890 Y68.7687 
G01 X-96.3313 Y69.2110 
G01 X-96.6707 Y69.4069 
G01 X-96.7375 Y69.4454 
G01 X-96.7911 Y69.4991 
G01 X-96.8305 Y69.5667 
G01 X-96.8449 Y69.6204 
G01 X-96.8505 Y69.6412 
G01 X-96.8505 Y69.7183 
G01 X-96.8305 Y69.7927 
G01 X-96.7920 Y69.8595 
G01 X-96.7383 Y69.9132 
G01 X-96.6707 Y69.9526 
G01 X-96.6170 Y69.9669 
G01 X-96.5962 Y69.9725 
G01 X-71.5553 Y69.9725 
G01 X-71.4808 Y69.9526 
G01 X-71.4140 Y69.9140 
G01 X-71.4023 Y69.9023 
G01 X-53.5186 Y69.9023 
G01 X-53.5069 Y69.9140 
G01 X-53.4401 Y69.9526 
G01 X-53.3657 Y69.9725 
G01 X-3.7338 Y69.9725 
G01 X-3.7147 Y69.9674 
G01 X-3.6593 Y69.9526 
G01 X-3.5925 Y69.9140 
G01 X-3.5380 Y69.8595 
G01 X-3.4995 Y69.7927 
G01 X-3.4795 Y69.7183 
G01 X-3.4795 Y69.6412 
G01 X-3.4846 Y69.6221 
G01 X-3.4995 Y69.5667 
G01 X-3.5380 Y69.4999 
G01 X-3.5925 Y69.4454 
G01 X-3.6593 Y69.4069 
G01 X-3.9986 Y69.2110 
G01 X-4.4409 Y68.7687 
G01 X-4.7537 Y68.2269 
G01 X-4.9156 Y67.6227 
G01 X-4.9156 Y66.9972 
G01 X-4.7537 Y66.3931 
G01 X-4.4409 Y65.8513 
G01 X-3.9987 Y65.4090 
G01 X-3.4569 Y65.0963 
G01 X-2.8528 Y64.9344 
G01 X-2.2272 Y64.9344 
G01 X-1.6231 Y65.0963 
G01 X-1.0814 Y65.4090 
G01 X-1.0314 Y65.4590 
G01 X-0.9843 Y65.4862 
G01 X-0.9646 Y65.4976 
G00 Z2.5400  
G00 X-1.0136 Y65.6159 
G01 Z-0.0350 F254   
G01 X-1.0136 Y65.6159 F508   
G01 X-0.9069 Y65.6445 
G01 X-0.8388 Y65.6445 
G01 X-0.7963 Y65.6445 
G01 X-0.7476 Y65.6315 
G01 X-0.6896 Y65.6159 
G01 X-0.5938 Y65.5606 
G01 X-0.5157 Y65.4825 
G01 X-0.4828 Y65.4255 
G01 X-0.4604 Y65.3868 
G01 X-0.4318 Y65.2800 
G01 X-0.4318 Y65.2120 
G01 X-0.4318 Y65.1695 
G01 X-0.4318 Y8.4904  
G01 X-0.4318 Y8.4357  
G01 X-0.4318 Y8.3798  
G01 X-0.4604 Y8.2731  
G01 X-0.4882 Y8.2249  
G01 X-0.5157 Y8.1773  
G01 X-0.5938 Y8.0992  
G01 X-0.6895 Y8.0439  
G01 X-0.7668 Y8.0232  
G01 X-0.7963 Y8.0153  
G01 X-0.8510 Y8.0153  
G01 X-0.9069 Y8.0153  
G01 X-1.0136 Y8.0439  
G01 X-1.0618 Y8.0717  
G01 X-1.1094 Y8.0992  
G01 X-1.1580 Y8.1478  
G01 X-1.6707 Y8.4439  
G01 X-2.2426 Y8.5971  
G01 X-2.8347 Y8.5971  
G01 X-3.4066 Y8.4439  
G01 X-3.9193 Y8.1478  
G01 X-4.3380 Y7.7292  
G01 X-4.6340 Y7.2164  
G01 X-4.7873 Y6.6445  
G01 X-4.7873 Y6.0525  
G01 X-4.6340 Y5.4806  
G01 X-4.5471 Y5.3299  
G01 X-4.5183 Y5.2801  
G01 X-4.4918 Y5.2342  
G01 X-4.4632 Y5.1275  
G01 X-4.4632 Y5.0169  
G01 X-4.4906 Y4.9147  
G01 X-4.4918 Y4.9101  
G01 X-4.5471 Y4.8144  
G01 X-4.6252 Y4.7363  
G01 X-4.6851 Y4.7017  
G01 X-4.7209 Y4.6810  
G01 X-4.8277 Y4.6524  
G01 X-95.5018 Y4.6524  
G01 X-95.5064 Y4.6536  
G01 X-95.6086 Y4.6810  
G01 X-95.6428 Y4.7008  
G01 X-95.7043 Y4.7363  
G01 X-95.7825 Y4.8144  
G01 X-95.8031 Y4.8502  
G01 X-95.8377 Y4.9101  
G01 X-95.8600 Y4.9934  
G01 X-95.8663 Y5.0169  
G01 X-95.8663 Y5.1275  
G01 X-95.8651 Y5.1320  
G01 X-95.8377 Y5.2342  
G01 X-95.8140 Y5.2754  
G01 X-95.7825 Y5.3299  
G01 X-95.6946 Y5.4821  
G01 X-95.5414 Y6.0540  
G01 X-95.5414 Y6.6460  
G01 X-95.6946 Y7.2179  
G01 X-95.9907 Y7.7307  
G01 X-96.4093 Y8.1493  
G01 X-96.9221 Y8.4454  
G01 X-97.4940 Y8.5986  
G01 X-98.0860 Y8.5986  
G01 X-98.6579 Y8.4454  
G01 X-98.8972 Y8.3072  
G01 X-98.9510 Y8.2761  
G01 X-98.9929 Y8.2520  
G01 X-99.0997 Y8.2233  
G01 X-99.2102 Y8.2233  
G01 X-99.2376 Y8.2307  
G01 X-99.3170 Y8.2520  
G01 X-99.3587 Y8.2760  
G01 X-99.4127 Y8.3072  
G01 X-99.4909 Y8.3854  
G01 X-99.5255 Y8.4453  
G01 X-99.5461 Y8.4811  
G01 X-99.5747 Y8.5879  
G01 X-99.5747 Y65.0721 
G01 X-99.5461 Y65.1789 
G01 X-99.5263 Y65.2131 
G01 X-99.4909 Y65.2746 
G01 X-99.4127 Y65.3528 
G01 X-99.3562 Y65.3854 
G01 X-99.3170 Y65.4080 
G01 X-99.2400 Y65.4287 
G01 X-99.2102 Y65.4366 
G01 X-99.0997 Y65.4366 
G01 X-98.9929 Y65.4080 
G01 X-98.9528 Y65.3849 
G01 X-98.8972 Y65.3528 
G01 X-98.6579 Y65.2146 
G01 X-98.0860 Y65.0614 
G01 X-97.4940 Y65.0614 
G01 X-96.9221 Y65.2146 
G01 X-96.4093 Y65.5107 
G01 X-95.9907 Y65.9293 
G01 X-95.6946 Y66.4421 
G01 X-95.5414 Y67.0140 
G01 X-95.5414 Y67.6060 
G01 X-95.6946 Y68.1779 
G01 X-95.9907 Y68.6907 
G01 X-96.4093 Y69.1093 
G01 X-96.8154 Y69.3438 
G01 X-96.8936 Y69.4219 
G01 X-96.9080 Y69.4468 
G01 X-96.9489 Y69.5177 
G01 X-96.9775 Y69.6244 
G01 X-96.9775 Y69.7350 
G01 X-96.9656 Y69.7791 
G01 X-96.9489 Y69.8417 
G01 X-96.8936 Y69.9375 
G01 X-96.8154 Y70.0156 
G01 X-96.7906 Y70.0300 
G01 X-96.7197 Y70.0709 
G01 X-96.6129 Y70.0995 
G01 X-71.5386 Y70.0995 
G01 X-71.4318 Y70.0709 
G01 X-71.3597 Y70.0293 
G01 X-53.5612 Y70.0293 
G01 X-53.4892 Y70.0709 
G01 X-53.3824 Y70.0995 
G01 X-3.7170 Y70.0995 
G01 X-3.6103 Y70.0709 
G01 X-3.5410 Y70.0309 
G01 X-3.5146 Y70.0156 
G01 X-3.4364 Y69.9375 
G01 X-3.3811 Y69.8417 
G01 X-3.3649 Y69.7811 
G01 X-3.3525 Y69.7350 
G01 X-3.3525 Y69.6244 
G01 X-3.3811 Y69.5177 
G01 X-3.4211 Y69.4484 
G01 X-3.4364 Y69.4220 
G01 X-3.5146 Y69.3438 
G01 X-3.9207 Y69.1093 
G01 X-4.3393 Y68.6907 
G01 X-4.6354 Y68.1779 
G01 X-4.7886 Y67.6060 
G01 X-4.7886 Y67.0140 
G01 X-4.6354 Y66.4421 
G01 X-4.3393 Y65.9293 
G01 X-3.9207 Y65.5107 
G01 X-3.4079 Y65.2146 
G01 X-2.8360 Y65.0614 
G01 X-2.2440 Y65.0614 
G01 X-1.6721 Y65.2146 
G01 X-1.1593 Y65.5107 
G01 X-1.1094 Y65.5606 
G01 X-1.0523 Y65.5936 
G01 X-1.0136 Y65.6159 
G00 Z2.5400  
G00 X-1.1873 Y65.6623 
G01 Z-0.0350 F254   
G01 X-1.1873 Y65.6623 F508   
G01 X-1.1013 Y65.7119 
G01 X-1.0627 Y65.7343 
G01 X-0.9375 Y65.7678 
G01 X-0.9236 Y65.7715 
G01 X-0.8350 Y65.7715 
G01 X-0.7796 Y65.7715 
G01 X-0.6867 Y65.7466 
G01 X-0.6405 Y65.7343 
G01 X-0.5493 Y65.6816 
G01 X-0.5159 Y65.6623 
G01 X-0.4483 Y65.5947 
G01 X-0.4141 Y65.5605 
G01 X-0.3644 Y65.4744 
G01 X-0.3421 Y65.4358 
G01 X-0.3085 Y65.3107 
G01 X-0.3048 Y65.2967 
G01 X-0.3048 Y65.2081 
G01 X-0.3048 Y65.1528 
G01 X-0.3048 Y8.5071  
G01 X-0.3048 Y8.4359  
G01 X-0.3048 Y8.3631  
G01 X-0.3223 Y8.2977  
G01 X-0.3421 Y8.2241  
G01 X-0.3735 Y8.1695  
G01 X-0.4140 Y8.0994  
G01 X-0.4642 Y8.0492  
G01 X-0.5158 Y7.9976  
G01 X-0.5694 Y7.9666  
G01 X-0.6405 Y7.9256  
G01 X-0.7117 Y7.9065  
G01 X-0.7796 Y7.8883  
G01 X-0.8508 Y7.8883  
G01 X-0.9236 Y7.8883  
G01 X-0.9890 Y7.9058  
G01 X-1.0626 Y7.9256  
G01 X-1.1172 Y7.9570  
G01 X-1.1873 Y7.9976  
G01 X-1.2360 Y8.0462  
G01 X-1.7197 Y8.3255  
G01 X-2.2593 Y8.4701  
G01 X-2.8180 Y8.4701  
G01 X-3.3576 Y8.3255  
G01 X-3.8414 Y8.0462  
G01 X-4.2364 Y7.6512  
G01 X-4.5157 Y7.1674  
G01 X-4.6603 Y6.6278  
G01 X-4.6603 Y6.0692  
G01 X-4.5157 Y5.5296  
G01 X-4.3734 Y5.2832  
G01 X-4.3362 Y5.1442  
G01 X-4.3362 Y5.0002  
G01 X-4.3734 Y4.8611  
G01 X-4.4438 Y4.7392  
G01 X-4.4454 Y4.7364  
G01 X-4.5472 Y4.6346  
G01 X-4.6719 Y4.5626  
G01 X-4.8110 Y4.5254  
G01 X-95.5185 Y4.5254  
G01 X-95.5542 Y4.5349  
G01 X-95.6576 Y4.5626  
G01 X-95.7823 Y4.6346  
G01 X-95.8841 Y4.7364  
G01 X-95.9561 Y4.8611  
G01 X-95.9933 Y5.0002  
G01 X-95.9933 Y5.1442  
G01 X-95.9838 Y5.1798  
G01 X-95.9561 Y5.2832  
G01 X-95.8841 Y5.4079  
G01 X-95.8130 Y5.5311  
G01 X-95.6684 Y6.0707  
G01 X-95.6684 Y6.6293  
G01 X-95.8130 Y7.1689  
G01 X-96.0923 Y7.6527  
G01 X-96.4873 Y8.0477  
G01 X-96.9711 Y8.3270  
G01 X-97.5107 Y8.4716  
G01 X-98.0693 Y8.4716  
G01 X-98.6089 Y8.3270  
G01 X-98.8192 Y8.2056  
G01 X-98.9439 Y8.1336  
G01 X-99.0441 Y8.1068  
G01 X-99.0829 Y8.0963  
G01 X-99.2269 Y8.0963  
G01 X-99.3660 Y8.1336  
G01 X-99.4364 Y8.1743  
G01 X-99.4907 Y8.2056  
G01 X-99.5925 Y8.3074  
G01 X-99.6645 Y8.4321  
G01 X-99.6913 Y8.5323  
G01 X-99.7017 Y8.5712  
G01 X-99.7017 Y65.0888 
G01 X-99.6922 Y65.1245 
G01 X-99.6645 Y65.2279 
G01 X-99.5925 Y65.3526 
G01 X-99.4907 Y65.4544 
G01 X-99.4396 Y65.4839 
G01 X-99.3660 Y65.5264 
G01 X-99.2269 Y65.5636 
G01 X-99.0829 Y65.5636 
G01 X-99.0473 Y65.5541 
G01 X-98.9439 Y65.5264 
G01 X-98.8192 Y65.4544 
G01 X-98.6089 Y65.3330 
G01 X-98.0693 Y65.1884 
G01 X-97.5107 Y65.1884 
G01 X-96.9711 Y65.3330 
G01 X-96.4873 Y65.6123 
G01 X-96.0923 Y66.0073 
G01 X-95.8130 Y66.4911 
G01 X-95.6684 Y67.0307 
G01 X-95.6684 Y67.5893 
G01 X-95.8130 Y68.1289 
G01 X-96.0923 Y68.6127 
G01 X-96.4873 Y69.0077 
G01 X-96.7687 Y69.1702 
G01 X-96.8393 Y69.2109 
G01 X-96.8934 Y69.2422 
G01 X-96.9952 Y69.3440 
G01 X-97.0161 Y69.3801 
G01 X-97.0672 Y69.4687 
G01 X-97.0884 Y69.5477 
G01 X-97.1045 Y69.6077 
G01 X-97.1045 Y69.7517 
G01 X-97.0672 Y69.8908 
G01 X-97.0151 Y69.9810 
G01 X-96.9952 Y70.0155 
G01 X-96.8934 Y70.1173 
G01 X-96.8573 Y70.1381 
G01 X-96.7687 Y70.1893 
G01 X-96.6897 Y70.2104 
G01 X-96.6297 Y70.2265 
G01 X-71.5218 Y70.2265 
G01 X-71.3828 Y70.1893 
G01 X-71.3257 Y70.1563 
G01 X-53.5953 Y70.1563 
G01 X-53.5382 Y70.1893 
G01 X-53.3991 Y70.2265 
G01 X-3.7003 Y70.2265 
G01 X-3.6428 Y70.2111 
G01 X-3.5613 Y70.1893 
G01 X-3.4672 Y70.1350 
G01 X-3.4366 Y70.1173 
G01 X-3.3364 Y70.0170 
G01 X-3.3161 Y69.9830 
G01 X-3.2628 Y69.8908 
G01 X-3.2255 Y69.7517 
G01 X-3.2255 Y69.6077 
G01 X-3.2409 Y69.5502 
G01 X-3.2628 Y69.4687 
G01 X-3.3171 Y69.3746 
G01 X-3.3348 Y69.3440 
G01 X-3.4350 Y69.2438 
G01 X-3.4876 Y69.2127 
G01 X-3.5613 Y69.1702 
G01 X-3.8427 Y69.0077 
G01 X-4.2377 Y68.6127 
G01 X-4.5170 Y68.1289 
G01 X-4.6616 Y67.5893 
G01 X-4.6616 Y67.0307 
G01 X-4.5170 Y66.4911 
G01 X-4.2377 Y66.0073 
G01 X-3.8427 Y65.6123 
G01 X-3.3589 Y65.3330 
G01 X-2.8193 Y65.1884 
G01 X-2.2607 Y65.1884 
G01 X-1.7211 Y65.3330 
G01 X-1.2373 Y65.6123 
G01 X-1.2214 Y65.6282 
G01 X-1.1873 Y65.6623 
G00 Z2.5400  
G00 X-1.2811 Y65.7481 
G01 Z-0.0350 F254   
G01 X-1.2811 Y65.7481 F508   
G01 X-1.1707 Y65.8218 
G01 X-1.0625 Y65.8667 
G01 X-1.0481 Y65.8726 
G01 X-0.9349 Y65.8952 
G01 X-0.9180 Y65.8985 
G01 X-0.8362 Y65.8985 
G01 X-0.7852 Y65.8985 
G01 X-0.7034 Y65.8822 
G01 X-0.6551 Y65.8726 
G01 X-0.5553 Y65.8313 
G01 X-0.5324 Y65.8218 
G01 X-0.4221 Y65.7481 
G01 X-0.3492 Y65.6753 
G01 X-0.3282 Y65.6543 
G01 X-0.2545 Y65.5439 
G01 X-0.2096 Y65.4356 
G01 X-0.2037 Y65.4213 
G01 X-0.1812 Y65.3080 
G01 X-0.1778 Y65.2911 
G01 X-0.1778 Y65.2093 
G01 X-0.1778 Y65.1584 
G01 X-0.1778 Y8.5015  
G01 X-0.1778 Y8.4358  
G01 X-0.1778 Y8.3687  
G01 X-0.1860 Y8.3273  
G01 X-0.2037 Y8.2386  
G01 X-0.2157 Y8.2095  
G01 X-0.2545 Y8.1159  
G01 X-0.3282 Y8.0056  
G01 X-0.3744 Y7.9594  
G01 X-0.4221 Y7.9117  
G01 X-0.4760 Y7.8757  
G01 X-0.5324 Y7.8380  
G01 X-0.5760 Y7.8199  
G01 X-0.6550 Y7.7872  
G01 X-0.7327 Y7.7718  
G01 X-0.7852 Y7.7613  
G01 X-0.8509 Y7.7613  
G01 X-0.9180 Y7.7613  
G01 X-0.9594 Y7.7695  
G01 X-1.0481 Y7.7872  
G01 X-1.0772 Y7.7992  
G01 X-1.1707 Y7.8380  
G01 X-1.2811 Y7.9117  
G01 X-1.3140 Y7.9446  
G01 X-1.7688 Y8.2072  
G01 X-2.2761 Y8.3431  
G01 X-2.8012 Y8.3431  
G01 X-3.3085 Y8.2072  
G01 X-3.7634 Y7.9446  
G01 X-4.1347 Y7.5732  
G01 X-4.3973 Y7.1184  
G01 X-4.5333 Y6.6111  
G01 X-4.5333 Y6.0859  
G01 X-4.3973 Y5.5786  
G01 X-4.3105 Y5.4282  
G01 X-4.2859 Y5.3913  
G01 X-4.2774 Y5.3708  
G01 X-4.2663 Y5.3516  
G01 X-4.2520 Y5.3097  
G01 X-4.2351 Y5.2687  
G01 X-4.2307 Y5.2469  
G01 X-4.2236 Y5.2259  
G01 X-4.2178 Y5.1820  
G01 X-4.2092 Y5.1385  
G01 X-4.2092 Y5.1163  
G01 X-4.2063 Y5.0943  
G01 X-4.2092 Y5.0501  
G01 X-4.2092 Y5.0058  
G01 X-4.2135 Y4.9841  
G01 X-4.2150 Y4.9619  
G01 X-4.2264 Y4.9191  
G01 X-4.2351 Y4.8756  
G01 X-4.2436 Y4.8551  
G01 X-4.2493 Y4.8337  
G01 X-4.2689 Y4.7940  
G01 X-4.2859 Y4.7530  
G01 X-4.2982 Y4.7346  
G01 X-4.3080 Y4.7146  
G01 X-4.3350 Y4.6795  
G01 X-4.3596 Y4.6427  
G01 X-4.3753 Y4.6270  
G01 X-4.3888 Y4.6094  
G01 X-4.4221 Y4.5801  
G01 X-4.4535 Y4.5488  
G01 X-4.4719 Y4.5365  
G01 X-4.4886 Y4.5218  
G01 X-4.5270 Y4.4997  
G01 X-4.5638 Y4.4751  
G01 X-4.5843 Y4.4666  
G01 X-4.6035 Y4.4555  
G01 X-4.6455 Y4.4412  
G01 X-4.6864 Y4.4243  
G01 X-4.7082 Y4.4199  
G01 X-4.7292 Y4.4128  
G01 X-4.7731 Y4.4070  
G01 X-4.8166 Y4.3984  
G01 X-4.8388 Y4.3984  
G01 X-4.8608 Y4.3955  
G01 X-4.9050 Y4.3984  
G01 X-95.4245 Y4.3984  
G01 X-95.4687 Y4.3955  
G01 X-95.4907 Y4.3984  
G01 X-95.5129 Y4.3984  
G01 X-95.5564 Y4.4070  
G01 X-95.6003 Y4.4128  
G01 X-95.6213 Y4.4199  
G01 X-95.6431 Y4.4243  
G01 X-95.6840 Y4.4412  
G01 X-95.7260 Y4.4555  
G01 X-95.7452 Y4.4666  
G01 X-95.7657 Y4.4751  
G01 X-95.8026 Y4.4997  
G01 X-95.8409 Y4.5218  
G01 X-95.8576 Y4.5365  
G01 X-95.8761 Y4.5488  
G01 X-95.9074 Y4.5801  
G01 X-95.9407 Y4.6094  
G01 X-95.9542 Y4.6270  
G01 X-95.9699 Y4.6427  
G01 X-95.9945 Y4.6795  
G01 X-96.0215 Y4.7146  
G01 X-96.0313 Y4.7345  
G01 X-96.0437 Y4.7530  
G01 X-96.0606 Y4.7940  
G01 X-96.0802 Y4.8337  
G01 X-96.0860 Y4.8551  
G01 X-96.0945 Y4.8756  
G01 X-96.1031 Y4.9191  
G01 X-96.1146 Y4.9619  
G01 X-96.1160 Y4.9840  
G01 X-96.1203 Y5.0058  
G01 X-96.1203 Y5.0501  
G01 X-96.1232 Y5.0943  
G01 X-96.1203 Y5.1163  
G01 X-96.1203 Y5.1385  
G01 X-96.1117 Y5.1820  
G01 X-96.1059 Y5.2259  
G01 X-96.0988 Y5.2469  
G01 X-96.0945 Y5.2687  
G01 X-96.0775 Y5.3097  
G01 X-96.0633 Y5.3516  
G01 X-96.0522 Y5.3708  
G01 X-96.0437 Y5.3913  
G01 X-96.0190 Y5.4282  
G01 X-95.9313 Y5.5801  
G01 X-95.7954 Y6.0874  
G01 X-95.7954 Y6.6126  
G01 X-95.9313 Y7.1199  
G01 X-96.1939 Y7.5747  
G01 X-96.5653 Y7.9461  
G01 X-97.0201 Y8.2087  
G01 X-97.5274 Y8.3446  
G01 X-98.0526 Y8.3446  
G01 X-98.5599 Y8.2087  
G01 X-98.7989 Y8.0707  
G01 X-98.8358 Y8.0460  
G01 X-98.8563 Y8.0375  
G01 X-98.8755 Y8.0264  
G01 X-98.9174 Y8.0122  
G01 X-98.9584 Y7.9952  
G01 X-98.9802 Y7.9909  
G01 X-99.0012 Y7.9838  
G01 X-99.0451 Y7.9780  
G01 X-99.0886 Y7.9693  
G01 X-99.1108 Y7.9693  
G01 X-99.1328 Y7.9665  
G01 X-99.1770 Y7.9693  
G01 X-99.2213 Y7.9693  
G01 X-99.2431 Y7.9737  
G01 X-99.2652 Y7.9751  
G01 X-99.3080 Y7.9866  
G01 X-99.3515 Y7.9952  
G01 X-99.3720 Y8.0037  
G01 X-99.3934 Y8.0095  
G01 X-99.4331 Y8.0291  
G01 X-99.4741 Y8.0460  
G01 X-99.4926 Y8.0584  
G01 X-99.5125 Y8.0682  
G01 X-99.5476 Y8.0952  
G01 X-99.5845 Y8.1198  
G01 X-99.6002 Y8.1355  
G01 X-99.6178 Y8.1490  
G01 X-99.6470 Y8.1823  
G01 X-99.6783 Y8.2136  
G01 X-99.6906 Y8.2321  
G01 X-99.7053 Y8.2488  
G01 X-99.7274 Y8.2871  
G01 X-99.7521 Y8.3240  
G01 X-99.7606 Y8.3445  
G01 X-99.7716 Y8.3637  
G01 X-99.7859 Y8.4056  
G01 X-99.8028 Y8.4466  
G01 X-99.8072 Y8.4684  
G01 X-99.8143 Y8.4894  
G01 X-99.8201 Y8.5333  
G01 X-99.8287 Y8.5768  
G01 X-99.8287 Y8.5990  
G01 X-99.8316 Y8.6210  
G01 X-99.8287 Y8.6652  
G01 X-99.8287 Y64.9948 
G01 X-99.8316 Y65.0390 
G01 X-99.8287 Y65.0610 
G01 X-99.8287 Y65.0832 
G01 X-99.8201 Y65.1267 
G01 X-99.8143 Y65.1706 
G01 X-99.8072 Y65.1916 
G01 X-99.8028 Y65.2134 
G01 X-99.7859 Y65.2543 
G01 X-99.7716 Y65.2963 
G01 X-99.7606 Y65.3155 
G01 X-99.7521 Y65.3360 
G01 X-99.7274 Y65.3729 
G01 X-99.7053 Y65.4112 
G01 X-99.6906 Y65.4279 
G01 X-99.6783 Y65.4464 
G01 X-99.6470 Y65.4777 
G01 X-99.6178 Y65.5110 
G01 X-99.6002 Y65.5245 
G01 X-99.5845 Y65.5402 
G01 X-99.5476 Y65.5648 
G01 X-99.5125 Y65.5918 
G01 X-99.4926 Y65.6016 
G01 X-99.4741 Y65.6140 
G01 X-99.4331 Y65.6309 
G01 X-99.3934 Y65.6505 
G01 X-99.3720 Y65.6563 
G01 X-99.3515 Y65.6648 
G01 X-99.3080 Y65.6734 
G01 X-99.2652 Y65.6849 
G01 X-99.2431 Y65.6863 
G01 X-99.2213 Y65.6906 
G01 X-99.1770 Y65.6906 
G01 X-99.1328 Y65.6935 
G01 X-99.1108 Y65.6906 
G01 X-99.0886 Y65.6906 
G01 X-99.0451 Y65.6820 
G01 X-99.0012 Y65.6762 
G01 X-98.9802 Y65.6691 
G01 X-98.9584 Y65.6648 
G01 X-98.9174 Y65.6478 
G01 X-98.8755 Y65.6336 
G01 X-98.8563 Y65.6225 
G01 X-98.8358 Y65.6140 
G01 X-98.7989 Y65.5893 
G01 X-98.5599 Y65.4513 
G01 X-98.0526 Y65.3154 
G01 X-97.5274 Y65.3154 
G01 X-97.0201 Y65.4513 
G01 X-96.5653 Y65.7139 
G01 X-96.1939 Y66.0853 
G01 X-95.9313 Y66.5401 
G01 X-95.7954 Y67.0474 
G01 X-95.7954 Y67.5726 
G01 X-95.9313 Y68.0799 
G01 X-96.1939 Y68.5347 
G01 X-96.5653 Y68.9061 
G01 X-96.8563 Y69.0741 
G01 X-96.8768 Y69.0826 
G01 X-96.9137 Y69.1072 
G01 X-96.9520 Y69.1294 
G01 X-96.9687 Y69.1440 
G01 X-96.9872 Y69.1563 
G01 X-97.0185 Y69.1877 
G01 X-97.0518 Y69.2169 
G01 X-97.0653 Y69.2345 
G01 X-97.0811 Y69.2502 
G01 X-97.1057 Y69.2870 
G01 X-97.1326 Y69.3222 
G01 X-97.1425 Y69.3421 
G01 X-97.1548 Y69.3606 
G01 X-97.1717 Y69.4015 
G01 X-97.1913 Y69.4412 
G01 X-97.1971 Y69.4627 
G01 X-97.2056 Y69.4832 
G01 X-97.2142 Y69.5266 
G01 X-97.2257 Y69.5694 
G01 X-97.2271 Y69.5916 
G01 X-97.2315 Y69.6133 
G01 X-97.2315 Y69.6577 
G01 X-97.2344 Y69.7019 
G01 X-97.2315 Y69.7239 
G01 X-97.2315 Y69.7461 
G01 X-97.2228 Y69.7895 
G01 X-97.2171 Y69.8335 
G01 X-97.2099 Y69.8545 
G01 X-97.2056 Y69.8763 
G01 X-97.1886 Y69.9172 
G01 X-97.1744 Y69.9591 
G01 X-97.1633 Y69.9784 
G01 X-97.1548 Y69.9989 
G01 X-97.1302 Y70.0357 
G01 X-97.1080 Y70.0741 
G01 X-97.0934 Y70.0908 
G01 X-97.0811 Y70.1092 
G01 X-97.0497 Y70.1406 
G01 X-97.0205 Y70.1739 
G01 X-97.0029 Y70.1874 
G01 X-96.9872 Y70.2031 
G01 X-96.9504 Y70.2277 
G01 X-96.9152 Y70.2547 
G01 X-96.8953 Y70.2645 
G01 X-96.8768 Y70.2768 
G01 X-96.8359 Y70.2938 
G01 X-96.7962 Y70.3134 
G01 X-96.7747 Y70.3191 
G01 X-96.7542 Y70.3276 
G01 X-96.7108 Y70.3363 
G01 X-96.6680 Y70.3477 
G01 X-96.6458 Y70.3492 
G01 X-96.6240 Y70.3535 
G01 X-96.5797 Y70.3535 
G01 X-96.5355 Y70.3564 
G01 X-96.5135 Y70.3535 
G01 X-71.5275 Y70.3535 
G01 X-71.3973 Y70.3276 
G01 X-71.2903 Y70.2833 
G01 X-53.6307 Y70.2833 
G01 X-53.5237 Y70.3276 
G01 X-53.3935 Y70.3535 
G01 X-3.8165 Y70.3535 
G01 X-3.7945 Y70.3564 
G01 X-3.7503 Y70.3535 
G01 X-3.7060 Y70.3535 
G01 X-3.6842 Y70.3492 
G01 X-3.6620 Y70.3477 
G01 X-3.6192 Y70.3363 
G01 X-3.5758 Y70.3276 
G01 X-3.5553 Y70.3191 
G01 X-3.5338 Y70.3134 
G01 X-3.4941 Y70.2938 
G01 X-3.4532 Y70.2768 
G01 X-3.4347 Y70.2645 
G01 X-3.4148 Y70.2547 
G01 X-3.3796 Y70.2277 
G01 X-3.3428 Y70.2031 
G01 X-3.3271 Y70.1874 
G01 X-3.3095 Y70.1739 
G01 X-3.2803 Y70.1406 
G01 X-3.2489 Y70.1092 
G01 X-3.2366 Y70.0908 
G01 X-3.2220 Y70.0741 
G01 X-3.1998 Y70.0357 
G01 X-3.1752 Y69.9989 
G01 X-3.1667 Y69.9784 
G01 X-3.1556 Y69.9591 
G01 X-3.1414 Y69.9172 
G01 X-3.1244 Y69.8763 
G01 X-3.1201 Y69.8545 
G01 X-3.1129 Y69.8335 
G01 X-3.1072 Y69.7895 
G01 X-3.0985 Y69.7461 
G01 X-3.0985 Y69.7239 
G01 X-3.0956 Y69.7019 
G01 X-3.0985 Y69.6577 
G01 X-3.0985 Y69.6133 
G01 X-3.1029 Y69.5916 
G01 X-3.1043 Y69.5694 
G01 X-3.1158 Y69.5266 
G01 X-3.1244 Y69.4832 
G01 X-3.1329 Y69.4627 
G01 X-3.1387 Y69.4412 
G01 X-3.1582 Y69.4015 
G01 X-3.1752 Y69.3606 
G01 X-3.1875 Y69.3421 
G01 X-3.1974 Y69.3222 
G01 X-3.2243 Y69.2870 
G01 X-3.2489 Y69.2502 
G01 X-3.2646 Y69.2345 
G01 X-3.2782 Y69.2169 
G01 X-3.3115 Y69.1877 
G01 X-3.3428 Y69.1563 
G01 X-3.3613 Y69.1440 
G01 X-3.3780 Y69.1294 
G01 X-3.4163 Y69.1072 
G01 X-3.4532 Y69.0826 
G01 X-3.4737 Y69.0741 
G01 X-3.7647 Y68.9061 
G01 X-4.1361 Y68.5347 
G01 X-4.3987 Y68.0799 
G01 X-4.5346 Y67.5726 
G01 X-4.5346 Y67.0474 
G01 X-4.3987 Y66.5401 
G01 X-4.1361 Y66.0853 
G01 X-3.7647 Y65.7139 
G01 X-3.3099 Y65.4513 
G01 X-2.8026 Y65.3154 
G01 X-2.2774 Y65.3154 
G01 X-1.7701 Y65.4513 
G01 X-1.3153 Y65.7139 
G01 X-1.3053 Y65.7239 
G01 X-1.2811 Y65.7481 
G00 Z2.5400  
G00 X-1.3621 Y65.8467 
G01 Z-0.0350 F254   
G01 X-1.3621 Y65.8467 F508   
G01 X-1.2622 Y65.9135 
G01 X-1.2309 Y65.9344 
G01 X-1.1493 Y65.9682 
G01 X-1.0852 Y65.9947 
G01 X-0.9854 Y66.0146 
G01 X-0.9305 Y66.0255 
G01 X-0.8333 Y66.0255 
G01 X-0.7727 Y66.0255 
G01 X-0.7087 Y66.0128 
G01 X-0.6180 Y65.9948 
G01 X-0.5598 Y65.9706 
G01 X-0.4723 Y65.9344 
G01 X-0.3971 Y65.8841 
G01 X-0.3411 Y65.8468 
G01 X-0.2670 Y65.7727 
G01 X-0.2296 Y65.7352 
G01 X-0.1629 Y65.6354 
G01 X-0.1419 Y65.6041 
G01 X-0.1081 Y65.5225 
G01 X-0.0816 Y65.4583 
G01 X-0.0617 Y65.3585 
G01 X-0.0508 Y65.3036 
G01 X-0.0508 Y65.2064 
G01 X-0.0508 Y65.1459 
G01 X-0.0508 Y8.5140  
G01 X-0.0508 Y8.4360  
G01 X-0.0508 Y8.3562  
G01 X-0.0686 Y8.2665  
G01 X-0.0816 Y8.2015  
G01 X-0.1209 Y8.1066  
G01 X-0.1419 Y8.0558  
G01 X-0.1919 Y7.9810  
G01 X-0.2296 Y7.9246  
G01 X-0.3394 Y7.8148  
G01 X-0.4383 Y7.7481  
G01 X-0.4723 Y7.7255  
G01 X-0.5845 Y7.6790  
G01 X-0.6180 Y7.6651  
G01 X-0.7261 Y7.6436  
G01 X-0.7727 Y7.6343  
G01 X-0.8507 Y7.6343  
G01 X-0.9305 Y7.6343  
G01 X-1.0202 Y7.6522  
G01 X-1.0852 Y7.6651  
G01 X-1.1801 Y7.7044  
G01 X-1.2309 Y7.7255  
G01 X-1.3057 Y7.7754  
G01 X-1.3621 Y7.8131  
G01 X-1.3919 Y7.8430  
G01 X-1.8178 Y8.0888  
G01 X-2.2928 Y8.2161  
G01 X-2.7845 Y8.2161  
G01 X-3.2595 Y8.0888  
G01 X-3.6854 Y7.8429  
G01 X-4.0331 Y7.4952  
G01 X-4.2790 Y7.0694  
G01 X-4.4063 Y6.5944  
G01 X-4.4063 Y6.1026  
G01 X-4.2790 Y5.6276  
G01 X-4.2026 Y5.4953  
G01 X-4.1733 Y5.4515  
G01 X-4.1632 Y5.4271  
G01 X-4.1500 Y5.4043  
G01 X-4.1331 Y5.3544  
G01 X-4.1130 Y5.3058  
G01 X-4.1078 Y5.2799  
G01 X-4.0993 Y5.2549  
G01 X-4.0925 Y5.2027  
G01 X-4.0822 Y5.1511  
G01 X-4.0822 Y5.1247  
G01 X-4.0787 Y5.0985  
G01 X-4.0822 Y5.0460  
G01 X-4.0822 Y4.9933  
G01 X-4.0873 Y4.9674  
G01 X-4.0890 Y4.9411  
G01 X-4.1027 Y4.8902  
G01 X-4.1130 Y4.8386  
G01 X-4.1230 Y4.8142  
G01 X-4.1299 Y4.7887  
G01 X-4.1532 Y4.7415  
G01 X-4.1733 Y4.6929  
G01 X-4.1880 Y4.6709  
G01 X-4.1996 Y4.6473  
G01 X-4.2317 Y4.6055  
G01 X-4.2610 Y4.5617  
G01 X-4.2796 Y4.5431  
G01 X-4.2957 Y4.5221  
G01 X-4.3353 Y4.4874  
G01 X-4.3725 Y4.4502  
G01 X-4.3944 Y4.4355  
G01 X-4.4143 Y4.4181  
G01 X-4.4599 Y4.3918  
G01 X-4.5037 Y4.3625  
G01 X-4.5280 Y4.3524  
G01 X-4.5509 Y4.3392  
G01 X-4.6007 Y4.3223  
G01 X-4.6494 Y4.3022  
G01 X-4.6753 Y4.2970  
G01 X-4.7002 Y4.2885  
G01 X-4.7525 Y4.2817  
G01 X-4.8041 Y4.2714  
G01 X-4.8305 Y4.2714  
G01 X-4.8566 Y4.2679  
G01 X-4.9092 Y4.2714  
G01 X-95.4203 Y4.2714  
G01 X-95.4729 Y4.2679  
G01 X-95.4990 Y4.2714  
G01 X-95.5254 Y4.2714  
G01 X-95.5771 Y4.2817  
G01 X-95.6293 Y4.2885  
G01 X-95.6543 Y4.2970  
G01 X-95.6801 Y4.3022  
G01 X-95.7288 Y4.3223  
G01 X-95.7786 Y4.3392  
G01 X-95.8015 Y4.3524  
G01 X-95.8259 Y4.3625  
G01 X-95.8696 Y4.3918  
G01 X-95.9153 Y4.4181  
G01 X-95.9351 Y4.4355  
G01 X-95.9570 Y4.4502  
G01 X-95.9943 Y4.4874  
G01 X-96.0339 Y4.5221  
G01 X-96.0499 Y4.5430  
G01 X-96.0686 Y4.5617  
G01 X-96.0978 Y4.6055  
G01 X-96.1299 Y4.6473  
G01 X-96.1416 Y4.6709  
G01 X-96.1562 Y4.6929  
G01 X-96.1763 Y4.7415  
G01 X-96.1996 Y4.7887  
G01 X-96.2065 Y4.8142  
G01 X-96.2166 Y4.8386  
G01 X-96.2268 Y4.8902  
G01 X-96.2405 Y4.9411  
G01 X-96.2422 Y4.9674  
G01 X-96.2473 Y4.9933  
G01 X-96.2473 Y5.0460  
G01 X-96.2508 Y5.0985  
G01 X-96.2473 Y5.1247  
G01 X-96.2473 Y5.1511  
G01 X-96.2371 Y5.2027  
G01 X-96.2302 Y5.2549  
G01 X-96.2217 Y5.2799  
G01 X-96.2166 Y5.3058  
G01 X-96.1964 Y5.3544  
G01 X-96.1795 Y5.4043  
G01 X-96.1663 Y5.4271  
G01 X-96.1562 Y5.4515  
G01 X-96.1269 Y5.4953  
G01 X-96.0497 Y5.6291  
G01 X-95.9224 Y6.1041  
G01 X-95.9224 Y6.5959  
G01 X-96.0497 Y7.0709  
G01 X-96.2955 Y7.4967  
G01 X-96.6433 Y7.8444  
G01 X-97.0691 Y8.0903  
G01 X-97.5441 Y8.2176  
G01 X-98.0359 Y8.2176  
G01 X-98.5109 Y8.0903  
G01 X-98.7319 Y7.9627  
G01 X-98.7756 Y7.9335  
G01 X-98.8000 Y7.9234  
G01 X-98.8228 Y7.9102  
G01 X-98.8727 Y7.8933  
G01 X-98.9214 Y7.8731  
G01 X-98.9472 Y7.8680  
G01 X-98.9722 Y7.8595  
G01 X-99.0244 Y7.8526  
G01 X-99.0761 Y7.8423  
G01 X-99.1024 Y7.8423  
G01 X-99.1286 Y7.8389  
G01 X-99.1812 Y7.8423  
G01 X-99.2338 Y7.8423  
G01 X-99.2597 Y7.8475  
G01 X-99.2860 Y7.8492  
G01 X-99.3369 Y7.8629  
G01 X-99.3885 Y7.8731  
G01 X-99.4129 Y7.8832  
G01 X-99.4384 Y7.8900  
G01 X-99.4856 Y7.9133  
G01 X-99.5343 Y7.9335  
G01 X-99.5562 Y7.9481  
G01 X-99.5799 Y7.9598  
G01 X-99.6216 Y7.9919  
G01 X-99.6654 Y8.0211  
G01 X-99.6841 Y8.0398  
G01 X-99.7050 Y8.0558  
G01 X-99.7397 Y8.0954  
G01 X-99.7770 Y8.1327  
G01 X-99.7916 Y8.1546  
G01 X-99.8090 Y8.1744  
G01 X-99.8354 Y8.2201  
G01 X-99.8646 Y8.2638  
G01 X-99.8747 Y8.2882  
G01 X-99.8879 Y8.3110  
G01 X-99.9048 Y8.3609  
G01 X-99.9250 Y8.4096  
G01 X-99.9301 Y8.4354  
G01 X-99.9386 Y8.4604  
G01 X-99.9455 Y8.5126  
G01 X-99.9557 Y8.5643  
G01 X-99.9557 Y8.5907  
G01 X-99.9592 Y8.6168  
G01 X-99.9557 Y8.6694  
G01 X-99.9557 Y64.9906 
G01 X-99.9592 Y65.0432 
G01 X-99.9557 Y65.0693 
G01 X-99.9557 Y65.0957 
G01 X-99.9455 Y65.1474 
G01 X-99.9386 Y65.1996 
G01 X-99.9301 Y65.2246 
G01 X-99.9250 Y65.2504 
G01 X-99.9048 Y65.2991 
G01 X-99.8879 Y65.3490 
G01 X-99.8747 Y65.3718 
G01 X-99.8646 Y65.3962 
G01 X-99.8354 Y65.4399 
G01 X-99.8090 Y65.4856 
G01 X-99.7916 Y65.5054 
G01 X-99.7770 Y65.5273 
G01 X-99.7397 Y65.5645 
G01 X-99.7050 Y65.6042 
G01 X-99.6841 Y65.6202 
G01 X-99.6654 Y65.6389 
G01 X-99.6216 Y65.6681 
G01 X-99.5799 Y65.7002 
G01 X-99.5562 Y65.7118 
G01 X-99.5343 Y65.7265 
G01 X-99.4856 Y65.7467 
G01 X-99.4384 Y65.7700 
G01 X-99.4129 Y65.7768 
G01 X-99.3885 Y65.7869 
G01 X-99.3369 Y65.7971 
G01 X-99.2860 Y65.8108 
G01 X-99.2597 Y65.8125 
G01 X-99.2338 Y65.8176 
G01 X-99.1812 Y65.8176 
G01 X-99.1286 Y65.8211 
G01 X-99.1024 Y65.8176 
G01 X-99.0761 Y65.8176 
G01 X-99.0244 Y65.8074 
G01 X-98.9722 Y65.8005 
G01 X-98.9472 Y65.7920 
G01 X-98.9214 Y65.7869 
G01 X-98.8727 Y65.7667 
G01 X-98.8228 Y65.7498 
G01 X-98.8000 Y65.7366 
G01 X-98.7756 Y65.7265 
G01 X-98.7319 Y65.6973 
G01 X-98.5109 Y65.5697 
G01 X-98.0359 Y65.4424 
G01 X-97.5441 Y65.4424 
G01 X-97.0691 Y65.5697 
G01 X-96.6433 Y65.8155 
G01 X-96.2955 Y66.1633 
G01 X-96.0497 Y66.5891 
G01 X-95.9224 Y67.0641 
G01 X-95.9224 Y67.5559 
G01 X-96.0497 Y68.0309 
G01 X-96.2955 Y68.4567 
G01 X-96.6433 Y68.8044 
G01 X-96.9126 Y68.9600 
G01 X-96.9370 Y68.9701 
G01 X-96.9808 Y68.9993 
G01 X-97.0264 Y69.0256 
G01 X-97.0462 Y69.0430 
G01 X-97.0682 Y69.0577 
G01 X-97.1054 Y69.0949 
G01 X-97.1450 Y69.1296 
G01 X-97.1610 Y69.1506 
G01 X-97.1797 Y69.1692 
G01 X-97.2089 Y69.2130 
G01 X-97.2410 Y69.2548 
G01 X-97.2527 Y69.2785 
G01 X-97.2673 Y69.3004 
G01 X-97.2875 Y69.3490 
G01 X-97.3108 Y69.3963 
G01 X-97.3176 Y69.4218 
G01 X-97.3277 Y69.4461 
G01 X-97.3380 Y69.4978 
G01 X-97.3516 Y69.5486 
G01 X-97.3533 Y69.5750 
G01 X-97.3585 Y69.6008 
G01 X-97.3585 Y69.6535 
G01 X-97.3619 Y69.7060 
G01 X-97.3585 Y69.7322 
G01 X-97.3585 Y69.7586 
G01 X-97.3482 Y69.8102 
G01 X-97.3413 Y69.8624 
G01 X-97.3328 Y69.8874 
G01 X-97.3277 Y69.9133 
G01 X-97.3076 Y69.9619 
G01 X-97.2906 Y70.0118 
G01 X-97.2774 Y70.0347 
G01 X-97.2673 Y70.0590 
G01 X-97.2381 Y70.1028 
G01 X-97.2118 Y70.1484 
G01 X-97.1944 Y70.1683 
G01 X-97.1797 Y70.1902 
G01 X-97.1425 Y70.2274 
G01 X-97.1078 Y70.2670 
G01 X-97.0868 Y70.2831 
G01 X-97.0682 Y70.3017 
G01 X-97.0244 Y70.3310 
G01 X-96.9826 Y70.3630 
G01 X-96.9589 Y70.3747 
G01 X-96.9370 Y70.3894 
G01 X-96.8884 Y70.4095 
G01 X-96.8411 Y70.4328 
G01 X-96.8156 Y70.4396 
G01 X-96.7913 Y70.4497 
G01 X-96.7396 Y70.4600 
G01 X-96.6888 Y70.4736 
G01 X-96.6624 Y70.4754 
G01 X-96.6365 Y70.4805 
G01 X-96.5839 Y70.4805 
G01 X-96.5314 Y70.4840 
G01 X-96.5052 Y70.4805 
G01 X-71.5150 Y70.4805 
G01 X-71.3602 Y70.4497 
G01 X-71.2650 Y70.4103 
G01 X-53.6560 Y70.4103 
G01 X-53.5607 Y70.4497 
G01 X-53.4060 Y70.4805 
G01 X-3.8248 Y70.4805 
G01 X-3.7986 Y70.4840 
G01 X-3.7461 Y70.4805 
G01 X-3.6934 Y70.4805 
G01 X-3.6676 Y70.4754 
G01 X-3.6412 Y70.4736 
G01 X-3.5904 Y70.4600 
G01 X-3.5387 Y70.4497 
G01 X-3.5144 Y70.4396 
G01 X-3.4889 Y70.4328 
G01 X-3.4416 Y70.4095 
G01 X-3.3930 Y70.3894 
G01 X-3.3711 Y70.3747 
G01 X-3.3474 Y70.3630 
G01 X-3.3056 Y70.3310 
G01 X-3.2618 Y70.3017 
G01 X-3.2432 Y70.2831 
G01 X-3.2222 Y70.2670 
G01 X-3.1875 Y70.2274 
G01 X-3.1503 Y70.1902 
G01 X-3.1356 Y70.1683 
G01 X-3.1182 Y70.1484 
G01 X-3.0919 Y70.1028 
G01 X-3.0627 Y70.0590 
G01 X-3.0526 Y70.0347 
G01 X-3.0394 Y70.0118 
G01 X-3.0224 Y69.9619 
G01 X-3.0023 Y69.9133 
G01 X-2.9971 Y69.8874 
G01 X-2.9887 Y69.8624 
G01 X-2.9818 Y69.8102 
G01 X-2.9715 Y69.7586 
G01 X-2.9715 Y69.7322 
G01 X-2.9681 Y69.7060 
G01 X-2.9715 Y69.6535 
G01 X-2.9715 Y69.6008 
G01 X-2.9767 Y69.5750 
G01 X-2.9784 Y69.5486 
G01 X-2.9920 Y69.4978 
G01 X-3.0023 Y69.4461 
G01 X-3.0124 Y69.4218 
G01 X-3.0192 Y69.3963 
G01 X-3.0425 Y69.3490 
G01 X-3.0627 Y69.3004 
G01 X-3.0773 Y69.2785 
G01 X-3.0890 Y69.2548 
G01 X-3.1211 Y69.2130 
G01 X-3.1503 Y69.1692 
G01 X-3.1690 Y69.1506 
G01 X-3.1850 Y69.1296 
G01 X-3.2246 Y69.0949 
G01 X-3.2618 Y69.0577 
G01 X-3.2838 Y69.0430 
G01 X-3.3036 Y69.0256 
G01 X-3.3492 Y68.9993 
G01 X-3.3930 Y68.9701 
G01 X-3.4174 Y68.9600 
G01 X-3.6867 Y68.8044 
G01 X-4.0344 Y68.4567 
G01 X-4.2803 Y68.0309 
G01 X-4.4076 Y67.5559 
G01 X-4.4076 Y67.0641 
G01 X-4.2803 Y66.5891 
G01 X-4.0344 Y66.1633 
G01 X-3.6867 Y65.8155 
G01 X-3.2609 Y65.5697 
G01 X-2.7859 Y65.4424 
G01 X-2.2941 Y65.4424 
G01 X-1.8191 Y65.5697 
G01 X-1.3933 Y65.8155 
G01 X-1.3621 Y65.8467 
G00 Z2.5400  
G82 X-2.5400 Y67.3100 Z-0.0350 F254   R2.5400  P1.000000
G82 X-97.7900 Y67.3100 
G82 X-97.7900 Y6.3500  
G82 X-2.5387 Y6.3485  
G82 X-82.9071 Y62.8471 
G82 X-59.7700 Y11.4100 
G82 X-64.7700 Y11.4100 
G82 X-69.7700 Y11.4100 
G82 X-23.8757 Y50.1849 
G82 X-26.4157 Y50.1849 
G82 X-29.2900 Y11.4100 
G82 X-34.2900 Y11.4100 
G82 X-39.2900 Y11.4100 
G82 X-5.0600 Y41.8300 
G82 X-5.0600 Y36.8300 
G82 X-5.0600 Y31.8300 
G82 X-5.0600 Y26.5900 
G82 X-5.0600 Y21.5900 
G82 X-5.0600 Y16.5900 
G82 X-14.0500 Y11.4100 
G82 X-19.0500 Y11.4100 
G82 X-24.0500 Y11.4100 
G82 X-76.2800 Y11.4100 
G82 X-81.2800 Y11.4100 
G82 X-86.2800 Y11.4100 
G82 X-95.2700 Y41.9900 
G82 X-95.2700 Y46.9900 
G82 X-95.2700 Y51.9900 
G82 X-95.2700 Y26.7500 
G82 X-95.2700 Y31.7500 
G82 X-95.2700 Y36.7500 
G82 X-95.2700 Y11.5100 
G82 X-95.2700 Y16.5100 
G82 X-95.2700 Y21.5100 
G82 X-44.5300 Y11.4100 
G82 X-49.5300 Y11.4100 
G82 X-54.5300 Y11.4100 
G82 X-28.8794 Y63.5000 
G82 X-26.3393 Y63.5000 
G82 X-23.7994 Y63.5000 
G82 X-21.2594 Y63.5000 
G82 X-39.4378 Y56.8179 
G82 X-39.4378 Y57.9179 
G00 Z12.7000 
M05
M02
