(.../pcb-gcode-3.6.0.4/pcb-gcode.ulp)
(Copyright 2005 - 2012 by John Johnson)
(See readme.txt for licensing terms.)
(This file generated from the board:)
(.../gits_go_here/ESPlash/pcb/1.0/esplash.brd)
(Current profile is .../pcb-gcode-3.6.0.4/profiles/mach.pp  )
(This file generated 03/05/2021 14:58)
(Settings from pcb-machine.h)
(  Tool Size)
(0.2300  )
(Z Axis Settings)
(  High     Up        Down     Drill)
(12.7000 	2.5400  	-0.0350 	-1.8000 )
(spindle on time = 1.0000)
(milling depth = -1.7000)
(text depth = -0.0350)
(tool change at 12.7000 15.2400 25.4000 )
(feed rate xy = F508   )
(feed rate z  = F254   )
(Settings from pcb-defaults.h)
(isolate min = 0.0254)
(isolate max = 0.5080)
(isolate step = 0.1270)
(Generated top outlines, top drill, bottom outlines, )
(Unit of measure: mm)
( Tool|       Size       |  Min Sub |  Max Sub |   Count )
( T01 | 0.350mm 0.0138in | 0.0000in | 0.0000in |       0 )
( T02 | 0.460mm 0.0181in | 0.0000in | 0.0000in |       0 )
( T03 | 0.800mm 0.0315in | 0.0000in | 0.0000in |       0 )
( T04 | 1.000mm 0.0394in | 0.0000in | 0.0000in |       0 )
( T05 | 1.194mm 0.0470in | 0.0000in | 0.0000in |       0 )
( T06 | 3.000mm 0.1181in | 0.0000in | 0.0000in |       0 )
(Metric Mode)
G21
(Absolute Coordinates)
G90
M05
G00 Z25.4000 
G00 X12.7000 Y15.2400 
M06 T01  ; 0.3500  
G01 Z0.0000  F254   
M06 T01  ; 0.3500  
G00 Z2.5400  
M03
G04 P1.000000
G82 X82.9071 Y62.8471 Z-1.8000 F254   R2.5400  P1.000000
M05
G00 Z25.4000 
M06 T02  ; 0.4600  
G01 Z0.0000  F254   
M06 T02  ; 0.4600  
G00 Z2.5400  
M03
G04 P1.000000
G82 X39.4378 Y56.8179 Z-1.8000 F254   R2.5400  P1.000000
G82 X39.4378 Y57.9179 
M05
G00 Z25.4000 
M06 T03  ; 0.8000  
G01 Z0.0000  F254   
M06 T03  ; 0.8000  
G00 Z2.5400  
M03
G04 P1.000000
G82 X21.2594 Y63.5000 Z-1.8000 F254   R2.5400  P1.000000
G82 X23.7994 Y63.5000 
G82 X26.3393 Y63.5000 
G82 X28.8794 Y63.5000 
M05
G00 Z25.4000 
M06 T04  ; 1.0000  
G01 Z0.0000  F254   
M06 T04  ; 1.0000  
G00 Z2.5400  
M03
G04 P1.000000
G82 X23.8757 Y50.1849 Z-1.8000 F254   R2.5400  P1.000000
G82 X26.4157 Y50.1849 
M05
G00 Z25.4000 
M06 T05  ; 1.1938  
G01 Z0.0000  F254   
M06 T05  ; 1.1938  
G00 Z2.5400  
M03
G04 P1.000000
G82 X34.2900 Y11.4100 Z-1.8000 F254   R2.5400  P1.000000
G82 X39.2900 Y11.4100 
G82 X44.5300 Y11.4100 
G82 X49.5300 Y11.4100 
G82 X5.0600  Y31.8300 
G82 X5.0600  Y36.8300 
G82 X5.0600  Y41.8300 
G82 X5.0600  Y16.5900 
G82 X5.0600  Y21.5900 
G82 X5.0600  Y26.5900 
G82 X54.5300 Y11.4100 
G82 X59.7700 Y11.4100 
G82 X64.7700 Y11.4100 
G82 X69.7700 Y11.4100 
G82 X76.2800 Y11.4100 
G82 X81.2800 Y11.4100 
G82 X86.2800 Y11.4100 
G82 X95.2700 Y31.7500 
G82 X95.2700 Y36.7500 
G82 X95.2700 Y41.9900 
G82 X95.2700 Y46.9900 
G82 X95.2700 Y51.9900 
G82 X95.2700 Y11.5100 
G82 X95.2700 Y16.5100 
G82 X95.2700 Y21.5100 
G82 X95.2700 Y26.7500 
G82 X14.0500 Y11.4100 
G82 X19.0500 Y11.4100 
G82 X24.0500 Y11.4100 
G82 X29.2900 Y11.4100 
M05
G00 Z25.4000 
M06 T06  ; 3.0000  
G01 Z0.0000  F254   
M06 T06  ; 3.0000  
G00 Z2.5400  
M03
G04 P1.000000
G82 X97.7900 Y6.3500  Z-1.8000 F254   R2.5400  P1.000000
G82 X97.7900 Y67.3100 
G82 X2.5387  Y6.3485  
G82 X2.5400  Y67.3100 
T01 
G00 Z12.7000 
M05
M02
