(.../pcb-gcode-3.6.0.4/pcb-gcode.ulp)
(Copyright 2005 - 2012 by John Johnson)
(See readme.txt for licensing terms.)
(This file generated from the board:)
(.../gits_go_here/ESPlash/pcb/1.0/esplash.brd)
(Current profile is .../pcb-gcode-3.6.0.4/profiles/mach.pp  )
(This file generated 02/05/2021 19:57)
(Settings from pcb-machine.h)
(  Tool Size)
(0.2300  )
(Z Axis Settings)
(  High     Up        Down     Drill)
(12.7000 	2.5400  	-0.0350 	-1.8000 )
(spindle on time = 1.0000)
(milling depth = -1.7000)
(text depth = -0.0350)
(tool change at 12.7000 15.2400 25.4000 )
(feed rate xy = F508   )
(feed rate z  = F254   )
(Settings from pcb-defaults.h)
(isolate min = 0.0254)
(isolate max = 0.5080)
(isolate step = 0.1270)
(Generated top outlines, top drill, bottom outlines, )
(Unit of measure: mm)
(Metric Mode)
G21
(Absolute Coordinates)
G90
G00 X0.0000  Y0.0000  
M03
G04 P1.000000
G00 Z2.5400  
G00 X79.9536 Y39.8519 
G01 Z-0.0350 F254   
G01 X79.9391 Y39.8170 F508   
G01 X79.9391 Y38.1611 
G01 X79.9605 Y38.1095 
G01 X79.9999 Y38.0700 
G01 X80.0515 Y38.0486 
G01 X80.6882 Y38.0486 
G01 X80.6882 Y34.9028 
G01 X80.4577 Y34.9028 
G01 X80.4061 Y34.8814 
G01 X80.3666 Y34.8419 
G01 X80.3452 Y34.7903 
G01 X80.3452 Y33.3780 
G01 X76.6225 Y37.1007 
G01 X76.6225 Y53.1536 
G01 X76.6025 Y53.2281 
G01 X76.5640 Y53.2949 
G01 X76.5095 Y53.3494 
G01 X72.7927 Y57.0662 
G01 X72.7259 Y57.1047 
G01 X72.6514 Y57.1247 
G01 X72.6009 Y57.1247 
G01 X72.6009 Y57.3598 
G01 X72.5795 Y57.4114 
G01 X72.5400 Y57.4509 
G01 X72.5014 Y57.4669 
G01 X72.5400 Y57.4829 
G01 X72.5795 Y57.5224 
G01 X72.6009 Y57.5740 
G01 X72.6009 Y57.8091 
G01 X74.3500 Y57.8091 
G01 X78.1125 Y54.0466 
G01 X78.1125 Y40.1062 
G01 X78.1324 Y40.0317 
G01 X78.1710 Y39.9649 
G01 X78.2255 Y39.9104 
G01 X78.2923 Y39.8719 
G01 X78.3667 Y39.8519 
G01 X78.4438 Y39.8519 
G01 X79.9536 Y39.8519 
G00 Z2.5400  
G00 X81.3166 Y32.6419 
G01 Z-0.0350 F254   
G01 X81.2952 Y32.5903 F508   
G01 X81.2952 Y32.1552 
G01 X77.6535 Y32.1552 
G01 X72.0033 Y37.8054 
G01 X72.0033 Y51.1115 
G01 X72.4884 Y51.1115 
G01 X72.5400 Y51.1329 
G01 X72.5795 Y51.1724 
G01 X72.6009 Y51.2240 
G01 X72.6009 Y52.2798 
G01 X72.5795 Y52.3314 
G01 X72.5400 Y52.3709 
G01 X72.5014 Y52.3869 
G01 X72.5400 Y52.4029 
G01 X72.5795 Y52.4424 
G01 X72.6009 Y52.4940 
G01 X72.6009 Y53.5498 
G01 X72.5795 Y53.6014 
G01 X72.5400 Y53.6409 
G01 X72.5014 Y53.6569 
G01 X72.5400 Y53.6729 
G01 X72.5795 Y53.7124 
G01 X72.6009 Y53.7640 
G01 X72.6009 Y54.8198 
G01 X72.5795 Y54.8714 
G01 X72.5400 Y54.9109 
G01 X72.5014 Y54.9269 
G01 X72.5400 Y54.9429 
G01 X72.5795 Y54.9824 
G01 X72.6009 Y55.0340 
G01 X72.6009 Y56.0898 
G01 X72.5795 Y56.1414 
G01 X72.5400 Y56.1809 
G01 X72.5014 Y56.1969 
G01 X72.5400 Y56.2129 
G01 X72.5795 Y56.2524 
G01 X72.6009 Y56.3040 
G01 X72.6009 Y56.4298 
G01 X76.0369 Y52.9938 
G01 X76.0369 Y36.9409 
G01 X76.0568 Y36.8664 
G01 X76.0954 Y36.7997 
G01 X80.1124 Y32.7826 
G01 X80.1670 Y32.7281 
G01 X80.2337 Y32.6895 
G01 X80.3082 Y32.6696 
G01 X81.3442 Y32.6696 
G01 X81.3166 Y32.6419 
G00 Z2.5400  
G00 X83.1409 Y33.2220 
G01 Z-0.0350 F254   
G01 X83.1300 Y33.2157 F508   
G01 X83.0755 Y33.1612 
G01 X83.0369 Y33.0944 
G01 X83.0170 Y33.0199 
G01 X83.0170 Y32.9428 
G01 X83.0202 Y32.9307 
G01 X82.7542 Y33.1967 
G01 X82.7104 Y33.2220 
G01 X83.1409 Y33.2220 
G00 Z2.5400  
G00 X85.1485 Y28.8536 
G01 Z-0.0350 F254   
G01 X85.5564 Y28.8536 F508   
G01 X85.5564 Y28.4708 
G01 X85.5778 Y28.4192 
G01 X85.6172 Y28.3797 
G01 X85.6688 Y28.3584 
G01 X86.1531 Y28.3584 
G01 X86.1531 Y28.1645 
G01 X86.1337 Y28.1451 
G01 X86.0952 Y28.0784 
G01 X86.0752 Y28.0039 
G01 X86.0752 Y27.9268 
G01 X86.0785 Y27.9146 
G01 X85.1363 Y28.8568 
G01 X85.1485 Y28.8536 
G00 Z2.5400  
G00 X87.4693 Y22.8862 
G01 Z-0.0350 F254   
G01 X87.4693 Y22.5519 F508   
G01 X87.2013 Y22.5519 
G01 X87.2013 Y22.8862 
G01 X87.4693 Y22.8862 
G00 Z2.5400  
G00 X85.8666 Y25.8427 
G01 Z-0.0350 F254   
G01 X85.8879 Y25.7911 F508   
G01 X85.9274 Y25.7516 
G01 X85.9790 Y25.7302 
G01 X87.4693 Y25.7302 
G01 X87.4693 Y24.7670 
G01 X85.9790 Y24.7670 
G01 X85.9274 Y24.7456 
G01 X85.8879 Y24.7061 
G01 X85.8666 Y24.6545 
G01 X85.8666 Y22.9987 
G01 X85.8879 Y22.9471 
G01 X85.9274 Y22.9076 
G01 X85.9790 Y22.8862 
G01 X86.6157 Y22.8862 
G01 X86.6157 Y22.5519 
G01 X85.9788 Y22.5519 
G01 X85.9272 Y22.5305 
G01 X85.8877 Y22.4910 
G01 X85.8663 Y22.4394 
G01 X85.8663 Y20.8011 
G01 X85.8613 Y20.8040 
G01 X85.8189 Y20.8153 
G01 X85.7868 Y20.8239 
G01 X85.7097 Y20.8239 
G01 X85.6352 Y20.8040 
G01 X85.5975 Y20.7822 
G01 X85.5685 Y20.7654 
G01 X85.5140 Y20.7109 
G01 X85.5076 Y20.7000 
G01 X85.5076 Y21.3768 
G01 X85.4863 Y21.4284 
G01 X85.4468 Y21.4679 
G01 X85.3952 Y21.4893 
G01 X84.0409 Y21.4893 
G01 X78.3708 Y27.1595 
G01 X78.3040 Y27.1980 
G01 X78.2295 Y27.2180 
G01 X62.2211 Y27.2180 
G01 X61.6298 Y27.8093 
G01 X61.6298 Y31.5095 
G01 X70.6231 Y40.5028 
G01 X70.6617 Y40.5696 
G01 X70.6816 Y40.6441 
G01 X70.6816 Y52.4813 
G01 X70.8201 Y52.6198 
G01 X70.8201 Y52.4940 
G01 X70.8415 Y52.4424 
G01 X70.8809 Y52.4029 
G01 X70.9195 Y52.3869 
G01 X70.8809 Y52.3709 
G01 X70.8415 Y52.3314 
G01 X70.8201 Y52.2798 
G01 X70.8201 Y51.2240 
G01 X70.8415 Y51.1724 
G01 X70.8809 Y51.1329 
G01 X70.9325 Y51.1115 
G01 X71.4177 Y51.1115 
G01 X71.4177 Y36.7767 
G01 X64.1597 Y29.5187 
G01 X62.1194 Y29.5187 
G01 X62.0678 Y29.4973 
G01 X62.0284 Y29.4578 
G01 X62.0070 Y29.4062 
G01 X62.0070 Y27.8264 
G01 X62.0284 Y27.7748 
G01 X62.0678 Y27.7353 
G01 X62.1194 Y27.7139 
G01 X64.4613 Y27.7139 
G01 X64.5129 Y27.7353 
G01 X64.5524 Y27.7748 
G01 X64.5738 Y27.8264 
G01 X64.5738 Y29.1046 
G01 X71.9448 Y36.4756 
G01 X71.9833 Y36.5424 
G01 X72.0033 Y36.6168 
G01 X72.0033 Y36.9772 
G01 X77.3524 Y31.6281 
G01 X77.4192 Y31.5895 
G01 X77.4937 Y31.5696 
G01 X81.2952 Y31.5696 
G01 X81.2952 Y31.1345 
G01 X81.3166 Y31.0829 
G01 X81.3561 Y31.0434 
G01 X81.4077 Y31.0220 
G01 X82.4635 Y31.0220 
G01 X82.5151 Y31.0434 
G01 X82.5546 Y31.0829 
G01 X82.5760 Y31.1345 
G01 X82.5760 Y32.5467 
G01 X82.6178 Y32.5049 
G01 X82.6178 Y30.6299 
G01 X82.6377 Y30.5555 
G01 X82.6763 Y30.4887 
G01 X85.8666 Y27.2984 
G01 X85.8666 Y25.8427 
G00 Z2.5400  
G00 X81.6046 Y33.2829 
G01 Z-0.0350 F254   
G01 X81.6260 Y33.3345 F508   
G01 X81.6260 Y34.7903 
G01 X81.6046 Y34.8419 
G01 X81.5651 Y34.8814 
G01 X81.5135 Y34.9028 
G01 X81.2738 Y34.9028 
G01 X81.2738 Y38.0486 
G01 X81.9104 Y38.0486 
G01 X81.9620 Y38.0700 
G01 X82.0015 Y38.1095 
G01 X82.0229 Y38.1611 
G01 X82.0229 Y39.8170 
G01 X82.0084 Y39.8519 
G01 X83.1272 Y39.8519 
G01 X83.1151 Y39.8226 
G01 X83.1151 Y38.1667 
G01 X83.1364 Y38.1151 
G01 X83.1759 Y38.0756 
G01 X83.2275 Y38.0542 
G01 X83.8642 Y38.0542 
G01 X83.8642 Y35.4550 
G01 X83.3119 Y34.9028 
G01 X82.3577 Y34.9028 
G01 X82.3060 Y34.8814 
G01 X82.2666 Y34.8419 
G01 X82.2452 Y34.7903 
G01 X82.2452 Y33.3345 
G01 X82.2666 Y33.2829 
G01 X82.2942 Y33.2552 
G01 X81.5769 Y33.2552 
G01 X81.6046 Y33.2829 
G00 Z2.5400  
G00 X74.7056 Y58.2817 
G01 Z-0.0350 F254   
G01 X74.6510 Y58.3362 F508   
G01 X74.5843 Y58.3747 
G01 X74.5098 Y58.3947 
G01 X72.6009 Y58.3947 
G01 X72.6009 Y58.6298 
G01 X72.5795 Y58.6814 
G01 X72.5400 Y58.7209 
G01 X72.5014 Y58.7369 
G01 X72.5400 Y58.7529 
G01 X72.5795 Y58.7924 
G01 X72.6009 Y58.8440 
G01 X72.6009 Y58.9605 
G01 X74.1129 Y58.9605 
G01 X79.0254 Y54.0481 
G01 X79.0254 Y40.6234 
G01 X79.0453 Y40.5490 
G01 X79.0839 Y40.4822 
G01 X79.1285 Y40.4375 
G01 X78.6981 Y40.4375 
G01 X78.6981 Y54.2064 
G01 X78.6781 Y54.2809 
G01 X78.6396 Y54.3477 
G01 X78.5851 Y54.4022 
G01 X74.7056 Y58.2817 
G00 Z2.5400  
G00 X45.3965 Y13.0454 
G01 Z-0.0350 F254   
G01 X45.5016 Y12.9007 F508   
G01 X45.5827 Y12.7414 
G01 X45.6380 Y12.5713 
G01 X45.6659 Y12.3947 
G01 X45.6659 Y11.8488 
G01 X45.5657 Y11.8488 
G01 X45.5657 Y12.3869 
G01 X45.5402 Y12.5479 
G01 X45.4899 Y12.7029 
G01 X45.4158 Y12.8482 
G01 X45.3200 Y12.9801 
G01 X45.2047 Y13.0954 
G01 X45.0729 Y13.1912 
G01 X44.9688 Y13.2442 
G01 X44.9688 Y13.3567 
G01 X45.1254 Y13.2769 
G01 X45.2700 Y13.1718 
G01 X45.3965 Y13.0454 
G00 Z2.5400  
G00 X45.6659 Y10.4253 
G01 Z-0.0350 F254   
G01 X45.6380 Y10.2486 F508   
G01 X45.5827 Y10.0786 
G01 X45.5016 Y9.9193  
G01 X45.3965 Y9.7746  
G01 X45.2700 Y9.6482  
G01 X45.1254 Y9.5431  
G01 X44.9688 Y9.4633  
G01 X44.9688 Y9.5758  
G01 X45.0729 Y9.6288  
G01 X45.2047 Y9.7246  
G01 X45.3200 Y9.8399  
G01 X45.4158 Y9.9718  
G01 X45.4899 Y10.1171 
G01 X45.5402 Y10.2721 
G01 X45.5657 Y10.4331 
G01 X45.5657 Y10.9711 
G01 X45.6659 Y10.9711 
G01 X45.6659 Y10.4253 
G00 Z2.5400  
G00 X43.9346 Y9.5431  
G01 Z-0.0350 F254   
G01 X43.7900 Y9.6482  F508   
G01 X43.6635 Y9.7746  
G01 X43.5584 Y9.9193  
G01 X43.4773 Y10.0786 
G01 X43.4220 Y10.2486 
G01 X43.3940 Y10.4253 
G01 X43.3940 Y10.9711 
G01 X43.4943 Y10.9711 
G01 X43.4943 Y10.4331 
G01 X43.5198 Y10.2721 
G01 X43.5701 Y10.1171 
G01 X43.6441 Y9.9718  
G01 X43.7400 Y9.8399  
G01 X43.8553 Y9.7246  
G01 X43.9871 Y9.6288  
G01 X44.0911 Y9.5758  
G01 X44.0911 Y9.4633  
G01 X43.9346 Y9.5431  
G00 Z2.5400  
G00 X43.3940 Y12.3947 
G01 Z-0.0350 F254   
G01 X43.4220 Y12.5714 F508   
G01 X43.4773 Y12.7414 
G01 X43.5584 Y12.9007 
G01 X43.6635 Y13.0454 
G01 X43.7900 Y13.1718 
G01 X43.9346 Y13.2769 
G01 X44.0911 Y13.3567 
G01 X44.0911 Y13.2442 
G01 X43.9871 Y13.1912 
G01 X43.8553 Y13.0954 
G01 X43.7400 Y12.9801 
G01 X43.6441 Y12.8482 
G01 X43.5701 Y12.7029 
G01 X43.5198 Y12.5479 
G01 X43.4943 Y12.3869 
G01 X43.4943 Y11.8488 
G01 X43.3940 Y11.8488 
G01 X43.3940 Y12.3947 
G00 Z2.5400  
G00 X77.1465 Y13.0454 
G01 Z-0.0350 F254   
G01 X77.2516 Y12.9007 F508   
G01 X77.3327 Y12.7414 
G01 X77.3880 Y12.5713 
G01 X77.4159 Y12.3947 
G01 X77.4159 Y11.8488 
G01 X77.3157 Y11.8488 
G01 X77.3157 Y12.3869 
G01 X77.2902 Y12.5479 
G01 X77.2399 Y12.7029 
G01 X77.1659 Y12.8482 
G01 X77.0700 Y12.9801 
G01 X76.9547 Y13.0954 
G01 X76.8229 Y13.1912 
G01 X76.7188 Y13.2442 
G01 X76.7188 Y13.3567 
G01 X76.8754 Y13.2769 
G01 X77.0200 Y13.1718 
G01 X77.1465 Y13.0454 
G00 Z2.5400  
G00 X77.4159 Y10.4253 
G01 Z-0.0350 F254   
G01 X77.3880 Y10.2486 F508   
G01 X77.3327 Y10.0786 
G01 X77.2515 Y9.9193  
G01 X77.1465 Y9.7746  
G01 X77.0200 Y9.6482  
G01 X76.8754 Y9.5431  
G01 X76.7188 Y9.4633  
G01 X76.7188 Y9.5758  
G01 X76.8229 Y9.6288  
G01 X76.9547 Y9.7246  
G01 X77.0700 Y9.8399  
G01 X77.1659 Y9.9718  
G01 X77.2399 Y10.1171 
G01 X77.2902 Y10.2721 
G01 X77.3157 Y10.4331 
G01 X77.3157 Y10.9711 
G01 X77.4159 Y10.9711 
G01 X77.4159 Y10.4253 
G00 Z2.5400  
G00 X75.6846 Y9.5431  
G01 Z-0.0350 F254   
G01 X75.5400 Y9.6482  F508   
G01 X75.4135 Y9.7746  
G01 X75.3084 Y9.9193  
G01 X75.2273 Y10.0786 
G01 X75.1720 Y10.2486 
G01 X75.1440 Y10.4253 
G01 X75.1440 Y10.9711 
G01 X75.2443 Y10.9711 
G01 X75.2443 Y10.4331 
G01 X75.2698 Y10.2721 
G01 X75.3201 Y10.1171 
G01 X75.3941 Y9.9718  
G01 X75.4900 Y9.8399  
G01 X75.6053 Y9.7246  
G01 X75.7371 Y9.6288  
G01 X75.8411 Y9.5758  
G01 X75.8411 Y9.4633  
G01 X75.6846 Y9.5431  
G00 Z2.5400  
G00 X75.1440 Y12.3947 
G01 Z-0.0350 F254   
G01 X75.1720 Y12.5714 F508   
G01 X75.2273 Y12.7414 
G01 X75.3084 Y12.9007 
G01 X75.4135 Y13.0454 
G01 X75.5400 Y13.1718 
G01 X75.6846 Y13.2769 
G01 X75.8411 Y13.3567 
G01 X75.8411 Y13.2442 
G01 X75.7371 Y13.1912 
G01 X75.6053 Y13.0954 
G01 X75.4900 Y12.9801 
G01 X75.3941 Y12.8482 
G01 X75.3201 Y12.7029 
G01 X75.2698 Y12.5479 
G01 X75.2443 Y12.3869 
G01 X75.2443 Y11.8488 
G01 X75.1440 Y11.8488 
G01 X75.1440 Y12.3947 
G00 Z2.5400  
G00 X6.6954  Y40.9635 
G01 Z-0.0350 F254   
G01 X6.5507  Y40.8584 F508   
G01 X6.3914  Y40.7773 
G01 X6.2213  Y40.7220 
G01 X6.0447  Y40.6940 
G01 X5.4988  Y40.6940 
G01 X5.4988  Y40.7943 
G01 X6.0369  Y40.7943 
G01 X6.1979  Y40.8198 
G01 X6.3529  Y40.8701 
G01 X6.4982  Y40.9441 
G01 X6.6301  Y41.0400 
G01 X6.7454  Y41.1553 
G01 X6.8412  Y41.2871 
G01 X6.8942  Y41.3911 
G01 X7.0067  Y41.3911 
G01 X6.9269  Y41.2346 
G01 X6.8218  Y41.0900 
G01 X6.6954  Y40.9635 
G00 Z2.5400  
G00 X4.0753  Y40.6940 
G01 Z-0.0350 F254   
G01 X3.8987  Y40.7220 F508   
G01 X3.7286  Y40.7773 
G01 X3.5693  Y40.8584 
G01 X3.4246  Y40.9635 
G01 X3.2982  Y41.0900 
G01 X3.1931  Y41.2346 
G01 X3.1133  Y41.3911 
G01 X3.2258  Y41.3911 
G01 X3.2788  Y41.2871 
G01 X3.3746  Y41.1553 
G01 X3.4899  Y41.0400 
G01 X3.6218  Y40.9441 
G01 X3.7671  Y40.8701 
G01 X3.9221  Y40.8198 
G01 X4.0831  Y40.7943 
G01 X4.6211  Y40.7943 
G01 X4.6211  Y40.6940 
G01 X4.0753  Y40.6940 
G00 Z2.5400  
G00 X3.1931  Y42.4254 
G01 Z-0.0350 F254   
G01 X3.2982  Y42.5700 F508   
G01 X3.4246  Y42.6965 
G01 X3.5693  Y42.8015 
G01 X3.7286  Y42.8827 
G01 X3.8986  Y42.9380 
G01 X4.0753  Y42.9659 
G01 X4.6211  Y42.9659 
G01 X4.6211  Y42.8657 
G01 X4.0831  Y42.8657 
G01 X3.9221  Y42.8402 
G01 X3.7671  Y42.7899 
G01 X3.6218  Y42.7159 
G01 X3.4899  Y42.6200 
G01 X3.3746  Y42.5047 
G01 X3.2788  Y42.3728 
G01 X3.2258  Y42.2688 
G01 X3.1133  Y42.2688 
G01 X3.1931  Y42.4254 
G00 Z2.5400  
G00 X6.0447  Y42.9659 
G01 Z-0.0350 F254   
G01 X6.2214  Y42.9380 F508   
G01 X6.3914  Y42.8827 
G01 X6.5507  Y42.8015 
G01 X6.6954  Y42.6965 
G01 X6.8218  Y42.5700 
G01 X6.9269  Y42.4254 
G01 X7.0067  Y42.2688 
G01 X6.8942  Y42.2688 
G01 X6.8412  Y42.3728 
G01 X6.7454  Y42.5047 
G01 X6.6301  Y42.6200 
G01 X6.4982  Y42.7159 
G01 X6.3529  Y42.7899 
G01 X6.1979  Y42.8402 
G01 X6.0369  Y42.8657 
G01 X5.4988  Y42.8657 
G01 X5.4988  Y42.9659 
G01 X6.0447  Y42.9659 
G00 Z2.5400  
G00 X6.6954  Y25.7235 
G01 Z-0.0350 F254   
G01 X6.5507  Y25.6184 F508   
G01 X6.3914  Y25.5373 
G01 X6.2213  Y25.4820 
G01 X6.0447  Y25.4540 
G01 X5.4988  Y25.4540 
G01 X5.4988  Y25.5542 
G01 X6.0369  Y25.5542 
G01 X6.1979  Y25.5798 
G01 X6.3529  Y25.6301 
G01 X6.4982  Y25.7041 
G01 X6.6301  Y25.8000 
G01 X6.7454  Y25.9153 
G01 X6.8412  Y26.0471 
G01 X6.8942  Y26.1511 
G01 X7.0067  Y26.1511 
G01 X6.9269  Y25.9946 
G01 X6.8218  Y25.8500 
G01 X6.6954  Y25.7235 
G00 Z2.5400  
G00 X4.0753  Y25.4540 
G01 Z-0.0350 F254   
G01 X3.8986  Y25.4820 F508   
G01 X3.7286  Y25.5373 
G01 X3.5693  Y25.6184 
G01 X3.4246  Y25.7235 
G01 X3.2982  Y25.8500 
G01 X3.1931  Y25.9946 
G01 X3.1133  Y26.1511 
G01 X3.2258  Y26.1511 
G01 X3.2788  Y26.0471 
G01 X3.3746  Y25.9153 
G01 X3.4899  Y25.8000 
G01 X3.6218  Y25.7041 
G01 X3.7671  Y25.6301 
G01 X3.9221  Y25.5798 
G01 X4.0831  Y25.5542 
G01 X4.6211  Y25.5542 
G01 X4.6211  Y25.4540 
G01 X4.0753  Y25.4540 
G00 Z2.5400  
G00 X3.1931  Y27.1854 
G01 Z-0.0350 F254   
G01 X3.2982  Y27.3300 F508   
G01 X3.4246  Y27.4565 
G01 X3.5693  Y27.5616 
G01 X3.7286  Y27.6427 
G01 X3.8986  Y27.6980 
G01 X4.0753  Y27.7259 
G01 X4.6211  Y27.7259 
G01 X4.6211  Y27.6257 
G01 X4.0831  Y27.6257 
G01 X3.9221  Y27.6002 
G01 X3.7671  Y27.5499 
G01 X3.6218  Y27.4759 
G01 X3.4899  Y27.3800 
G01 X3.3746  Y27.2647 
G01 X3.2788  Y27.1329 
G01 X3.2258  Y27.0288 
G01 X3.1133  Y27.0288 
G01 X3.1931  Y27.1854 
G00 Z2.5400  
G00 X6.0447  Y27.7259 
G01 Z-0.0350 F254   
G01 X6.2214  Y27.6980 F508   
G01 X6.3914  Y27.6427 
G01 X6.5507  Y27.5615 
G01 X6.6954  Y27.4565 
G01 X6.8218  Y27.3300 
G01 X6.9269  Y27.1854 
G01 X7.0067  Y27.0288 
G01 X6.8942  Y27.0288 
G01 X6.8412  Y27.1329 
G01 X6.7454  Y27.2647 
G01 X6.6301  Y27.3800 
G01 X6.4982  Y27.4759 
G01 X6.3529  Y27.5499 
G01 X6.1979  Y27.6002 
G01 X6.0369  Y27.6257 
G01 X5.4988  Y27.6257 
G01 X5.4988  Y27.7259 
G01 X6.0447  Y27.7259 
G00 Z2.5400  
G00 X93.6346 Y42.8565 
G01 Z-0.0350 F254   
G01 X93.7793 Y42.9616 F508   
G01 X93.9386 Y43.0427 
G01 X94.1086 Y43.0980 
G01 X94.2853 Y43.1259 
G01 X94.8311 Y43.1259 
G01 X94.8311 Y43.0257 
G01 X94.2931 Y43.0257 
G01 X94.1321 Y43.0002 
G01 X93.9771 Y42.9499 
G01 X93.8318 Y42.8758 
G01 X93.6999 Y42.7800 
G01 X93.5846 Y42.6647 
G01 X93.4888 Y42.5329 
G01 X93.4358 Y42.4288 
G01 X93.3233 Y42.4288 
G01 X93.4031 Y42.5854 
G01 X93.5082 Y42.7300 
G01 X93.6346 Y42.8565 
G00 Z2.5400  
G00 X96.2547 Y43.1259 
G01 Z-0.0350 F254   
G01 X96.4314 Y43.0980 F508   
G01 X96.6014 Y43.0427 
G01 X96.7607 Y42.9615 
G01 X96.9054 Y42.8565 
G01 X97.0318 Y42.7300 
G01 X97.1369 Y42.5854 
G01 X97.2167 Y42.4288 
G01 X97.1042 Y42.4288 
G01 X97.0512 Y42.5329 
G01 X96.9554 Y42.6647 
G01 X96.8401 Y42.7800 
G01 X96.7082 Y42.8758 
G01 X96.5629 Y42.9499 
G01 X96.4079 Y43.0002 
G01 X96.2469 Y43.0257 
G01 X95.7088 Y43.0257 
G01 X95.7088 Y43.1259 
G01 X96.2547 Y43.1259 
G00 Z2.5400  
G00 X97.1369 Y41.3946 
G01 Z-0.0350 F254   
G01 X97.0318 Y41.2500 F508   
G01 X96.9054 Y41.1235 
G01 X96.7607 Y41.0184 
G01 X96.6014 Y40.9373 
G01 X96.4313 Y40.8820 
G01 X96.2547 Y40.8540 
G01 X95.7088 Y40.8540 
G01 X95.7088 Y40.9543 
G01 X96.2469 Y40.9543 
G01 X96.4079 Y40.9798 
G01 X96.5629 Y41.0301 
G01 X96.7082 Y41.1041 
G01 X96.8401 Y41.2000 
G01 X96.9554 Y41.3153 
G01 X97.0512 Y41.4471 
G01 X97.1042 Y41.5511 
G01 X97.2167 Y41.5511 
G01 X97.1369 Y41.3946 
G00 Z2.5400  
G00 X94.2853 Y40.8540 
G01 Z-0.0350 F254   
G01 X94.1086 Y40.8820 F508   
G01 X93.9386 Y40.9373 
G01 X93.7793 Y41.0184 
G01 X93.6346 Y41.1235 
G01 X93.5082 Y41.2500 
G01 X93.4031 Y41.3946 
G01 X93.3233 Y41.5511 
G01 X93.4358 Y41.5511 
G01 X93.4888 Y41.4471 
G01 X93.5846 Y41.3153 
G01 X93.6999 Y41.2000 
G01 X93.8318 Y41.1041 
G01 X93.9771 Y41.0301 
G01 X94.1321 Y40.9798 
G01 X94.2931 Y40.9543 
G01 X94.8311 Y40.9543 
G01 X94.8311 Y40.8540 
G01 X94.2853 Y40.8540 
G00 Z2.5400  
G00 X60.3197 Y21.7002 
G01 Z-0.0350 F254   
G01 X60.3361 Y21.7614 F508   
G01 X60.3678 Y21.8163 
G01 X60.4126 Y21.8611 
G01 X60.4674 Y21.8927 
G01 X60.5286 Y21.9091 
G01 X60.9151 Y21.9091 
G01 X60.9151 Y21.8089 
G01 X60.5324 Y21.8089 
G01 X60.4808 Y21.7876 
G01 X60.4413 Y21.7481 
G01 X60.4199 Y21.6965 
G01 X60.4199 Y21.2122 
G01 X60.3197 Y21.2122 
G01 X60.3197 Y21.7002 
G00 Z2.5400  
G00 X77.5039 Y21.5858 
G01 Z-0.0350 F254   
G01 X77.5651 Y21.5694 F508   
G01 X77.6199 Y21.5377 
G01 X77.6647 Y21.4929 
G01 X77.6964 Y21.4381 
G01 X77.7128 Y21.3769 
G01 X77.7128 Y20.8889 
G01 X77.6126 Y20.8889 
G01 X77.6126 Y21.3731 
G01 X77.5912 Y21.4247 
G01 X77.5517 Y21.4642 
G01 X77.5001 Y21.4856 
G01 X77.1174 Y21.4856 
G01 X77.1174 Y21.5858 
G01 X77.5039 Y21.5858 
G00 Z2.5400  
G00 X75.7318 Y19.9985 
G01 Z-0.0350 F254   
G01 X75.7318 Y19.5143 F508   
G01 X75.7532 Y19.4627 
G01 X75.7927 Y19.4232 
G01 X75.8443 Y19.4018 
G01 X77.5001 Y19.4018 
G01 X77.5517 Y19.4232 
G01 X77.5912 Y19.4627 
G01 X77.6126 Y19.5143 
G01 X77.6126 Y19.9985 
G01 X77.7128 Y19.9985 
G01 X77.7128 Y19.5105 
G01 X77.7049 Y19.4811 
G01 X77.7049 Y19.4040 
G01 X77.7154 Y19.3649 
G01 X77.7249 Y19.3295 
G01 X77.7344 Y19.3131 
G01 X77.7634 Y19.2627 
G01 X77.8179 Y19.2082 
G01 X77.8289 Y19.2019 
G01 X75.5156 Y19.2019 
G01 X75.5265 Y19.2082 
G01 X75.5810 Y19.2627 
G01 X75.6084 Y19.3102 
G01 X75.6195 Y19.3295 
G01 X75.6286 Y19.3632 
G01 X75.6395 Y19.4040 
G01 X75.6395 Y19.4811 
G01 X75.6316 Y19.5105 
G01 X75.6316 Y19.9985 
G01 X75.7318 Y19.9985 
G00 Z2.5400  
G00 X75.6316 Y21.3769 
G01 Z-0.0350 F254   
G01 X75.6480 Y21.4381 F508   
G01 X75.6797 Y21.4929 
G01 X75.7245 Y21.5377 
G01 X75.7793 Y21.5694 
G01 X75.8405 Y21.5858 
G01 X76.2270 Y21.5858 
G01 X76.2270 Y21.4856 
G01 X75.8443 Y21.4856 
G01 X75.7927 Y21.4642 
G01 X75.7532 Y21.4247 
G01 X75.7318 Y21.3731 
G01 X75.7318 Y20.8889 
G01 X75.6316 Y20.8889 
G01 X75.6316 Y21.3769 
G00 Z2.5400  
G00 X70.1251 Y19.7289 
G01 Z-0.0350 F254   
G01 X70.0691 Y19.6729 F508   
G01 X70.0628 Y19.6620 
G01 X70.0628 Y19.7289 
G01 X70.1251 Y19.7289 
G00 Z2.5400  
G00 X69.4709 Y19.6681 
G01 Z-0.0350 F254   
G01 X69.4164 Y19.7226 F508   
G01 X69.4055 Y19.7289 
G01 X69.4772 Y19.7289 
G01 X69.4772 Y19.6572 
G01 X69.4709 Y19.6681 
G00 Z2.5400  
G00 X65.5564 Y19.8850 
G01 Z-0.0350 F254   
G01 X65.5322 Y19.9092 F508   
G01 X65.4655 Y19.9477 
G01 X65.3910 Y19.9677 
G01 X65.3139 Y19.9677 
G01 X65.2394 Y19.9477 
G01 X65.1727 Y19.9092 
G01 X65.1447 Y19.8812 
G01 X65.1447 Y20.4742 
G01 X65.5564 Y20.4742 
G01 X65.5564 Y19.8850 
G00 Z2.5400  
G00 X65.1447 Y21.6529 
G01 Z-0.0350 F254   
G01 X65.1689 Y21.6287 F508   
G01 X65.2356 Y21.5902 
G01 X65.3101 Y21.5702 
G01 X65.3872 Y21.5702 
G01 X65.4617 Y21.5902 
G01 X65.5284 Y21.6287 
G01 X65.5564 Y21.6567 
G01 X65.5564 Y21.0598 
G01 X65.1447 Y21.0598 
G01 X65.1447 Y21.6529 
G00 Z2.5400  
G00 X47.0421 Y21.6319 
G01 Z-0.0350 F254   
G01 X47.0421 Y21.1477 F508   
G01 X46.9419 Y21.1477 
G01 X46.9419 Y21.6357 
G01 X46.9583 Y21.6969 
G01 X46.9899 Y21.7517 
G01 X47.0347 Y21.7965 
G01 X47.0896 Y21.8282 
G01 X47.1508 Y21.8446 
G01 X47.5373 Y21.8446 
G01 X47.5373 Y21.7444 
G01 X47.1545 Y21.7444 
G01 X47.1029 Y21.7230 
G01 X47.0634 Y21.6835 
G01 X47.0421 Y21.6319 
G00 Z2.5400  
G00 X20.4303 Y63.8434 
G01 Z-0.0350 F254   
G01 X20.4942 Y63.9689 F508   
G01 X20.5770 Y64.0828 
G01 X20.6766 Y64.1824 
G01 X20.7905 Y64.2651 
G01 X20.9159 Y64.3291 
G01 X20.9189 Y64.3300 
G01 X20.9189 Y64.2188 
G01 X20.8831 Y64.2040 
G01 X20.7529 Y64.1170 
G01 X20.6423 Y64.0064 
G01 X20.5554 Y63.8763 
G01 X20.5405 Y63.8404 
G01 X20.4293 Y63.8404 
G01 X20.4303 Y63.8434 
G00 Z2.5400  
G00 X22.0884 Y63.1566 
G01 Z-0.0350 F254   
G01 X22.0245 Y63.0311 F508   
G01 X21.9417 Y62.9172 
G01 X21.8421 Y62.8176 
G01 X21.7282 Y62.7349 
G01 X21.6028 Y62.6709 
G01 X21.5997 Y62.6700 
G01 X21.5997 Y62.7811 
G01 X21.6356 Y62.7960 
G01 X21.7658 Y62.8830 
G01 X21.8764 Y62.9936 
G01 X21.9633 Y63.1237 
G01 X21.9782 Y63.1596 
G01 X22.0894 Y63.1596 
G01 X22.0884 Y63.1566 
G00 Z2.5400  
G00 X21.9417 Y64.0828 
G01 Z-0.0350 F254   
G01 X22.0245 Y63.9689 F508   
G01 X22.0884 Y63.8434 
G01 X22.0894 Y63.8404 
G01 X21.9782 Y63.8404 
G01 X21.9633 Y63.8763 
G01 X21.8764 Y64.0064 
G01 X21.7658 Y64.1170 
G01 X21.6356 Y64.2040 
G01 X21.5997 Y64.2189 
G01 X21.5997 Y64.3300 
G01 X21.6028 Y64.3291 
G01 X21.7282 Y64.2651 
G01 X21.8421 Y64.1824 
G01 X21.9417 Y64.0828 
G00 Z2.5400  
G00 X20.9159 Y62.6709 
G01 Z-0.0350 F254   
G01 X20.7905 Y62.7349 F508   
G01 X20.6766 Y62.8176 
G01 X20.5770 Y62.9172 
G01 X20.4942 Y63.0311 
G01 X20.4303 Y63.1566 
G01 X20.4293 Y63.1596 
G01 X20.5405 Y63.1596 
G01 X20.5554 Y63.1237 
G01 X20.6423 Y62.9936 
G01 X20.7529 Y62.8830 
G01 X20.8831 Y62.7960 
G01 X20.9189 Y62.7812 
G01 X20.9189 Y62.6700 
G01 X20.9159 Y62.6709 
G00 Z2.5400  
G00 X56.3285 Y19.6677 
G01 Z-0.0350 F254   
G01 X56.3176 Y19.6614 F508   
G01 X56.2631 Y19.6069 
G01 X56.2568 Y19.5960 
G01 X56.2568 Y19.6677 
G01 X56.3285 Y19.6677 
G00 Z2.5400  
G00 X55.2561 Y19.4321 
G01 Z-0.0350 F254   
G01 X55.2507 Y19.4592 F508   
G01 X55.2402 Y19.4848 
G01 X55.2248 Y19.5078 
G01 X55.2052 Y19.5273 
G01 X55.1823 Y19.5427 
G01 X55.1567 Y19.5533 
G01 X55.1296 Y19.5587 
G01 X54.9519 Y19.5587 
G01 X54.9628 Y19.5650 
G01 X55.0173 Y19.6195 
G01 X55.0559 Y19.6863 
G01 X55.0625 Y19.7111 
G01 X55.0845 Y19.6891 
G01 X55.1361 Y19.6677 
G01 X55.6712 Y19.6677 
G01 X55.6712 Y16.2187 
G01 X55.6649 Y16.2296 
G01 X55.6512 Y16.2433 
G01 X55.6394 Y16.2586 
G01 X55.6241 Y16.2704 
G01 X55.6104 Y16.2841 
G01 X55.5936 Y16.2938 
G01 X55.5783 Y16.3056 
G01 X55.5604 Y16.3130 
G01 X55.5436 Y16.3226 
G01 X55.5249 Y16.3276 
G01 X55.5070 Y16.3351 
G01 X55.4878 Y16.3376 
G01 X55.4692 Y16.3426 
G01 X55.4498 Y16.3426 
G01 X55.4306 Y16.3451 
G01 X55.4114 Y16.3426 
G01 X55.3921 Y16.3426 
G01 X55.3734 Y16.3376 
G01 X55.3542 Y16.3351 
G01 X55.3363 Y16.3276 
G01 X55.3176 Y16.3226 
G01 X55.3008 Y16.3130 
G01 X55.2829 Y16.3055 
G01 X55.2676 Y16.2938 
G01 X55.2561 Y16.2872 
G01 X55.2561 Y19.4321 
G00 Z2.5400  
G00 X47.0421 Y19.7731 
G01 Z-0.0350 F254   
G01 X47.0634 Y19.7215 F508   
G01 X47.1029 Y19.6820 
G01 X47.1545 Y19.6606 
G01 X48.8104 Y19.6606 
G01 X48.8620 Y19.6820 
G01 X48.9015 Y19.7215 
G01 X48.9229 Y19.7731 
G01 X48.9229 Y20.2573 
G01 X49.0231 Y20.2573 
G01 X49.0231 Y19.7607 
G01 X49.0430 Y19.6863 
G01 X49.0816 Y19.6195 
G01 X49.1361 Y19.5650 
G01 X49.1470 Y19.5587 
G01 X46.8179 Y19.5587 
G01 X46.8288 Y19.5650 
G01 X46.8834 Y19.6195 
G01 X46.9219 Y19.6863 
G01 X46.9419 Y19.7607 
G01 X46.9419 Y20.2573 
G01 X47.0421 Y20.2573 
G01 X47.0421 Y19.7731 
G00 Z2.5400  
G00 X48.8141 Y21.8446 
G01 Z-0.0350 F254   
G01 X48.8753 Y21.8282 F508   
G01 X48.9302 Y21.7965 
G01 X48.9750 Y21.7517 
G01 X49.0067 Y21.6969 
G01 X49.0231 Y21.6357 
G01 X49.0231 Y21.1477 
G01 X48.9229 Y21.1477 
G01 X48.9229 Y21.6319 
G01 X48.9015 Y21.6835 
G01 X48.8620 Y21.7230 
G01 X48.8104 Y21.7444 
G01 X48.4277 Y21.7444 
G01 X48.4277 Y21.8446 
G01 X48.8141 Y21.8446 
G00 Z2.5400  
G00 X95.6345 Y50.9543 
G01 Z-0.0350 F254   
G01 X95.6236 Y50.9479 F508   
G01 X95.5691 Y50.8934 
G01 X95.5628 Y50.8825 
G01 X95.5628 Y50.9543 
G01 X95.6345 Y50.9543 
G00 Z2.5400  
G00 X94.9709 Y50.8934 
G01 Z-0.0350 F254   
G01 X94.9164 Y50.9479 F508   
G01 X94.9055 Y50.9543 
G01 X94.9772 Y50.9543 
G01 X94.9772 Y50.8825 
G01 X94.9709 Y50.8934 
G00 Z2.5400  
G00 X90.0696 Y45.7356 
G01 Z-0.0350 F254   
G01 X90.1212 Y45.7570 F508   
G01 X90.1607 Y45.7965 
G01 X90.1821 Y45.8481 
G01 X90.1821 Y46.0153 
G01 X90.1884 Y46.0044 
G01 X90.2429 Y45.9499 
G01 X90.3097 Y45.9113 
G01 X90.3841 Y45.8914 
G01 X90.4612 Y45.8914 
G01 X90.4734 Y45.8947 
G01 X90.0230 Y45.4443 
G01 X90.0263 Y45.4565 
G01 X90.0263 Y45.5336 
G01 X90.0063 Y45.6080 
G01 X89.9678 Y45.6748 
G01 X89.9133 Y45.7293 
G01 X89.9023 Y45.7356 
G01 X90.0696 Y45.7356 
G00 Z2.5400  
G00 X93.6449 Y48.2291 
G01 Z-0.0350 F254   
G01 X93.6449 Y48.2097 F508   
G01 X93.6423 Y48.1905 
G01 X93.6449 Y48.1713 
G01 X93.6449 Y48.1520 
G01 X93.6499 Y48.1333 
G01 X93.6524 Y48.1141 
G01 X93.6598 Y48.0962 
G01 X93.6648 Y48.0775 
G01 X93.6745 Y48.0607 
G01 X93.6819 Y48.0428 
G01 X93.6937 Y48.0275 
G01 X93.7034 Y48.0107 
G01 X93.7171 Y47.9970 
G01 X93.7288 Y47.9817 
G01 X93.7442 Y47.9699 
G01 X93.7579 Y47.9562 
G01 X93.7747 Y47.9465 
G01 X93.7900 Y47.9347 
G01 X93.8079 Y47.9273 
G01 X93.8247 Y47.9177 
G01 X93.8434 Y47.9126 
G01 X93.8612 Y47.9052 
G01 X93.8804 Y47.9027 
G01 X93.8831 Y47.9020 
G01 X93.8318 Y47.8758 
G01 X93.6999 Y47.7800 
G01 X93.5846 Y47.6647 
G01 X93.4888 Y47.5329 
G01 X93.4627 Y47.4815 
G01 X93.4619 Y47.4842 
G01 X93.4594 Y47.5034 
G01 X93.4520 Y47.5213 
G01 X93.4470 Y47.5400 
G01 X93.4373 Y47.5568 
G01 X93.4299 Y47.5746 
G01 X93.4181 Y47.5900 
G01 X93.4084 Y47.6068 
G01 X93.3948 Y47.6204 
G01 X93.3830 Y47.6358 
G01 X93.3676 Y47.6476 
G01 X93.3539 Y47.6613 
G01 X93.3372 Y47.6710 
G01 X93.3218 Y47.6827 
G01 X93.3039 Y47.6901 
G01 X93.2872 Y47.6998 
G01 X93.2685 Y47.7048 
G01 X93.2506 Y47.7122 
G01 X93.2314 Y47.7148 
G01 X93.2127 Y47.7198 
G01 X93.1933 Y47.7198 
G01 X93.1741 Y47.7223 
G01 X93.1550 Y47.7198 
G01 X93.1356 Y47.7198 
G01 X93.1234 Y47.7165 
G01 X93.6481 Y48.2412 
G01 X93.6449 Y48.2291 
G00 Z2.5400  
G00 X88.2527 Y47.6164 
G01 Z-0.0350 F254   
G01 X88.2890 Y47.6792 F508   
G01 X88.3033 Y47.7329 
G01 X88.3089 Y47.7537 
G01 X88.3089 Y47.8308 
G01 X88.2890 Y47.9053 
G01 X88.2527 Y47.9681 
G01 X88.8474 Y47.9681 
G01 X88.8474 Y47.6164 
G01 X88.2527 Y47.6164 
G00 Z2.5400  
G00 X90.0277 Y47.9681 
G01 Z-0.0350 F254   
G01 X89.9914 Y47.9053 F508   
G01 X89.9714 Y47.8308 
G01 X89.9714 Y47.7537 
G01 X89.9766 Y47.7346 
G01 X89.9914 Y47.6792 
G01 X90.0277 Y47.6164 
G01 X89.4330 Y47.6164 
G01 X89.4330 Y47.9681 
G01 X90.0277 Y47.9681 
G00 Z2.5400  
G00 X87.4693 Y20.6711 
G01 Z-0.0350 F254   
G01 X87.4693 Y20.5994 F508   
G01 X87.4630 Y20.6103 
G01 X87.4085 Y20.6648 
G01 X87.3975 Y20.6711 
G01 X87.4693 Y20.6711 
G00 Z2.5400  
G00 X87.6188 Y31.2632 
G01 Z-0.0350 F254   
G01 X87.6402 Y31.3148 F508   
G01 X87.6402 Y32.9707 
G01 X87.6188 Y33.0223 
G01 X87.5793 Y33.0618 
G01 X87.5277 Y33.0832 
G01 X86.8864 Y33.0832 
G01 X86.8864 Y33.4437 
G01 X87.5230 Y33.4437 
G01 X87.5746 Y33.4651 
G01 X87.6141 Y33.5046 
G01 X87.6355 Y33.5562 
G01 X87.6355 Y35.2120 
G01 X87.6141 Y35.2636 
G01 X87.5833 Y35.2944 
G01 X87.6463 Y35.3308 
G01 X87.7009 Y35.3853 
G01 X87.7072 Y35.3962 
G01 X87.7072 Y31.1306 
G01 X87.7009 Y31.1415 
G01 X87.6463 Y31.1961 
G01 X87.5863 Y31.2307 
G01 X87.6188 Y31.2632 
G00 Z2.5400  
G00 X85.7117 Y33.0832 
G01 Z-0.0350 F254   
G01 X85.7491 Y33.1481 F508   
G01 X85.7491 Y33.1481 
G01 X85.7582 Y33.1818 
G01 X85.7691 Y33.2225 
G01 X85.7691 Y33.2996 
G01 X85.7586 Y33.3387 
G01 X85.7491 Y33.3741 
G01 X85.7106 Y33.4409 
G01 X85.7078 Y33.4437 
G01 X86.3008 Y33.4437 
G01 X86.3008 Y33.0832 
G01 X85.7117 Y33.0832 
G00 Z2.5400  
G00 X85.4562 Y30.1304 
G01 Z-0.0350 F254   
G01 X85.4726 Y30.1916 F508   
G01 X85.5042 Y30.2465 
G01 X85.5490 Y30.2913 
G01 X85.6039 Y30.3230 
G01 X85.6651 Y30.3394 
G01 X86.1531 Y30.3394 
G01 X86.1531 Y30.2392 
G01 X85.6688 Y30.2392 
G01 X85.6172 Y30.2178 
G01 X85.5778 Y30.1783 
G01 X85.5564 Y30.1267 
G01 X85.5564 Y29.7440 
G01 X85.4562 Y29.7440 
G01 X85.4562 Y30.1304 
G00 Z2.5400  
G00 X84.9318 Y19.4055 
G01 Z-0.0350 F254   
G01 X84.9209 Y19.3992 F508   
G01 X84.8663 Y19.3447 
G01 X84.8600 Y19.3338 
G01 X84.8600 Y19.4055 
G01 X84.9318 Y19.4055 
G00 Z2.5400  
G00 X84.2681 Y19.3447 
G01 Z-0.0350 F254   
G01 X84.2136 Y19.3992 F508   
G01 X84.2027 Y19.4055 
G01 X84.2745 Y19.4055 
G01 X84.2745 Y19.3338 
G01 X84.2681 Y19.3447 
G00 Z2.5400  
G00 X85.5076 Y19.5180 
G01 Z-0.0350 F254   
G01 X85.5076 Y19.8654 F508   
G01 X85.5139 Y19.8544 
G01 X85.5685 Y19.7999 
G01 X85.6352 Y19.7614 
G01 X85.7097 Y19.7414 
G01 X85.7868 Y19.7414 
G01 X85.8059 Y19.7465 
G01 X85.8613 Y19.7614 
G01 X85.9138 Y19.7917 
G01 X85.9750 Y19.8081 
G01 X86.4630 Y19.8081 
G01 X86.4630 Y19.7079 
G01 X85.9788 Y19.7079 
G01 X85.9272 Y19.6865 
G01 X85.8877 Y19.6470 
G01 X85.8663 Y19.5954 
G01 X85.8663 Y19.2127 
G01 X85.7636 Y19.2127 
G01 X85.7461 Y19.2779 
G01 X85.7076 Y19.3447 
G01 X85.6539 Y19.3983 
G01 X85.5863 Y19.4377 
G01 X85.5326 Y19.4521 
G01 X85.5118 Y19.4577 
G01 X85.4776 Y19.4577 
G01 X85.4863 Y19.4664 
G01 X85.5076 Y19.5180 
G00 Z2.5400  
G00 X87.4693 Y17.8271 
G01 Z-0.0350 F254   
G01 X87.4693 Y17.6030 F508   
G01 X87.4630 Y17.6139 
G01 X87.4085 Y17.6684 
G01 X87.3611 Y17.6958 
G01 X87.3534 Y17.7002 
G01 X87.3534 Y17.8271 
G01 X87.4693 Y17.8271 
G00 Z2.5400  
G00 X85.8663 Y17.9396 
G01 Z-0.0350 F254   
G01 X85.8877 Y17.8880 F508   
G01 X85.9272 Y17.8485 
G01 X85.9788 Y17.8271 
G01 X86.4630 Y17.8271 
G01 X86.4630 Y17.7269 
G01 X85.9750 Y17.7269 
G01 X85.9138 Y17.7433 
G01 X85.8590 Y17.7750 
G01 X85.8141 Y17.8198 
G01 X85.7825 Y17.8746 
G01 X85.7661 Y17.9358 
G01 X85.7661 Y18.3223 
G01 X85.8663 Y18.3223 
G01 X85.8663 Y17.9396 
G00 Z2.5400  
G00 X87.5051 Y30.3394 
G01 Z-0.0350 F254   
G01 X87.5796 Y30.3593 F508   
G01 X87.5804 Y30.3598 
G01 X87.6463 Y30.3979 
G01 X87.7000 Y30.4515 
G01 X87.7072 Y30.4633 
G01 X87.7072 Y29.5916 
G01 X87.6402 Y29.5916 
G01 X87.6402 Y30.1267 
G01 X87.6188 Y30.1783 
G01 X87.5793 Y30.2178 
G01 X87.5277 Y30.2392 
G01 X87.0435 Y30.2392 
G01 X87.0435 Y30.3394 
G01 X87.5051 Y30.3394 
G00 Z2.5400  
G00 X87.7072 Y28.1342 
G01 Z-0.0350 F254   
G01 X87.7009 Y28.1451 F508   
G01 X87.6463 Y28.1997 
G01 X87.5796 Y28.2382 
G01 X87.5051 Y28.2582 
G01 X87.4280 Y28.2582 
G01 X87.0435 Y28.2582 
G01 X87.0435 Y28.3584 
G01 X87.5277 Y28.3584 
G01 X87.5793 Y28.3797 
G01 X87.6188 Y28.4192 
G01 X87.6402 Y28.4708 
G01 X87.6402 Y29.0060 
G01 X87.7072 Y29.0060 
G01 X87.7072 Y28.1342 
G00 Z2.5400  
G00 X87.7072 Y27.6110 
G01 Z-0.0350 F254   
G01 X87.6354 Y27.6110 F508   
G01 X87.6463 Y27.6173 
G01 X87.7009 Y27.6718 
G01 X87.7072 Y27.6828 
G01 X87.7072 Y27.6110 
G00 Z2.5400  
G00 X20.1809 Y21.9018 
G01 Z-0.0350 F254   
G01 X20.1754 Y21.9150 F508   
G01 X20.1776 Y21.9144 
G01 X20.2184 Y21.9035 
G01 X20.2955 Y21.9035 
G01 X20.3384 Y21.9150 
G01 X20.3329 Y21.9018 
G01 X20.3329 Y21.2652 
G01 X20.1809 Y21.2652 
G01 X20.1809 Y21.9018 
G00 Z2.5400  
G00 X20.1809 Y20.0430 
G01 Z-0.0350 F254   
G01 X20.1809 Y20.6796 F508   
G01 X20.3329 Y20.6796 
G01 X20.3329 Y20.0430 
G01 X20.3384 Y20.0298 
G01 X20.2955 Y20.0413 
G01 X20.2184 Y20.0413 
G01 X20.1793 Y20.0308 
G01 X20.1754 Y20.0298 
G01 X20.1809 Y20.0430 
G00 Z2.5400  
G00 X17.4371 Y20.0392 
G01 Z-0.0350 F254   
G01 X17.4207 Y19.9780 F508   
G01 X17.3890 Y19.9232 
G01 X17.3442 Y19.8784 
G01 X17.2894 Y19.8467 
G01 X17.2282 Y19.8303 
G01 X16.8417 Y19.8303 
G01 X16.8417 Y19.9305 
G01 X17.2244 Y19.9305 
G01 X17.2760 Y19.9519 
G01 X17.3155 Y19.9914 
G01 X17.3369 Y20.0430 
G01 X17.3369 Y20.5272 
G01 X17.4371 Y20.5272 
G01 X17.4371 Y20.0392 
G00 Z2.5400  
G00 X13.2152 Y23.2432 
G01 Z-0.0350 F254   
G01 X13.2869 Y23.2432 F508   
G01 X13.2760 Y23.2369 
G01 X13.2215 Y23.1824 
G01 X13.2152 Y23.1715 
G01 X13.2152 Y23.2432 
G00 Z2.5400  
G00 X15.0313 Y25.1240 
G01 Z-0.0350 F254   
G01 X14.3946 Y25.1240 F508   
G01 X14.3946 Y25.2760 
G01 X15.0313 Y25.2760 
G01 X15.0445 Y25.2815 
G01 X15.0330 Y25.2386 
G01 X15.0330 Y25.1615 
G01 X15.0434 Y25.1224 
G01 X15.0445 Y25.1186 
G01 X15.0313 Y25.1240 
G00 Z2.5400  
G00 X13.2152 Y25.1240 
G01 Z-0.0350 F254   
G01 X13.2152 Y25.2760 F508   
G01 X13.8090 Y25.2760 
G01 X13.8090 Y25.1240 
G01 X13.2152 Y25.1240 
G00 Z2.5400  
G00 X13.2152 Y27.1568 
G01 Z-0.0350 F254   
G01 X13.2152 Y27.2286 F508   
G01 X13.2215 Y27.2177 
G01 X13.2760 Y27.1631 
G01 X13.2869 Y27.1568 
G01 X13.2152 Y27.1568 
G00 Z2.5400  
G00 X15.1437 Y28.7676 
G01 Z-0.0350 F254   
G01 X15.2155 Y28.7676 F508   
G01 X15.2046 Y28.7613 
G01 X15.1500 Y28.7068 
G01 X15.1437 Y28.6959 
G01 X15.1437 Y28.7676 
G00 Z2.5400  
G00 X52.3201 Y55.2691 
G01 Z-0.0350 F254   
G01 X52.3201 Y55.1973 F508   
G01 X52.3138 Y55.2083 
G01 X52.2593 Y55.2628 
G01 X52.2483 Y55.2691 
G01 X52.3201 Y55.2691 
G00 Z2.5400  
G00 X23.7572 Y22.0143 
G01 Z-0.0350 F254   
G01 X23.6855 Y22.0143 F508   
G01 X23.6964 Y22.0206 
G01 X23.7509 Y22.0751 
G01 X23.7572 Y22.0860 
G01 X23.7572 Y22.0143 
G00 Z2.5400  
G00 X23.7572 Y19.2418 
G01 Z-0.0350 F254   
G01 X23.6855 Y19.2418 F508   
G01 X23.6964 Y19.2481 
G01 X23.7509 Y19.3026 
G01 X23.7572 Y19.3135 
G01 X23.7572 Y19.2418 
G00 Z2.5400  
G00 X24.3428 Y19.9305 
G01 Z-0.0350 F254   
G01 X24.4145 Y19.9305 F508   
G01 X24.4036 Y19.9242 
G01 X24.3491 Y19.8697 
G01 X24.3428 Y19.8588 
G01 X24.3428 Y19.9305 
G00 Z2.5400  
G00 X52.3809 Y52.4029 
G01 Z-0.0350 F254   
G01 X52.4195 Y52.3869 F508   
G01 X52.3809 Y52.3709 
G01 X52.3723 Y52.3622 
G01 X52.3723 Y52.4115 
G01 X52.3809 Y52.4029 
G00 Z2.5400  
G00 X54.0400 Y52.3709 
G01 Z-0.0350 F254   
G01 X54.0014 Y52.3869 F508   
G01 X54.0400 Y52.4029 
G01 X54.0487 Y52.4115 
G01 X54.0487 Y52.3622 
G01 X54.0400 Y52.3709 
G00 Z2.5400  
G00 X54.0400 Y53.6409 
G01 Z-0.0350 F254   
G01 X54.0014 Y53.6569 F508   
G01 X54.0400 Y53.6729 
G01 X54.0487 Y53.6815 
G01 X54.0487 Y53.6322 
G01 X54.0400 Y53.6409 
G00 Z2.5400  
G00 X54.0400 Y54.9109 
G01 Z-0.0350 F254   
G01 X54.0014 Y54.9269 F508   
G01 X54.0400 Y54.9429 
G01 X54.0487 Y54.9515 
G01 X54.0487 Y54.9022 
G01 X54.0400 Y54.9109 
G00 Z2.5400  
G00 X54.0400 Y56.1809 
G01 Z-0.0350 F254   
G01 X54.0014 Y56.1969 F508   
G01 X54.0400 Y56.2129 
G01 X54.0487 Y56.2215 
G01 X54.0487 Y56.1722 
G01 X54.0400 Y56.1809 
G00 Z2.5400  
G00 X54.0400 Y57.4509 
G01 Z-0.0350 F254   
G01 X54.0014 Y57.4669 F508   
G01 X54.0400 Y57.4829 
G01 X54.0487 Y57.4915 
G01 X54.0487 Y57.4422 
G01 X54.0400 Y57.4509 
G00 Z2.5400  
G00 X54.0400 Y58.7209 
G01 Z-0.0350 F254   
G01 X54.0014 Y58.7369 F508   
G01 X54.0400 Y58.7529 
G01 X54.0487 Y58.7615 
G01 X54.0487 Y58.7122 
G01 X54.0400 Y58.7209 
G00 Z2.5400  
G00 X54.0400 Y59.9909 
G01 Z-0.0350 F254   
G01 X54.0014 Y60.0069 F508   
G01 X54.0400 Y60.0229 
G01 X54.0487 Y60.0315 
G01 X54.0487 Y59.9822 
G01 X54.0400 Y59.9909 
G00 Z2.5400  
G00 X54.0400 Y61.2609 
G01 Z-0.0350 F254   
G01 X54.0014 Y61.2769 F508   
G01 X54.0400 Y61.2929 
G01 X54.0487 Y61.3015 
G01 X54.0487 Y61.2522 
G01 X54.0400 Y61.2609 
G00 Z2.5400  
G00 X54.0400 Y62.5309 
G01 Z-0.0350 F254   
G01 X54.0014 Y62.5469 F508   
G01 X54.0400 Y62.5629 
G01 X54.0487 Y62.5715 
G01 X54.0487 Y62.5222 
G01 X54.0400 Y62.5309 
G00 Z2.5400  
G00 X54.0400 Y63.8009 
G01 Z-0.0350 F254   
G01 X54.0014 Y63.8169 F508   
G01 X54.0400 Y63.8329 
G01 X54.0487 Y63.8415 
G01 X54.0487 Y63.7922 
G01 X54.0400 Y63.8009 
G00 Z2.5400  
G00 X54.0400 Y65.0709 
G01 Z-0.0350 F254   
G01 X54.0014 Y65.0869 F508   
G01 X54.0400 Y65.1029 
G01 X54.0487 Y65.1115 
G01 X54.0487 Y65.0622 
G01 X54.0400 Y65.0709 
G00 Z2.5400  
G00 X52.3201 Y53.8898 
G01 Z-0.0350 F254   
G01 X52.3201 Y53.7640 F508   
G01 X52.3415 Y53.7124 
G01 X52.3809 Y53.6729 
G01 X52.4195 Y53.6569 
G01 X52.3809 Y53.6409 
G01 X52.3415 Y53.6014 
G01 X52.3201 Y53.5498 
G01 X52.3201 Y53.4778 
G01 X52.3138 Y53.4887 
G01 X52.2593 Y53.5432 
G01 X52.1925 Y53.5818 
G01 X52.1180 Y53.6017 
G01 X52.0409 Y53.6017 
G01 X52.0288 Y53.5985 
G01 X52.3201 Y53.8898 
G00 Z2.5400  
G00 X24.3428 Y22.0143 
G01 Z-0.0350 F254   
G01 X24.3428 Y22.0860 F508   
G01 X24.3491 Y22.0751 
G01 X24.4036 Y22.0206 
G01 X24.4145 Y22.0143 
G01 X24.3428 Y22.0143 
G00 Z2.5400  
G00 X23.7572 Y15.8080 
G01 Z-0.0350 F254   
G01 X23.7572 Y15.7363 F508   
G01 X23.7509 Y15.7472 
G01 X23.6964 Y15.8017 
G01 X23.6855 Y15.8080 
G01 X23.7572 Y15.8080 
G00 Z2.5400  
G00 X23.7572 Y19.9305 
G01 Z-0.0350 F254   
G01 X23.7572 Y19.8587 F508   
G01 X23.7509 Y19.8697 
G01 X23.6964 Y19.9242 
G01 X23.6855 Y19.9305 
G01 X23.7572 Y19.9305 
G00 Z2.5400  
G00 X52.3201 Y54.5847 
G01 Z-0.0350 F254   
G01 X52.2695 Y54.5847 F508   
G01 X52.2573 Y54.5814 
G01 X52.3138 Y54.6378 
G01 X52.3201 Y54.6488 
G01 X52.3201 Y54.5847 
G00 Z2.5400  
G00 X52.3809 Y54.9429 
G01 Z-0.0350 F254   
G01 X52.4195 Y54.9269 F508   
G01 X52.3809 Y54.9109 
G01 X52.3723 Y54.9022 
G01 X52.3723 Y54.9515 
G01 X52.3809 Y54.9429 
G00 Z2.5400  
G00 X13.0599 Y28.7676 
G01 Z-0.0350 F254   
G01 X13.0599 Y28.6959 F508   
G01 X13.0536 Y28.7068 
G01 X12.9991 Y28.7613 
G01 X12.9882 Y28.7676 
G01 X13.0599 Y28.7676 
G00 Z2.5400  
G00 X9.9080  Y27.5522 
G01 Z-0.0350 F254   
G01 X9.8809  Y27.5468 F508   
G01 X9.8706  Y27.5426 
G01 X9.8706  Y27.6558 
G01 X10.0584 Y27.8435 
G01 X10.0552 Y27.8314 
G01 X10.0552 Y27.7543 
G01 X10.0751 Y27.6798 
G01 X10.1137 Y27.6130 
G01 X10.1682 Y27.5585 
G01 X10.1791 Y27.5522 
G01 X9.9080  Y27.5522 
G00 Z2.5400  
G00 X13.2152 Y22.2800 
G01 Z-0.0350 F254   
G01 X13.2152 Y22.5042 F508   
G01 X13.2215 Y22.4933 
G01 X13.2760 Y22.4387 
G01 X13.3428 Y22.4002 
G01 X13.4173 Y22.3802 
G01 X13.6567 Y22.3802 
G01 X13.6567 Y22.2800 
G01 X13.2152 Y22.2800 
G00 Z2.5400  
G00 X15.4561 Y21.9018 
G01 Z-0.0350 F254   
G01 X15.4561 Y20.0430 F508   
G01 X15.4775 Y19.9914 
G01 X15.5170 Y19.9519 
G01 X15.5686 Y19.9305 
G01 X15.9513 Y19.9305 
G01 X15.9513 Y19.8303 
G01 X15.5648 Y19.8303 
G01 X15.5036 Y19.8467 
G01 X15.4488 Y19.8784 
G01 X15.4040 Y19.9232 
G01 X15.3723 Y19.9780 
G01 X15.3559 Y20.0392 
G01 X15.3559 Y20.0448 
G01 X15.3368 Y20.1161 
G01 X15.3360 Y20.1193 
G01 X15.2974 Y20.1860 
G01 X15.2429 Y20.2405 
G01 X15.1761 Y20.2791 
G01 X15.1017 Y20.2990 
G01 X15.0246 Y20.2990 
G01 X14.5470 Y20.2990 
G01 X14.5470 Y20.3992 
G01 X15.0313 Y20.3992 
G01 X15.0829 Y20.4206 
G01 X15.1224 Y20.4601 
G01 X15.1437 Y20.5117 
G01 X15.1437 Y22.1676 
G01 X15.1224 Y22.2192 
G01 X15.0829 Y22.2587 
G01 X15.0313 Y22.2800 
G01 X14.5470 Y22.2800 
G01 X14.5470 Y22.3802 
G01 X15.0350 Y22.3802 
G01 X15.0962 Y22.3638 
G01 X15.1511 Y22.3322 
G01 X15.1959 Y22.2874 
G01 X15.2001 Y22.2800 
G01 X15.2270 Y22.2334 
G01 X15.2387 Y22.2132 
G01 X15.2924 Y22.1595 
G01 X15.3285 Y22.1384 
G01 X15.3600 Y22.1202 
G01 X15.3737 Y22.1165 
G01 X15.4344 Y22.1002 
G01 X15.5115 Y22.1002 
G01 X15.5648 Y22.1145 
G01 X15.9513 Y22.1145 
G01 X15.9513 Y22.0143 
G01 X15.5686 Y22.0143 
G01 X15.5170 Y21.9929 
G01 X15.4775 Y21.9534 
G01 X15.4561 Y21.9018 
G00 Z2.5400  
G00 X17.2282 Y22.1145 
G01 Z-0.0350 F254   
G01 X17.2894 Y22.0981 F508   
G01 X17.3442 Y22.0664 
G01 X17.3890 Y22.0216 
G01 X17.4207 Y21.9668 
G01 X17.4371 Y21.9056 
G01 X17.4371 Y21.4176 
G01 X17.3369 Y21.4176 
G01 X17.3369 Y21.9018 
G01 X17.3155 Y21.9534 
G01 X17.2760 Y21.9929 
G01 X17.2244 Y22.0143 
G01 X16.8417 Y22.0143 
G01 X16.8417 Y22.1145 
G01 X17.2282 Y22.1145 
G00 Z2.5400  
G00 X85.7192 Y46.6544 
G01 Z-0.0350 F254   
G01 X86.0616 Y46.9968 F508   
G01 X86.1324 Y46.9259 
G01 X85.7874 Y46.5809 
G01 X85.7325 Y46.5492 
G01 X85.6713 Y46.5328 
G01 X85.6080 Y46.5328 
G01 X85.5468 Y46.5492 
G01 X85.4919 Y46.5809 
G01 X85.2186 Y46.8542 
G01 X85.2895 Y46.9250 
G01 X85.5601 Y46.6544 
G01 X85.6117 Y46.6330 
G01 X85.6676 Y46.6330 
G01 X85.7192 Y46.6544 
G00 Z2.5400  
G00 X87.0336 Y47.9688 
G01 Z-0.0350 F254   
G01 X87.0550 Y48.0204 F508   
G01 X87.0550 Y48.0763 
G01 X87.0336 Y48.1279 
G01 X86.7629 Y48.3985 
G01 X86.8338 Y48.4693 
G01 X87.1071 Y48.1960 
G01 X87.1388 Y48.1412 
G01 X87.1552 Y48.0800 
G01 X87.1552 Y48.0166 
G01 X87.1388 Y47.9554 
G01 X87.1071 Y47.9006 
G01 X86.7620 Y47.5555 
G01 X86.6912 Y47.6264 
G01 X87.0336 Y47.9688 
G00 Z2.5400  
G00 X36.2609 Y57.3014 
G01 Z-0.0350 F254   
G01 X36.2609 Y57.9890 F508   
G01 X38.8153 Y57.9890 
G01 X38.8134 Y57.9794 
G01 X38.8134 Y57.8564 
G01 X38.8374 Y57.7358 
G01 X38.8844 Y57.6221 
G01 X38.9528 Y57.5199 
G01 X39.0397 Y57.4329 
G01 X39.1370 Y57.3679 
G01 X39.0397 Y57.3029 
G01 X38.9528 Y57.2159 
G01 X38.8844 Y57.1137 
G01 X38.8832 Y57.1107 
G01 X36.6216 Y57.1107 
G01 X36.5471 Y57.0907 
G01 X36.4803 Y57.0522 
G01 X36.4258 Y56.9977 
G01 X36.3258 Y56.8976 
G01 X36.3290 Y56.9098 
G01 X36.3290 Y56.9869 
G01 X36.3091 Y57.0613 
G01 X36.2714 Y57.1266 
G01 X36.2160 Y57.1826 
G01 X36.1886 Y57.1984 
G01 X36.1814 Y57.2026 
G01 X36.2001 Y57.2103 
G01 X36.2396 Y57.2498 
G01 X36.2609 Y57.3014 
G00 Z2.5400  
G00 X36.2609 Y58.6464 
G01 Z-0.0350 F254   
G01 X36.2672 Y58.6354 F508   
G01 X36.3218 Y58.5809 
G01 X36.3327 Y58.5746 
G01 X36.2609 Y58.5746 
G01 X36.2609 Y58.6464 
G00 Z2.5400  
G00 X52.3809 Y57.4829 
G01 Z-0.0350 F254   
G01 X52.4195 Y57.4669 F508   
G01 X52.3809 Y57.4509 
G01 X52.3723 Y57.4422 
G01 X52.3723 Y57.4915 
G01 X52.3809 Y57.4829 
G00 Z2.5400  
G00 X41.6798 Y56.4722 
G01 Z-0.0350 F254   
G01 X41.6798 Y56.4534 F508   
G01 X41.6735 Y56.4643 
G01 X41.6190 Y56.5188 
G01 X41.6081 Y56.5251 
G01 X41.6269 Y56.5251 
G01 X41.6798 Y56.4722 
G00 Z2.5400  
G00 X52.3201 Y57.7373 
G01 Z-0.0350 F254   
G01 X52.3138 Y57.7483 F508   
G01 X52.2593 Y57.8028 
G01 X52.2483 Y57.8091 
G01 X52.3201 Y57.8091 
G01 X52.3201 Y57.7373 
G00 Z2.5400  
G00 X39.9911 Y57.1137 
G01 Z-0.0350 F254   
G01 X39.9228 Y57.2159 F508   
G01 X39.8358 Y57.3029 
G01 X39.7385 Y57.3679 
G01 X39.8358 Y57.4329 
G01 X39.9228 Y57.5199 
G01 X39.9911 Y57.6221 
G01 X39.9923 Y57.6251 
G01 X41.7868 Y57.6251 
G01 X41.8612 Y57.6450 
G01 X41.9280 Y57.6836 
G01 X41.9825 Y57.7381 
G01 X42.0939 Y57.8495 
G01 X43.6511 Y57.8495 
G01 X43.7027 Y57.8709 
G01 X43.7422 Y57.9104 
G01 X43.7636 Y57.9620 
G01 X43.7636 Y59.0791 
G01 X52.3201 Y59.0791 
G01 X52.3201 Y58.8440 
G01 X52.3415 Y58.7924 
G01 X52.3809 Y58.7529 
G01 X52.4195 Y58.7369 
G01 X52.3809 Y58.7209 
G01 X52.3415 Y58.6814 
G01 X52.3201 Y58.6298 
G01 X52.3201 Y58.3947 
G01 X44.9407 Y58.3947 
G01 X44.8662 Y58.3747 
G01 X44.7994 Y58.3362 
G01 X44.7449 Y58.2817 
G01 X43.3495 Y56.8863 
G01 X42.0939 Y56.8863 
G01 X41.9825 Y56.9977 
G01 X41.9280 Y57.0522 
G01 X41.8612 Y57.0907 
G01 X41.7868 Y57.1107 
G01 X39.9923 Y57.1107 
G01 X39.9911 Y57.1137 
G00 Z2.5400  
G00 X41.6190 Y58.2170 
G01 Z-0.0350 F254   
G01 X41.6735 Y58.2715 F508   
G01 X41.6798 Y58.2824 
G01 X41.6798 Y58.2636 
G01 X41.6269 Y58.2107 
G01 X41.6081 Y58.2107 
G01 X41.6190 Y58.2170 
G00 Z2.5400  
G00 X52.2593 Y59.6710 
G01 Z-0.0350 F254   
G01 X52.3138 Y59.7255 F508   
G01 X52.3201 Y59.7364 
G01 X52.3201 Y59.6647 
G01 X52.2483 Y59.6647 
G01 X52.2593 Y59.6710 
G00 Z2.5400  
G00 X83.8852 Y67.8535 
G01 Z-0.0350 F254   
G01 X83.9016 Y67.9147 F508   
G01 X83.9333 Y67.9696 
G01 X83.9781 Y68.0144 
G01 X84.0329 Y68.0461 
G01 X84.0941 Y68.0625 
G01 X84.9506 Y68.0625 
G01 X84.9506 Y67.9623 
G01 X84.0979 Y67.9623 
G01 X84.0463 Y67.9409 
G01 X84.0068 Y67.9014 
G01 X83.9854 Y67.8498 
G01 X83.9854 Y67.6320 
G01 X83.8852 Y67.6320 
G01 X83.8852 Y67.8535 
G00 Z2.5400  
G00 X53.9921 Y69.0025 
G01 Z-0.0350 F254   
G01 X54.0533 Y68.9861 F508   
G01 X54.1082 Y68.9544 
G01 X54.1530 Y68.9096 
G01 X54.1847 Y68.8548 
G01 X54.2011 Y68.7936 
G01 X54.2011 Y68.6523 
G01 X54.1009 Y68.6523 
G01 X54.1009 Y68.7898 
G01 X54.0795 Y68.8414 
G01 X54.0400 Y68.8809 
G01 X53.9884 Y68.9023 
G01 X53.6009 Y68.9023 
G01 X53.6009 Y69.0025 
G01 X53.9921 Y69.0025 
G00 Z2.5400  
G00 X52.2199 Y67.8715 
G01 Z-0.0350 F254   
G01 X52.3201 Y67.8715 F508   
G01 X52.3201 Y67.7340 
G01 X52.3415 Y67.6824 
G01 X52.3809 Y67.6429 
G01 X52.4195 Y67.6269 
G01 X52.3809 Y67.6109 
G01 X52.3415 Y67.5714 
G01 X52.3201 Y67.5198 
G01 X52.3201 Y67.2847 
G01 X52.1500 Y67.2847 
G01 X52.1609 Y67.2910 
G01 X52.1789 Y67.3089 
G01 X52.2155 Y67.3455 
G01 X52.2296 Y67.3700 
G01 X52.2540 Y67.4123 
G01 X52.2614 Y67.4400 
G01 X52.2740 Y67.4867 
G01 X52.2740 Y67.5249 
G01 X52.2740 Y67.5638 
G01 X52.2654 Y67.5958 
G01 X52.2540 Y67.6383 
G01 X52.2451 Y67.6537 
G01 X52.2363 Y67.6690 
G01 X52.2199 Y67.7302 
G01 X52.2199 Y67.8715 
G00 Z2.5400  
G00 X50.9092 Y67.4867 
G01 Z-0.0350 F254   
G01 X50.9291 Y67.4123 F508   
G01 X50.9676 Y67.3455 
G01 X51.0222 Y67.2910 
G01 X51.0331 Y67.2847 
G01 X50.7728 Y67.2847 
G01 X50.7876 Y67.2994 
G01 X50.8090 Y67.3510 
G01 X50.8090 Y67.6958 
G01 X50.9092 Y67.6958 
G01 X50.9092 Y67.4867 
G00 Z2.5400  
G00 X48.1420 Y68.9346 
G01 Z-0.0350 F254   
G01 X48.1583 Y68.9958 F508   
G01 X48.1900 Y69.0507 
G01 X48.2348 Y69.0955 
G01 X48.2897 Y69.1272 
G01 X48.3509 Y69.1436 
G01 X49.0804 Y69.1436 
G01 X49.0804 Y69.0434 
G01 X48.3546 Y69.0434 
G01 X48.3030 Y69.0220 
G01 X48.2635 Y68.9825 
G01 X48.2422 Y68.9309 
G01 X48.2422 Y68.5862 
G01 X48.1420 Y68.5862 
G01 X48.1420 Y68.9346 
G00 Z2.5400  
G00 X48.2422 Y67.6958 
G01 Z-0.0350 F254   
G01 X48.2422 Y67.3510 F508   
G01 X48.2635 Y67.2994 
G01 X48.2783 Y67.2847 
G01 X48.0180 Y67.2847 
G01 X48.0289 Y67.2910 
G01 X48.0834 Y67.3455 
G01 X48.1220 Y67.4123 
G01 X48.1420 Y67.4867 
G01 X48.1420 Y67.6958 
G01 X48.2422 Y67.6958 
G00 Z2.5400  
G00 X44.0962 Y69.1436 
G01 Z-0.0350 F254   
G01 X44.1574 Y69.1272 F508   
G01 X44.2123 Y69.0955 
G01 X44.2571 Y69.0507 
G01 X44.2888 Y68.9958 
G01 X44.3052 Y68.9346 
G01 X44.3052 Y68.5862 
G01 X44.2050 Y68.5862 
G01 X44.2050 Y68.9309 
G01 X44.1836 Y68.9825 
G01 X44.1441 Y69.0220 
G01 X44.0925 Y69.0434 
G01 X43.3667 Y69.0434 
G01 X43.3667 Y69.1436 
G01 X44.0962 Y69.1436 
G00 Z2.5400  
G00 X37.6580 Y66.8515 
G01 Z-0.0350 F254   
G01 X37.5863 Y66.8515 F508   
G01 X37.5972 Y66.8578 
G01 X37.6517 Y66.9123 
G01 X37.6580 Y66.9232 
G01 X37.6580 Y66.8515 
G00 Z2.5400  
G00 X33.8427 Y66.8515 
G01 Z-0.0350 F254   
G01 X33.7709 Y66.8515 F508   
G01 X33.7818 Y66.8578 
G01 X33.8364 Y66.9123 
G01 X33.8427 Y66.9232 
G01 X33.8427 Y66.8515 
G00 Z2.5400  
G00 X11.9991 Y60.0100 
G01 Z-0.0350 F254   
G01 X11.9273 Y60.0100 F508   
G01 X11.9382 Y60.0163 
G01 X11.9928 Y60.0708 
G01 X11.9991 Y60.0818 
G01 X11.9991 Y60.0100 
G00 Z2.5400  
G00 X8.1628  Y60.0130 
G01 Z-0.0350 F254   
G01 X8.0911  Y60.0130 F508   
G01 X8.1020  Y60.0193 
G01 X8.1565  Y60.0738 
G01 X8.1628  Y60.0847 
G01 X8.1628  Y60.0130 
G00 Z2.5400  
G00 X7.6170  Y59.4274 
G01 Z-0.0350 F254   
G01 X7.6887  Y59.4274 F508   
G01 X7.6778  Y59.4211 
G01 X7.6233  Y59.3666 
G01 X7.6170  Y59.3556 
G01 X7.6170  Y59.4274 
G00 Z2.5400  
G00 X10.3486 Y59.4244 
G01 Z-0.0350 F254   
G01 X10.4203 Y59.4244 F508   
G01 X10.4094 Y59.4181 
G01 X10.3549 Y59.3636 
G01 X10.3486 Y59.3527 
G01 X10.3486 Y59.4244 
G00 Z2.5400  
G00 X14.1849 Y59.4244 
G01 Z-0.0350 F254   
G01 X14.2566 Y59.4244 F508   
G01 X14.2457 Y59.4181 
G01 X14.1912 Y59.3636 
G01 X14.1849 Y59.3527 
G01 X14.1849 Y59.4244 
G00 Z2.5400  
G00 X16.9269 Y58.1524 
G01 Z-0.0350 F254   
G01 X16.8657 Y58.1688 F508   
G01 X16.8108 Y58.2005 
G01 X16.7660 Y58.2453 
G01 X16.7344 Y58.3001 
G01 X16.7180 Y58.3613 
G01 X16.7180 Y58.7606 
G01 X16.8182 Y58.7606 
G01 X16.8182 Y58.3651 
G01 X16.8395 Y58.3135 
G01 X16.8790 Y58.2740 
G01 X16.9306 Y58.2526 
G01 X16.9452 Y58.2526 
G01 X16.9452 Y58.1524 
G01 X16.9269 Y58.1524 
G00 Z2.5400  
G00 X27.2794 Y65.3400 
G01 Z-0.0350 F254   
G01 X27.2794 Y65.2683 F508   
G01 X27.2731 Y65.2792 
G01 X27.2186 Y65.3337 
G01 X27.2077 Y65.3400 
G01 X27.2794 Y65.3400 
G00 Z2.5400  
G00 X18.0584 Y65.3400 
G01 Z-0.0350 F254   
G01 X18.1301 Y65.3400 F508   
G01 X18.1192 Y65.3337 
G01 X18.0647 Y65.2792 
G01 X18.0584 Y65.2683 
G01 X18.0584 Y65.3400 
G00 Z2.5400  
G00 X17.6102 Y59.9380 
G01 Z-0.0350 F254   
G01 X17.6651 Y59.9063 F508   
G01 X17.7099 Y59.8615 
G01 X17.7416 Y59.8067 
G01 X17.7580 Y59.7455 
G01 X17.7580 Y59.3462 
G01 X17.6578 Y59.3462 
G01 X17.6578 Y59.7417 
G01 X17.6364 Y59.7933 
G01 X17.5969 Y59.8328 
G01 X17.5453 Y59.8542 
G01 X16.9306 Y59.8542 
G01 X16.8790 Y59.8328 
G01 X16.8395 Y59.7933 
G01 X16.8182 Y59.7417 
G01 X16.8182 Y59.3462 
G01 X16.7180 Y59.3462 
G01 X16.7180 Y59.4044 
G01 X16.6989 Y59.4757 
G01 X16.6980 Y59.4789 
G01 X16.6595 Y59.5456 
G01 X16.6050 Y59.6002 
G01 X16.5382 Y59.6387 
G01 X16.4637 Y59.6587 
G01 X16.3866 Y59.6587 
G01 X16.3744 Y59.6554 
G01 X17.0170 Y60.2979 
G01 X17.0137 Y60.2857 
G01 X17.0137 Y60.2086 
G01 X17.0337 Y60.1342 
G01 X17.0722 Y60.0674 
G01 X17.1267 Y60.0129 
G01 X17.1935 Y59.9744 
G01 X17.2680 Y59.9544 
G01 X17.5490 Y59.9544 
G01 X17.6102 Y59.9380 
G00 Z2.5400  
G00 X17.7580 Y58.3613 
G01 Z-0.0350 F254   
G01 X17.7416 Y58.3001 F508   
G01 X17.7099 Y58.2453 
G01 X17.6651 Y58.2005 
G01 X17.6102 Y58.1688 
G01 X17.5490 Y58.1524 
G01 X17.5308 Y58.1524 
G01 X17.5308 Y58.2526 
G01 X17.5453 Y58.2526 
G01 X17.5969 Y58.2740 
G01 X17.6364 Y58.3135 
G01 X17.6578 Y58.3651 
G01 X17.6578 Y58.7606 
G01 X17.7580 Y58.7606 
G01 X17.7580 Y58.3613 
G00 Z2.5400  
G00 X14.9386 Y59.4244 
G01 Z-0.0350 F254   
G01 X14.9386 Y59.3527 F508   
G01 X14.9323 Y59.3636 
G01 X14.8778 Y59.4181 
G01 X14.8668 Y59.4244 
G01 X14.9386 Y59.4244 
G00 Z2.5400  
G00 X11.9991 Y59.4244 
G01 Z-0.0350 F254   
G01 X11.9991 Y59.3527 F508   
G01 X11.9928 Y59.3636 
G01 X11.9382 Y59.4181 
G01 X11.9273 Y59.4244 
G01 X11.9991 Y59.4244 
G00 Z2.5400  
G00 X8.1628  Y59.4274 
G01 Z-0.0350 F254   
G01 X8.1628  Y59.3556 F508   
G01 X8.1565  Y59.3666 
G01 X8.1020  Y59.4211 
G01 X8.0911  Y59.4274 
G01 X8.1628  Y59.4274 
G00 Z2.5400  
G00 X7.6170  Y60.0130 
G01 Z-0.0350 F254   
G01 X7.6170  Y60.0847 F508   
G01 X7.6233  Y60.0738 
G01 X7.6778  Y60.0193 
G01 X7.6887  Y60.0130 
G01 X7.6170  Y60.0130 
G00 Z2.5400  
G00 X10.3486 Y60.0100 
G01 Z-0.0350 F254   
G01 X10.3486 Y60.0818 F508   
G01 X10.3549 Y60.0708 
G01 X10.4094 Y60.0163 
G01 X10.4203 Y60.0100 
G01 X10.3486 Y60.0100 
G00 Z2.5400  
G00 X14.1849 Y60.0100 
G01 Z-0.0350 F254   
G01 X14.1849 Y60.0818 F508   
G01 X14.1912 Y60.0708 
G01 X14.2457 Y60.0163 
G01 X14.2566 Y60.0100 
G01 X14.1849 Y60.0100 
G00 Z2.5400  
G00 X36.0285 Y66.8515 
G01 Z-0.0350 F254   
G01 X36.0285 Y66.9232 F508   
G01 X36.0348 Y66.9123 
G01 X36.0893 Y66.8578 
G01 X36.1002 Y66.8515 
G01 X36.0285 Y66.8515 
G00 Z2.5400  
G00 X41.6382 Y67.6958 
G01 Z-0.0350 F254   
G01 X41.6382 Y67.3510 F508   
G01 X41.6595 Y67.2994 
G01 X41.6743 Y67.2847 
G01 X41.4140 Y67.2847 
G01 X41.4249 Y67.2910 
G01 X41.4794 Y67.3455 
G01 X41.5180 Y67.4123 
G01 X41.5380 Y67.4867 
G01 X41.5380 Y67.6958 
G01 X41.6382 Y67.6958 
G00 Z2.5400  
G00 X41.5380 Y68.9346 
G01 Z-0.0350 F254   
G01 X41.5543 Y68.9958 F508   
G01 X41.5860 Y69.0507 
G01 X41.6308 Y69.0955 
G01 X41.6857 Y69.1272 
G01 X41.7469 Y69.1436 
G01 X42.4764 Y69.1436 
G01 X42.4764 Y69.0434 
G01 X41.7506 Y69.0434 
G01 X41.6990 Y69.0220 
G01 X41.6595 Y68.9825 
G01 X41.6382 Y68.9309 
G01 X41.6382 Y68.5862 
G01 X41.5380 Y68.5862 
G01 X41.5380 Y68.9346 
G00 Z2.5400  
G00 X44.3052 Y67.4867 
G01 Z-0.0350 F254   
G01 X44.3251 Y67.4123 F508   
G01 X44.3636 Y67.3455 
G01 X44.4182 Y67.2910 
G01 X44.4291 Y67.2847 
G01 X44.1688 Y67.2847 
G01 X44.1836 Y67.2994 
G01 X44.2050 Y67.3510 
G01 X44.2050 Y67.6958 
G01 X44.3052 Y67.6958 
G01 X44.3052 Y67.4867 
G00 Z2.5400  
G00 X50.7002 Y69.1436 
G01 Z-0.0350 F254   
G01 X50.7614 Y69.1272 F508   
G01 X50.8163 Y69.0955 
G01 X50.8611 Y69.0507 
G01 X50.8928 Y68.9958 
G01 X50.9092 Y68.9346 
G01 X50.9092 Y68.5862 
G01 X50.8090 Y68.5862 
G01 X50.8090 Y68.9309 
G01 X50.7876 Y68.9825 
G01 X50.7481 Y69.0220 
G01 X50.6965 Y69.0434 
G01 X49.9707 Y69.0434 
G01 X49.9707 Y69.1436 
G01 X50.7002 Y69.1436 
G00 Z2.5400  
G00 X52.2199 Y68.7936 
G01 Z-0.0350 F254   
G01 X52.2363 Y68.8548 F508   
G01 X52.2679 Y68.9096 
G01 X52.3127 Y68.9544 
G01 X52.3676 Y68.9861 
G01 X52.4288 Y69.0025 
G01 X52.8201 Y69.0025 
G01 X52.8201 Y68.9023 
G01 X52.4325 Y68.9023 
G01 X52.3809 Y68.8809 
G01 X52.3415 Y68.8414 
G01 X52.3201 Y68.7898 
G01 X52.3201 Y68.6523 
G01 X52.2199 Y68.6523 
G01 X52.2199 Y68.7936 
G00 Z2.5400  
G00 X54.2011 Y67.7302 
G01 Z-0.0350 F254   
G01 X54.1847 Y67.6690 F508   
G01 X54.1530 Y67.6142 
G01 X54.1072 Y67.5683 
G01 X54.0918 Y67.5417 
G01 X54.0795 Y67.5714 
G01 X54.0400 Y67.6109 
G01 X54.0014 Y67.6269 
G01 X54.0400 Y67.6429 
G01 X54.0795 Y67.6824 
G01 X54.1009 Y67.7340 
G01 X54.1009 Y67.8715 
G01 X54.2011 Y67.8715 
G01 X54.2011 Y67.7302 
G00 Z2.5400  
G00 X86.6975 Y68.0625 
G01 Z-0.0350 F254   
G01 X86.7587 Y68.0461 F508   
G01 X86.8135 Y68.0144 
G01 X86.8583 Y67.9696 
G01 X86.8900 Y67.9147 
G01 X86.9064 Y67.8535 
G01 X86.9064 Y67.6320 
G01 X86.8062 Y67.6320 
G01 X86.8062 Y67.8498 
G01 X86.7848 Y67.9014 
G01 X86.7453 Y67.9409 
G01 X86.6937 Y67.9623 
G01 X85.8410 Y67.9623 
G01 X85.8410 Y68.0625 
G01 X86.6975 Y68.0625 
G00 Z2.5400  
G00 X3.3432  Y57.4648 
G01 Z-0.0350 F254   
G01 X3.3541  Y57.4711 F508   
G01 X3.4086  Y57.5256 
G01 X3.4149  Y57.5366 
G01 X3.4149  Y57.4648 
G01 X3.3432  Y57.4648 
G00 Z2.5400  
G00 X3.4086  Y58.6175 
G01 Z-0.0350 F254   
G01 X3.3541  Y58.6720 F508   
G01 X3.3432  Y58.6783 
G01 X3.4149  Y58.6783 
G01 X3.4149  Y58.6065 
G01 X3.4086  Y58.6175 
G00 Z2.5400  
G00 X4.0722  Y58.6783 
G01 Z-0.0350 F254   
G01 X4.0613  Y58.6720 F508   
G01 X4.0068  Y58.6175 
G01 X4.0005  Y58.6065 
G01 X4.0005  Y58.6783 
G01 X4.0722  Y58.6783 
G00 Z2.5400  
G00 X4.0068  Y57.5256 
G01 Z-0.0350 F254   
G01 X4.0613  Y57.4711 F508   
G01 X4.0722  Y57.4648 
G01 X4.0005  Y57.4648 
G01 X4.0005  Y57.5365 
G01 X4.0068  Y57.5256 
G00 Z2.5400  
G00 X5.7200  Y55.2808 
G01 Z-0.0350 F254   
G01 X5.6588  Y55.2972 F508   
G01 X5.6040  Y55.3289 
G01 X5.5592  Y55.3737 
G01 X5.5275  Y55.4285 
G01 X5.5111  Y55.4897 
G01 X5.5111  Y55.9777 
G01 X5.6113  Y55.9777 
G01 X5.6113  Y55.4935 
G01 X5.6327  Y55.4419 
G01 X5.6722  Y55.4024 
G01 X5.7238  Y55.3810 
G01 X6.1065  Y55.3810 
G01 X6.1065  Y55.2808 
G01 X5.7200  Y55.2808 
G00 Z2.5400  
G00 X8.2715  Y55.5396 
G01 Z-0.0350 F254   
G01 X8.2103  Y55.5560 F508   
G01 X8.1555  Y55.5877 
G01 X8.1179  Y55.6253 
G01 X8.0642  Y55.6790 
G01 X8.0160  Y55.7072 
G01 X7.9966  Y55.7184 
G01 X7.9629  Y55.7274 
G01 X7.9221  Y55.7383 
G01 X7.8450  Y55.7383 
G01 X7.8060  Y55.7278 
G01 X7.7706  Y55.7184 
G01 X7.7038  Y55.6798 
G01 X7.6501  Y55.6261 
G01 X7.6219  Y55.5779 
G01 X7.6107  Y55.5585 
G01 X7.5940  Y55.4961 
G01 X7.5908  Y55.4841 
G01 X7.5759  Y55.4285 
G01 X7.5442  Y55.3737 
G01 X7.4994  Y55.3289 
G01 X7.4446  Y55.2972 
G01 X7.3834  Y55.2808 
G01 X6.9969  Y55.2808 
G01 X6.9969  Y55.3810 
G01 X7.3796  Y55.3810 
G01 X7.4312  Y55.4024 
G01 X7.4707  Y55.4419 
G01 X7.4921  Y55.4935 
G01 X7.4921  Y55.9777 
G01 X7.8179  Y55.9777 
G01 X7.8466  Y55.9700 
G01 X8.1628  Y55.9700 
G01 X8.1628  Y55.7523 
G01 X8.1842  Y55.7007 
G01 X8.2237  Y55.6612 
G01 X8.2753  Y55.6398 
G01 X8.8105  Y55.6398 
G01 X8.8105  Y55.5396 
G01 X8.2715  Y55.5396 
G00 Z2.5400  
G00 X10.2399 Y57.2908 
G01 Z-0.0350 F254   
G01 X10.3011 Y57.2744 F508   
G01 X10.3559 Y57.2428 
G01 X10.4007 Y57.1980 
G01 X10.4324 Y57.1431 
G01 X10.4488 Y57.0819 
G01 X10.4488 Y56.8604 
G01 X10.3486 Y56.8604 
G01 X10.3486 Y57.0782 
G01 X10.3272 Y57.1298 
G01 X10.2877 Y57.1693 
G01 X10.2361 Y57.1906 
G01 X9.7009  Y57.1906 
G01 X9.7009  Y57.2908 
G01 X10.2399 Y57.2908 
G00 Z2.5400  
G00 X6.1065  Y57.5650 
G01 Z-0.0350 F254   
G01 X6.1065  Y57.4648 F508   
G01 X5.7238  Y57.4648 
G01 X5.6722  Y57.4434 
G01 X5.6327  Y57.4039 
G01 X5.6113  Y57.3523 
G01 X5.6113  Y56.8681 
G01 X5.5111  Y56.8681 
G01 X5.5111  Y57.3561 
G01 X5.5275  Y57.4173 
G01 X5.5592  Y57.4721 
G01 X5.6040  Y57.5169 
G01 X5.6588  Y57.5486 
G01 X5.7200  Y57.5650 
G01 X6.1065  Y57.5650 
G00 Z2.5400  
G00 X7.3834  Y57.5650 
G01 Z-0.0350 F254   
G01 X7.4446  Y57.5486 F508   
G01 X7.4994  Y57.5169 
G01 X7.5442  Y57.4721 
G01 X7.5759  Y57.4173 
G01 X7.5923  Y57.3561 
G01 X7.5923  Y57.3479 
G01 X7.6006  Y57.3171 
G01 X7.6123  Y57.2734 
G01 X7.6508  Y57.2067 
G01 X7.7053  Y57.1522 
G01 X7.7227  Y57.1421 
G01 X7.7721  Y57.1136 
G01 X7.8466  Y57.0937 
G01 X7.9237  Y57.0937 
G01 X7.9545  Y57.1019 
G01 X7.9981  Y57.1136 
G01 X8.0649  Y57.1522 
G01 X8.1194  Y57.2067 
G01 X8.1555  Y57.2428 
G01 X8.2103  Y57.2744 
G01 X8.2715  Y57.2908 
G01 X8.8105  Y57.2908 
G01 X8.8105  Y57.1906 
G01 X8.2753  Y57.1906 
G01 X8.2237  Y57.1693 
G01 X8.1842  Y57.1298 
G01 X8.1628  Y57.0782 
G01 X8.1628  Y56.8604 
G01 X7.8370  Y56.8604 
G01 X7.8084  Y56.8681 
G01 X7.4921  Y56.8681 
G01 X7.4921  Y57.3523 
G01 X7.4707  Y57.4039 
G01 X7.4312  Y57.4434 
G01 X7.3796  Y57.4648 
G01 X6.9969  Y57.4648 
G01 X6.9969  Y57.5650 
G01 X7.3834  Y57.5650 
G00 Z2.5400  
G00 X10.4488 Y55.7486 
G01 Z-0.0350 F254   
G01 X10.4324 Y55.6874 F508   
G01 X10.4007 Y55.6325 
G01 X10.3559 Y55.5877 
G01 X10.3011 Y55.5560 
G01 X10.2399 Y55.5396 
G01 X9.7009  Y55.5396 
G01 X9.7009  Y55.6398 
G01 X10.2361 Y55.6398 
G01 X10.2877 Y55.6612 
G01 X10.3272 Y55.7007 
G01 X10.3486 Y55.7523 
G01 X10.3486 Y55.9700 
G01 X10.4488 Y55.9700 
G01 X10.4488 Y55.7486 
G00 Z2.5400  
G00 X23.1461 Y58.4556 
G01 Z-0.0350 F254   
G01 X23.0850 Y58.4720 F508   
G01 X23.0301 Y58.5036 
G01 X22.9853 Y58.5484 
G01 X22.9536 Y58.6033 
G01 X22.9372 Y58.6645 
G01 X22.9372 Y59.2035 
G01 X23.0374 Y59.2035 
G01 X23.0374 Y58.6682 
G01 X23.0588 Y58.6166 
G01 X23.0983 Y58.5771 
G01 X23.1499 Y58.5558 
G01 X23.3676 Y58.5558 
G01 X23.3676 Y58.4556 
G01 X23.1461 Y58.4556 
G00 Z2.5400  
G00 X24.5882 Y58.6682 
G01 Z-0.0350 F254   
G01 X24.5882 Y59.2035 F508   
G01 X24.6884 Y59.2035 
G01 X24.6884 Y58.6645 
G01 X24.6720 Y58.6033 
G01 X24.6404 Y58.5484 
G01 X24.5956 Y58.5036 
G01 X24.5407 Y58.4720 
G01 X24.4795 Y58.4556 
G01 X24.2580 Y58.4556 
G01 X24.2580 Y58.5558 
G01 X24.4758 Y58.5558 
G01 X24.5274 Y58.5771 
G01 X24.5668 Y58.6166 
G01 X24.5882 Y58.6682 
G00 Z2.5400  
G00 X24.5882 Y60.6291 
G01 Z-0.0350 F254   
G01 X24.5668 Y60.6807 F508   
G01 X24.5274 Y60.7202 
G01 X24.4758 Y60.7416 
G01 X24.2580 Y60.7416 
G01 X24.2580 Y60.8418 
G01 X24.4795 Y60.8418 
G01 X24.5407 Y60.8254 
G01 X24.5956 Y60.7937 
G01 X24.6404 Y60.7489 
G01 X24.6720 Y60.6940 
G01 X24.6884 Y60.6329 
G01 X24.6884 Y60.0939 
G01 X24.5882 Y60.0939 
G01 X24.5882 Y60.6291 
G00 Z2.5400  
G00 X22.9372 Y60.6328 
G01 Z-0.0350 F254   
G01 X22.9536 Y60.6940 F508   
G01 X22.9853 Y60.7489 
G01 X23.0301 Y60.7937 
G01 X23.0850 Y60.8254 
G01 X23.1461 Y60.8418 
G01 X23.3676 Y60.8418 
G01 X23.3676 Y60.7416 
G01 X23.1499 Y60.7416 
G01 X23.0983 Y60.7202 
G01 X23.0588 Y60.6807 
G01 X23.0374 Y60.6291 
G01 X23.0374 Y60.0939 
G01 X22.9372 Y60.0939 
G01 X22.9372 Y60.6328 
G00 Z2.5400  
G00 X14.2851 Y55.7485 
G01 Z-0.0350 F254   
G01 X14.2687 Y55.6874 F508   
G01 X14.2370 Y55.6325 
G01 X14.1922 Y55.5877 
G01 X14.1373 Y55.5560 
G01 X14.0761 Y55.5396 
G01 X13.5372 Y55.5396 
G01 X13.5372 Y55.6398 
G01 X14.0724 Y55.6398 
G01 X14.1240 Y55.6612 
G01 X14.1635 Y55.7007 
G01 X14.1849 Y55.7523 
G01 X14.1849 Y55.9700 
G01 X14.2851 Y55.9700 
G01 X14.2851 Y55.7485 
G00 Z2.5400  
G00 X14.0724 Y57.1906 
G01 Z-0.0350 F254   
G01 X13.5372 Y57.1906 F508   
G01 X13.5372 Y57.2908 
G01 X14.0761 Y57.2908 
G01 X14.1373 Y57.2744 
G01 X14.1922 Y57.2428 
G01 X14.2370 Y57.1980 
G01 X14.2687 Y57.1431 
G01 X14.2851 Y57.0819 
G01 X14.2851 Y56.8604 
G01 X14.1849 Y56.8604 
G01 X14.1849 Y57.0782 
G01 X14.1635 Y57.1298 
G01 X14.1240 Y57.1692 
G01 X14.0724 Y57.1906 
G00 Z2.5400  
G00 X12.1115 Y57.1906 
G01 Z-0.0350 F254   
G01 X12.0599 Y57.1692 F508   
G01 X12.0204 Y57.1298 
G01 X11.9991 Y57.0782 
G01 X11.9991 Y56.8604 
G01 X11.8989 Y56.8604 
G01 X11.8989 Y57.0819 
G01 X11.9153 Y57.1431 
G01 X11.9469 Y57.1980 
G01 X11.9917 Y57.2428 
G01 X12.0466 Y57.2744 
G01 X12.1078 Y57.2908 
G01 X12.6468 Y57.2908 
G01 X12.6468 Y57.1906 
G01 X12.1115 Y57.1906 
G00 Z2.5400  
G00 X12.1078 Y55.5396 
G01 Z-0.0350 F254   
G01 X12.0466 Y55.5560 F508   
G01 X11.9917 Y55.5877 
G01 X11.9469 Y55.6325 
G01 X11.9153 Y55.6874 
G01 X11.8989 Y55.7485 
G01 X11.8989 Y55.9700 
G01 X11.9991 Y55.9700 
G01 X11.9991 Y55.7523 
G01 X12.0204 Y55.7007 
G01 X12.0599 Y55.6612 
G01 X12.1115 Y55.6398 
G01 X12.6468 Y55.6398 
G01 X12.6468 Y55.5396 
G01 X12.1078 Y55.5396 
G00 Z2.5400  
G00 X59.7288 Y57.3213 
G01 Z-0.0350 F254   
G01 X59.6676 Y57.3377 F508   
G01 X59.6127 Y57.3694 
G01 X59.5679 Y57.4142 
G01 X59.5363 Y57.4690 
G01 X59.5199 Y57.5302 
G01 X59.5199 Y60.1167 
G01 X59.6201 Y60.1167 
G01 X59.6201 Y57.5340 
G01 X59.6415 Y57.4824 
G01 X59.6809 Y57.4429 
G01 X59.7325 Y57.4215 
G01 X62.3153 Y57.4215 
G01 X62.3153 Y57.3213 
G01 X59.7288 Y57.3213 
G00 Z2.5400  
G00 X65.9009 Y57.5340 
G01 Z-0.0350 F254   
G01 X65.9009 Y60.1167 F508   
G01 X66.0011 Y60.1167 
G01 X66.0011 Y57.5302 
G01 X65.9847 Y57.4690 
G01 X65.9530 Y57.4142 
G01 X65.9082 Y57.3694 
G01 X65.8533 Y57.3377 
G01 X65.7921 Y57.3213 
G01 X63.2057 Y57.3213 
G01 X63.2057 Y57.4215 
G01 X65.7884 Y57.4215 
G01 X65.8400 Y57.4429 
G01 X65.8795 Y57.4824 
G01 X65.9009 Y57.5340 
G00 Z2.5400  
G00 X65.9009 Y63.5898 
G01 Z-0.0350 F254   
G01 X65.8795 Y63.6414 F508   
G01 X65.8400 Y63.6809 
G01 X65.7884 Y63.7023 
G01 X63.2057 Y63.7023 
G01 X63.2057 Y63.8025 
G01 X65.7921 Y63.8025 
G01 X65.8533 Y63.7861 
G01 X65.9082 Y63.7544 
G01 X65.9530 Y63.7096 
G01 X65.9847 Y63.6548 
G01 X66.0011 Y63.5936 
G01 X66.0011 Y61.0071 
G01 X65.9009 Y61.0071 
G01 X65.9009 Y63.5898 
G00 Z2.5400  
G00 X59.5199 Y63.5936 
G01 Z-0.0350 F254   
G01 X59.5363 Y63.6548 F508   
G01 X59.5679 Y63.7096 
G01 X59.6127 Y63.7544 
G01 X59.6676 Y63.7861 
G01 X59.7288 Y63.8025 
G01 X62.3153 Y63.8025 
G01 X62.3153 Y63.7023 
G01 X59.7325 Y63.7023 
G01 X59.6809 Y63.6809 
G01 X59.6415 Y63.6414 
G01 X59.6201 Y63.5898 
G01 X59.6201 Y61.0071 
G01 X59.5199 Y61.0071 
G01 X59.5199 Y63.5936 
G00 Z2.5400  
G00 X72.5400 Y62.5309 
G01 Z-0.0350 F254   
G01 X72.5014 Y62.5469 F508   
G01 X72.5400 Y62.5629 
G01 X72.5487 Y62.5715 
G01 X72.5487 Y62.5222 
G01 X72.5400 Y62.5309 
G00 Z2.5400  
G00 X72.6009 Y63.5464 
G01 Z-0.0350 F254   
G01 X72.6072 Y63.5355 F508   
G01 X72.6617 Y63.4810 
G01 X72.6726 Y63.4747 
G01 X72.6009 Y63.4747 
G01 X72.6009 Y63.5464 
G00 Z2.5400  
G00 X72.6617 Y62.8828 
G01 Z-0.0350 F254   
G01 X72.6072 Y62.8283 F508   
G01 X72.6009 Y62.8174 
G01 X72.6009 Y62.8891 
G01 X72.6726 Y62.8891 
G01 X72.6617 Y62.8828 
G00 Z2.5400  
G00 X83.9854 Y56.6623 
G01 Z-0.0350 F254   
G01 X83.9791 Y56.6732 F508   
G01 X83.9246 Y56.7278 
G01 X83.9137 Y56.7341 
G01 X83.9854 Y56.7341 
G01 X83.9854 Y56.6623 
G00 Z2.5400  
G00 X83.9246 Y57.3260 
G01 Z-0.0350 F254   
G01 X83.9791 Y57.3805 F508   
G01 X83.9854 Y57.3914 
G01 X83.9854 Y57.3197 
G01 X83.9137 Y57.3197 
G01 X83.9246 Y57.3260 
G00 Z2.5400  
G00 X72.5400 Y66.3409 
G01 Z-0.0350 F254   
G01 X72.5014 Y66.3569 F508   
G01 X72.5400 Y66.3729 
G01 X72.5487 Y66.3815 
G01 X72.5487 Y66.3322 
G01 X72.5400 Y66.3409 
G00 Z2.5400  
G00 X70.7199 Y67.7302 
G01 Z-0.0350 F254   
G01 X70.7199 Y67.8715 F508   
G01 X70.8201 Y67.8715 
G01 X70.8201 Y67.7340 
G01 X70.8415 Y67.6824 
G01 X70.8809 Y67.6429 
G01 X70.9195 Y67.6269 
G01 X70.8809 Y67.6109 
G01 X70.8415 Y67.5714 
G01 X70.8291 Y67.5417 
G01 X70.8138 Y67.5683 
G01 X70.7679 Y67.6142 
G01 X70.7363 Y67.6690 
G01 X70.7199 Y67.7302 
G00 Z2.5400  
G00 X70.8809 Y56.2129 
G01 Z-0.0350 F254   
G01 X70.9195 Y56.1969 F508   
G01 X70.8809 Y56.1809 
G01 X70.8723 Y56.1722 
G01 X70.8723 Y56.2215 
G01 X70.8809 Y56.2129 
G00 Z2.5400  
G00 X70.8809 Y57.4829 
G01 Z-0.0350 F254   
G01 X70.9195 Y57.4669 F508   
G01 X70.8809 Y57.4509 
G01 X70.8723 Y57.4422 
G01 X70.8723 Y57.4915 
G01 X70.8809 Y57.4829 
G00 Z2.5400  
G00 X70.8809 Y58.7529 
G01 Z-0.0350 F254   
G01 X70.9195 Y58.7369 F508   
G01 X70.8809 Y58.7209 
G01 X70.8723 Y58.7122 
G01 X70.8723 Y58.7615 
G01 X70.8809 Y58.7529 
G00 Z2.5400  
G00 X70.8809 Y60.0229 
G01 Z-0.0350 F254   
G01 X70.9195 Y60.0069 F508   
G01 X70.8809 Y59.9909 
G01 X70.8723 Y59.9822 
G01 X70.8723 Y60.0315 
G01 X70.8809 Y60.0229 
G00 Z2.5400  
G00 X70.8809 Y61.2929 
G01 Z-0.0350 F254   
G01 X70.9195 Y61.2769 F508   
G01 X70.8809 Y61.2609 
G01 X70.8723 Y61.2522 
G01 X70.8723 Y61.3015 
G01 X70.8809 Y61.2929 
G00 Z2.5400  
G00 X70.8809 Y62.5629 
G01 Z-0.0350 F254   
G01 X70.9195 Y62.5469 F508   
G01 X70.8809 Y62.5309 
G01 X70.8723 Y62.5222 
G01 X70.8723 Y62.5715 
G01 X70.8809 Y62.5629 
G00 Z2.5400  
G00 X70.8809 Y63.8329 
G01 Z-0.0350 F254   
G01 X70.9195 Y63.8169 F508   
G01 X70.8809 Y63.8009 
G01 X70.8723 Y63.7922 
G01 X70.8723 Y63.8415 
G01 X70.8809 Y63.8329 
G00 Z2.5400  
G00 X70.8809 Y65.1029 
G01 Z-0.0350 F254   
G01 X70.9195 Y65.0869 F508   
G01 X70.8809 Y65.0709 
G01 X70.8723 Y65.0622 
G01 X70.8723 Y65.1115 
G01 X70.8809 Y65.1029 
G00 Z2.5400  
G00 X70.8809 Y66.3729 
G01 Z-0.0350 F254   
G01 X70.9195 Y66.3569 F508   
G01 X70.8809 Y66.3409 
G01 X70.8723 Y66.3322 
G01 X70.8723 Y66.3815 
G01 X70.8809 Y66.3729 
G00 Z2.5400  
G00 X58.6815 Y50.8414 
G01 Z-0.0350 F254   
G01 X58.6655 Y50.8028 F508   
G01 X58.6495 Y50.8414 
G01 X58.6408 Y50.8501 
G01 X58.6901 Y50.8501 
G01 X58.6815 Y50.8414 
G00 Z2.5400  
G00 X59.9515 Y50.8414 
G01 Z-0.0350 F254   
G01 X59.9355 Y50.8028 F508   
G01 X59.9195 Y50.8414 
G01 X59.9108 Y50.8501 
G01 X59.9601 Y50.8501 
G01 X59.9515 Y50.8414 
G00 Z2.5400  
G00 X61.2215 Y50.8414 
G01 Z-0.0350 F254   
G01 X61.2055 Y50.8028 F508   
G01 X61.1895 Y50.8414 
G01 X61.1808 Y50.8501 
G01 X61.2301 Y50.8501 
G01 X61.2215 Y50.8414 
G00 Z2.5400  
G00 X62.4915 Y50.8414 
G01 Z-0.0350 F254   
G01 X62.4755 Y50.8028 F508   
G01 X62.4595 Y50.8414 
G01 X62.4508 Y50.8501 
G01 X62.5001 Y50.8501 
G01 X62.4915 Y50.8414 
G00 Z2.5400  
G00 X63.7615 Y50.8414 
G01 Z-0.0350 F254   
G01 X63.7455 Y50.8028 F508   
G01 X63.7295 Y50.8414 
G01 X63.7208 Y50.8501 
G01 X63.7701 Y50.8501 
G01 X63.7615 Y50.8414 
G00 Z2.5400  
G00 X65.0315 Y50.8414 
G01 Z-0.0350 F254   
G01 X65.0155 Y50.8028 F508   
G01 X64.9995 Y50.8414 
G01 X64.9908 Y50.8501 
G01 X65.0401 Y50.8501 
G01 X65.0315 Y50.8414 
G00 Z2.5400  
G00 X66.3015 Y50.8414 
G01 Z-0.0350 F254   
G01 X66.2855 Y50.8028 F508   
G01 X66.2695 Y50.8414 
G01 X66.2608 Y50.8501 
G01 X66.3101 Y50.8501 
G01 X66.3015 Y50.8414 
G00 Z2.5400  
G00 X67.5714 Y50.8414 
G01 Z-0.0350 F254   
G01 X67.5555 Y50.8028 F508   
G01 X67.5395 Y50.8414 
G01 X67.5308 Y50.8501 
G01 X67.5801 Y50.8501 
G01 X67.5714 Y50.8414 
G00 Z2.5400  
G00 X56.0199 Y50.7936 
G01 Z-0.0350 F254   
G01 X56.0363 Y50.8548 F508   
G01 X56.0679 Y50.9096 
G01 X56.1127 Y50.9544 
G01 X56.1676 Y50.9861 
G01 X56.2288 Y51.0025 
G01 X56.3701 Y51.0025 
G01 X56.3701 Y50.9023 
G01 X56.2325 Y50.9023 
G01 X56.1809 Y50.8809 
G01 X56.1415 Y50.8414 
G01 X56.1201 Y50.7898 
G01 X56.1201 Y50.4023 
G01 X56.0199 Y50.4023 
G01 X56.0199 Y50.7936 
G00 Z2.5400  
G00 X56.8967 Y42.8432 
G01 Z-0.0350 F254   
G01 X56.9131 Y42.9044 F508   
G01 X56.9448 Y42.9592 
G01 X56.9896 Y43.0040 
G01 X57.0445 Y43.0357 
G01 X57.1057 Y43.0521 
G01 X57.4922 Y43.0521 
G01 X57.4922 Y42.9519 
G01 X57.1094 Y42.9519 
G01 X57.0578 Y42.9305 
G01 X57.0183 Y42.8910 
G01 X56.9970 Y42.8394 
G01 X56.9970 Y42.3552 
G01 X56.8967 Y42.3552 
G01 X56.8967 Y42.8432 
G00 Z2.5400  
G00 X57.1057 Y40.7679 
G01 Z-0.0350 F254   
G01 X57.0445 Y40.7843 F508   
G01 X56.9896 Y40.8160 
G01 X56.9448 Y40.8608 
G01 X56.9131 Y40.9156 
G01 X56.8967 Y40.9768 
G01 X56.8967 Y41.4648 
G01 X56.9970 Y41.4648 
G01 X56.9970 Y40.9806 
G01 X57.0183 Y40.9290 
G01 X57.0578 Y40.8895 
G01 X57.1094 Y40.8681 
G01 X57.4922 Y40.8681 
G01 X57.4922 Y40.7679 
G01 X57.1057 Y40.7679 
G00 Z2.5400  
G00 X56.2288 Y49.0213 
G01 Z-0.0350 F254   
G01 X56.1676 Y49.0377 F508   
G01 X56.1127 Y49.0694 
G01 X56.0679 Y49.1142 
G01 X56.0363 Y49.1690 
G01 X56.0199 Y49.2302 
G01 X56.0199 Y49.6215 
G01 X56.1201 Y49.6215 
G01 X56.1201 Y49.2340 
G01 X56.1415 Y49.1824 
G01 X56.1809 Y49.1429 
G01 X56.2325 Y49.1215 
G01 X56.3701 Y49.1215 
G01 X56.3701 Y49.0213 
G01 X56.2288 Y49.0213 
G00 Z2.5400  
G00 X57.2921 Y51.0025 
G01 Z-0.0350 F254   
G01 X57.3533 Y50.9861 F508   
G01 X57.4082 Y50.9544 
G01 X57.4540 Y50.9086 
G01 X57.4711 Y50.8987 
G01 X57.4807 Y50.8932 
G01 X57.4509 Y50.8809 
G01 X57.4115 Y50.8414 
G01 X57.3955 Y50.8028 
G01 X57.3795 Y50.8414 
G01 X57.3400 Y50.8809 
G01 X57.2884 Y50.9023 
G01 X57.1509 Y50.9023 
G01 X57.1509 Y51.0025 
G01 X57.2921 Y51.0025 
G00 Z2.5400  
G00 X72.7011 Y67.7302 
G01 Z-0.0350 F254   
G01 X72.6847 Y67.6690 F508   
G01 X72.6530 Y67.6142 
G01 X72.6072 Y67.5683 
G01 X72.5918 Y67.5417 
G01 X72.5795 Y67.5714 
G01 X72.5400 Y67.6109 
G01 X72.5014 Y67.6269 
G01 X72.5400 Y67.6429 
G01 X72.5795 Y67.6824 
G01 X72.6009 Y67.7340 
G01 X72.6009 Y67.8715 
G01 X72.7011 Y67.8715 
G01 X72.7011 Y67.7302 
G00 Z2.5400  
G00 X72.6617 Y64.4709 
G01 Z-0.0350 F254   
G01 X72.6072 Y64.4164 F508   
G01 X72.6009 Y64.4055 
G01 X72.6009 Y64.4772 
G01 X72.6726 Y64.4772 
G01 X72.6617 Y64.4709 
G00 Z2.5400  
G00 X72.5400 Y65.0709 
G01 Z-0.0350 F254   
G01 X72.5014 Y65.0869 F508   
G01 X72.5400 Y65.1029 
G01 X72.5795 Y65.1424 
G01 X72.5865 Y65.1594 
G01 X72.6072 Y65.1236 
G01 X72.6617 Y65.0691 
G01 X72.6726 Y65.0628 
G01 X72.5481 Y65.0628 
G01 X72.5400 Y65.0709 
G00 Z2.5400  
G00 X83.9246 Y59.8660 
G01 Z-0.0350 F254   
G01 X83.9791 Y59.9205 F508   
G01 X83.9854 Y59.9314 
G01 X83.9854 Y59.8597 
G01 X83.9137 Y59.8597 
G01 X83.9246 Y59.8660 
G00 Z2.5400  
G00 X83.9854 Y59.2023 
G01 Z-0.0350 F254   
G01 X83.9791 Y59.2132 F508   
G01 X83.9246 Y59.2678 
G01 X83.9137 Y59.2741 
G01 X83.9854 Y59.2741 
G01 X83.9854 Y59.2023 
G00 Z2.5400  
G00 X72.5400 Y63.8009 
G01 Z-0.0350 F254   
G01 X72.5014 Y63.8169 F508   
G01 X72.5400 Y63.8329 
G01 X72.5487 Y63.8415 
G01 X72.5487 Y63.7922 
G01 X72.5400 Y63.8009 
G00 Z2.5400  
G00 X87.4085 Y19.8666 
G01 Z-0.0350 F254   
G01 X87.4630 Y19.9211 F508   
G01 X87.4693 Y19.9320 
G01 X87.4693 Y19.7079 
G01 X87.3534 Y19.7079 
G01 X87.3534 Y19.8348 
G01 X87.4085 Y19.8666 
G00 Z2.5400  
G00 X43.9850 Y37.7719 
G01 Z-0.0350 F254   
G01 X44.0167 Y37.7719 F508   
G01 X44.0304 Y37.7663 
G01 X44.0621 Y37.7663 
G01 X44.0759 Y37.7606 
G01 X44.1077 Y37.7606 
G01 X44.1214 Y37.7549 
G01 X44.1531 Y37.7549 
G01 X44.1669 Y37.7492 
G01 X44.1930 Y37.7492 
G01 X44.2067 Y37.7435 
G01 X44.2327 Y37.7435 
G01 X44.2465 Y37.7378 
G01 X44.2669 Y37.7378 
G01 X44.2806 Y37.7322 
G01 X44.3009 Y37.7322 
G01 X44.3147 Y37.7265 
G01 X44.3351 Y37.7265 
G01 X44.3488 Y37.7208 
G01 X44.3691 Y37.7208 
G01 X44.3829 Y37.7151 
G01 X44.4033 Y37.7151 
G01 X44.4170 Y37.7094 
G01 X44.4317 Y37.7094 
G01 X44.4455 Y37.7037 
G01 X44.4602 Y37.7037 
G01 X44.4739 Y37.6980 
G01 X44.4942 Y37.6980 
G01 X44.5080 Y37.6924 
G01 X44.5227 Y37.6924 
G01 X44.5364 Y37.6867 
G01 X44.5454 Y37.6867 
G01 X44.5592 Y37.6810 
G01 X44.5739 Y37.6810 
G01 X44.5876 Y37.6753 
G01 X44.6022 Y37.6753 
G01 X44.6160 Y37.6696 
G01 X44.6250 Y37.6696 
G01 X44.6387 Y37.6639 
G01 X44.6534 Y37.6639 
G01 X44.6672 Y37.6582 
G01 X44.6762 Y37.6582 
G01 X44.6899 Y37.6526 
G01 X44.6989 Y37.6526 
G01 X44.7127 Y37.6469 
G01 X44.7217 Y37.6469 
G01 X44.7354 Y37.6412 
G01 X44.7500 Y37.6412 
G01 X44.7638 Y37.6355 
G01 X44.7729 Y37.6355 
G01 X44.7866 Y37.6298 
G01 X44.7898 Y37.6298 
G01 X44.8036 Y37.6241 
G01 X44.8126 Y37.6241 
G01 X44.8264 Y37.6184 
G01 X44.8354 Y37.6184 
G01 X44.8491 Y37.6128 
G01 X44.8580 Y37.6128 
G01 X44.8718 Y37.6071 
G01 X44.8752 Y37.6071 
G01 X44.8889 Y37.6014 
G01 X44.8978 Y37.6014 
G01 X44.9116 Y37.5957 
G01 X44.9207 Y37.5957 
G01 X44.9344 Y37.5900 
G01 X44.9376 Y37.5900 
G01 X44.9514 Y37.5843 
G01 X44.9605 Y37.5843 
G01 X44.9742 Y37.5787 
G01 X44.9774 Y37.5787 
G01 X44.9912 Y37.5730 
G01 X44.9946 Y37.5730 
G01 X45.0083 Y37.5673 
G01 X45.0172 Y37.5673 
G01 X45.0310 Y37.5616 
G01 X45.0344 Y37.5616 
G01 X45.0481 Y37.5559 
G01 X45.0513 Y37.5559 
G01 X45.0651 Y37.5502 
G01 X45.0685 Y37.5502 
G01 X45.0822 Y37.5445 
G01 X45.0911 Y37.5445 
G01 X45.1049 Y37.5389 
G01 X45.1083 Y37.5389 
G01 X45.1220 Y37.5332 
G01 X45.1252 Y37.5332 
G01 X45.1390 Y37.5275 
G01 X45.1424 Y37.5275 
G01 X45.1561 Y37.5218 
G01 X45.1593 Y37.5218 
G01 X45.1731 Y37.5161 
G01 X45.1765 Y37.5161 
G01 X45.1902 Y37.5104 
G01 X45.1934 Y37.5104 
G01 X45.2072 Y37.5047 
G01 X45.2357 Y37.4934 
G01 X45.2390 Y37.4934 
G01 X45.2527 Y37.4877 
G01 X45.2560 Y37.4877 
G01 X45.2698 Y37.4820 
G01 X45.2731 Y37.4820 
G01 X45.2868 Y37.4763 
G01 X45.3153 Y37.4650 
G01 X45.3185 Y37.4650 
G01 X45.3323 Y37.4593 
G01 X45.3607 Y37.4479 
G01 X45.3892 Y37.4365 
G01 X45.3925 Y37.4365 
G01 X45.4062 Y37.4308 
G01 X45.4217 Y37.4248 
G01 X45.4744 Y37.4024 
G01 X45.4901 Y37.3963 
G01 X45.5299 Y37.3793 
G01 X45.5697 Y37.3622 
G01 X45.5802 Y37.3573 
G01 X45.6208 Y37.3395 
G01 X45.6315 Y37.3345 
G01 X45.6429 Y37.3288 
G01 X45.6542 Y37.3232 
G01 X45.6947 Y37.3054 
G01 X45.7054 Y37.3004 
G01 X45.7168 Y37.2947 
G01 X45.7280 Y37.2891 
G01 X45.7395 Y37.2833 
G01 X45.7509 Y37.2776 
G01 X45.7622 Y37.2720 
G01 X45.7736 Y37.2663 
G01 X45.7850 Y37.2606 
G01 X45.7964 Y37.2549 
G01 X45.8077 Y37.2493 
G01 X45.8191 Y37.2435 
G01 X45.8305 Y37.2378 
G01 X45.8417 Y37.2322 
G01 X45.8492 Y37.2248 
G01 X45.8589 Y37.2208 
G01 X45.8703 Y37.2151 
G01 X45.8816 Y37.2095 
G01 X45.8930 Y37.2037 
G01 X45.9044 Y37.1980 
G01 X45.9157 Y37.1924 
G01 X45.9231 Y37.1850 
G01 X45.9328 Y37.1810 
G01 X45.9442 Y37.1753 
G01 X45.9555 Y37.1697 
G01 X45.9669 Y37.1639 
G01 X45.9743 Y37.1566 
G01 X45.9840 Y37.1526 
G01 X45.9953 Y37.1469 
G01 X46.0067 Y37.1412 
G01 X46.0141 Y37.1339 
G01 X46.0238 Y37.1298 
G01 X46.0351 Y37.1242 
G01 X46.0465 Y37.1184 
G01 X46.0539 Y37.1111 
G01 X46.0636 Y37.1071 
G01 X46.0749 Y37.1015 
G01 X46.0823 Y37.0941 
G01 X46.0920 Y37.0900 
G01 X46.1033 Y37.0844 
G01 X46.1107 Y37.0770 
G01 X46.1204 Y37.0730 
G01 X46.1318 Y37.0673 
G01 X46.1392 Y37.0599 
G01 X46.1488 Y37.0560 
G01 X46.1562 Y37.0486 
G01 X46.1659 Y37.0445 
G01 X46.1772 Y37.0389 
G01 X46.1846 Y37.0315 
G01 X46.1943 Y37.0275 
G01 X46.2017 Y37.0201 
G01 X46.2114 Y37.0161 
G01 X46.2188 Y37.0088 
G01 X46.2284 Y37.0048 
G01 X46.2358 Y36.9974 
G01 X46.2455 Y36.9934 
G01 X46.2529 Y36.9860 
G01 X46.2625 Y36.9821 
G01 X46.2699 Y36.9747 
G01 X46.2796 Y36.9706 
G01 X46.2870 Y36.9633 
G01 X46.2966 Y36.9593 
G01 X46.3060 Y36.9499 
G01 X46.3100 Y36.9403 
G01 X46.3114 Y36.9350 
G01 X46.3170 Y36.9215 
G01 X46.3114 Y36.9056 
G01 X46.3114 Y36.8966 
G01 X46.3060 Y36.8850 
G01 X46.3003 Y36.8736 
G01 X46.2852 Y36.8586 
G01 X46.2756 Y36.8546 
G01 X46.2711 Y36.8532 
G01 X46.2601 Y36.8585 
G01 X46.2487 Y36.8643 
G01 X46.2413 Y36.8716 
G01 X46.2317 Y36.8756 
G01 X46.2243 Y36.8830 
G01 X46.2146 Y36.8870 
G01 X46.2072 Y36.8944 
G01 X46.1975 Y36.8984 
G01 X46.1901 Y36.9057 
G01 X46.1805 Y36.9097 
G01 X46.1731 Y36.9171 
G01 X46.1634 Y36.9211 
G01 X46.1560 Y36.9285 
G01 X46.1464 Y36.9324 
G01 X46.1350 Y36.9382 
G01 X46.1276 Y36.9455 
G01 X46.1180 Y36.9495 
G01 X46.1106 Y36.9569 
G01 X46.1009 Y36.9609 
G01 X46.0895 Y36.9666 
G01 X46.0821 Y36.9739 
G01 X46.0725 Y36.9779 
G01 X46.0611 Y36.9837 
G01 X46.0537 Y36.9910 
G01 X46.0440 Y36.9950 
G01 X46.0327 Y37.0006 
G01 X46.0253 Y37.0081 
G01 X46.0156 Y37.0121 
G01 X46.0043 Y37.0177 
G01 X45.9969 Y37.0251 
G01 X45.9872 Y37.0292 
G01 X45.9758 Y37.0348 
G01 X45.9645 Y37.0405 
G01 X45.9571 Y37.0479 
G01 X45.9474 Y37.0519 
G01 X45.9360 Y37.0576 
G01 X45.9247 Y37.0632 
G01 X45.9173 Y37.0706 
G01 X45.9076 Y37.0746 
G01 X45.8962 Y37.0803 
G01 X45.8849 Y37.0859 
G01 X45.8735 Y37.0917 
G01 X45.8621 Y37.0974 
G01 X45.8547 Y37.1047 
G01 X45.8451 Y37.1087 
G01 X45.8337 Y37.1144 
G01 X45.8223 Y37.1201 
G01 X45.8109 Y37.1258 
G01 X45.7996 Y37.1314 
G01 X45.7882 Y37.1372 
G01 X45.7768 Y37.1429 
G01 X45.7656 Y37.1485 
G01 X45.7541 Y37.1542 
G01 X45.7427 Y37.1599 
G01 X45.7314 Y37.1655 
G01 X45.7200 Y37.1713 
G01 X45.7086 Y37.1770 
G01 X45.6972 Y37.1826 
G01 X45.6859 Y37.1883 
G01 X45.6745 Y37.1940 
G01 X45.6631 Y37.1997 
G01 X45.6519 Y37.2053 
G01 X45.6113 Y37.2231 
G01 X45.6006 Y37.2281 
G01 X45.5892 Y37.2338 
G01 X45.5779 Y37.2394 
G01 X45.5374 Y37.2572 
G01 X45.4976 Y37.2743 
G01 X45.4578 Y37.2913 
G01 X45.4052 Y37.3137 
G01 X45.3768 Y37.3251 
G01 X45.3483 Y37.3364 
G01 X45.3199 Y37.3478 
G01 X45.2915 Y37.3592 
G01 X45.2881 Y37.3592 
G01 X45.2744 Y37.3648 
G01 X45.2460 Y37.3762 
G01 X45.2427 Y37.3762 
G01 X45.2289 Y37.3819 
G01 X45.2005 Y37.3933 
G01 X45.1972 Y37.3933 
G01 X45.1835 Y37.3990 
G01 X45.1802 Y37.3990 
G01 X45.1664 Y37.4046 
G01 X45.1630 Y37.4046 
G01 X45.1493 Y37.4103 
G01 X45.1461 Y37.4103 
G01 X45.1323 Y37.4160 
G01 X45.1289 Y37.4160 
G01 X45.1152 Y37.4217 
G01 X45.1120 Y37.4217 
G01 X45.0982 Y37.4274 
G01 X45.0948 Y37.4274 
G01 X45.0811 Y37.4331 
G01 X45.0779 Y37.4331 
G01 X45.0641 Y37.4388 
G01 X45.0607 Y37.4388 
G01 X45.0470 Y37.4444 
G01 X45.0438 Y37.4444 
G01 X45.0300 Y37.4501 
G01 X45.0266 Y37.4501 
G01 X45.0129 Y37.4558 
G01 X45.0097 Y37.4558 
G01 X44.9959 Y37.4615 
G01 X44.9926 Y37.4615 
G01 X44.9788 Y37.4672 
G01 X44.9699 Y37.4672 
G01 X44.9561 Y37.4729 
G01 X44.9527 Y37.4729 
G01 X44.9390 Y37.4785 
G01 X44.9357 Y37.4785 
G01 X44.9219 Y37.4842 
G01 X44.9129 Y37.4842 
G01 X44.8992 Y37.4899 
G01 X44.8960 Y37.4899 
G01 X44.8822 Y37.4956 
G01 X44.8732 Y37.4956 
G01 X44.8594 Y37.5013 
G01 X44.8562 Y37.5013 
G01 X44.8424 Y37.5070 
G01 X44.8333 Y37.5070 
G01 X44.8196 Y37.5127 
G01 X44.8107 Y37.5127 
G01 X44.7969 Y37.5183 
G01 X44.7936 Y37.5183 
G01 X44.7798 Y37.5240 
G01 X44.7709 Y37.5240 
G01 X44.7571 Y37.5297 
G01 X44.7480 Y37.5297 
G01 X44.7343 Y37.5354 
G01 X44.7254 Y37.5354 
G01 X44.7116 Y37.5411 
G01 X44.7026 Y37.5411 
G01 X44.6889 Y37.5468 
G01 X44.6742 Y37.5468 
G01 X44.6604 Y37.5525 
G01 X44.6515 Y37.5525 
G01 X44.6377 Y37.5581 
G01 X44.6288 Y37.5581 
G01 X44.6150 Y37.5638 
G01 X44.6002 Y37.5638 
G01 X44.5865 Y37.5695 
G01 X44.5776 Y37.5695 
G01 X44.5638 Y37.5752 
G01 X44.5492 Y37.5752 
G01 X44.5354 Y37.5809 
G01 X44.5207 Y37.5809 
G01 X44.5069 Y37.5866 
G01 X44.4922 Y37.5866 
G01 X44.4785 Y37.5922 
G01 X44.4639 Y37.5922 
G01 X44.4501 Y37.5979 
G01 X44.4354 Y37.5979 
G01 X44.4217 Y37.6036 
G01 X44.4070 Y37.6036 
G01 X44.3932 Y37.6093 
G01 X44.3728 Y37.6093 
G01 X44.3591 Y37.6150 
G01 X44.3388 Y37.6150 
G01 X44.3250 Y37.6207 
G01 X44.3046 Y37.6207 
G01 X44.2909 Y37.6264 
G01 X44.2706 Y37.6264 
G01 X44.2568 Y37.6320 
G01 X44.2308 Y37.6320 
G01 X44.2170 Y37.6377 
G01 X44.1910 Y37.6377 
G01 X44.1772 Y37.6434 
G01 X44.1511 Y37.6434 
G01 X44.1374 Y37.6491 
G01 X44.1057 Y37.6491 
G01 X44.0919 Y37.6548 
G01 X43.9850 Y37.6548 
G01 X43.9574 Y37.6434 
G01 X43.9659 Y37.6748 
G01 X43.9659 Y37.7519 
G01 X43.9574 Y37.7833 
G01 X43.9850 Y37.7719 
G00 Z2.5400  
G00 X50.3754 Y31.8726 
G01 Z-0.0350 F254   
G01 X50.3844 Y31.8726 F508   
G01 X50.3981 Y31.8669 
G01 X50.4072 Y31.8669 
G01 X50.4188 Y31.8615 
G01 X50.4261 Y31.8541 
G01 X50.4304 Y31.8524 
G01 X50.4321 Y31.8481 
G01 X50.4387 Y31.8416 
G01 X50.4392 Y31.8372 
G01 X50.4449 Y31.8235 
G01 X50.4449 Y31.8088 
G01 X50.4498 Y31.7969 
G01 X50.4449 Y31.7850 
G01 X50.4449 Y31.7704 
G01 X50.4404 Y31.7596 
G01 X50.4378 Y31.7571 
G01 X50.4338 Y31.7474 
G01 X50.4264 Y31.7400 
G01 X50.4147 Y31.7340 
G01 X50.4034 Y31.7283 
G01 X50.3924 Y31.7270 
G01 X50.3787 Y31.7213 
G01 X50.3640 Y31.7213 
G01 X50.3503 Y31.7156 
G01 X50.2481 Y31.7156 
G01 X50.2481 Y31.8782 
G01 X50.3617 Y31.8782 
G01 X50.3754 Y31.8726 
G00 Z2.5400  
G00 X49.3786 Y31.3013 
G01 Z-0.0350 F254   
G01 X49.3797 Y31.3024 F508   
G01 X49.3958 Y31.3413 
G01 X49.6602 Y31.3438 
G01 X49.6703 Y31.3194 
G01 X49.6828 Y31.2907 
G01 X49.6408 Y31.3149 
G01 X49.5664 Y31.3349 
G01 X49.4893 Y31.3349 
G01 X49.4702 Y31.3297 
G01 X49.4148 Y31.3149 
G01 X49.3747 Y31.2917 
G01 X49.3786 Y31.3013 
G00 Z2.5400  
G00 X50.2481 Y31.2687 
G01 Z-0.0350 F254   
G01 X50.2481 Y31.3836 F508   
G01 X50.3339 Y31.3836 
G01 X50.3371 Y31.3803 
G01 X50.3411 Y31.3706 
G01 X50.3486 Y31.3632 
G01 X50.3525 Y31.3535 
G01 X50.3599 Y31.3462 
G01 X50.3639 Y31.3365 
G01 X50.3695 Y31.3309 
G01 X50.3752 Y31.3194 
G01 X50.3826 Y31.3120 
G01 X50.3866 Y31.3024 
G01 X50.3941 Y31.2950 
G01 X50.3980 Y31.2853 
G01 X50.4053 Y31.2781 
G01 X50.4093 Y31.2683 
G01 X50.4225 Y31.2552 
G01 X50.4264 Y31.2455 
G01 X50.4311 Y31.2409 
G01 X50.3879 Y31.2525 
G01 X50.3108 Y31.2525 
G01 X50.2717 Y31.2420 
G01 X50.2481 Y31.2357 
G01 X50.2481 Y31.2687 
G00 Z2.5400  
G00 X51.2885 Y31.2687 
G01 Z-0.0350 F254   
G01 X51.2885 Y31.2696 F508   
G01 X51.2946 Y31.2845 
G01 X51.3115 Y31.3241 
G01 X51.3287 Y31.3640 
G01 X51.3456 Y31.4037 
G01 X51.3681 Y31.4563 
G01 X51.3742 Y31.4720 
G01 X51.3911 Y31.5117 
G01 X51.4083 Y31.5516 
G01 X51.4252 Y31.5913 
G01 X51.4477 Y31.6439 
G01 X51.4538 Y31.6597 
G01 X51.4568 Y31.6656 
G01 X51.4568 Y31.2294 
G01 X51.4434 Y31.2330 
G01 X51.4027 Y31.2439 
G01 X51.3256 Y31.2439 
G01 X51.2865 Y31.2334 
G01 X51.2723 Y31.2296 
G01 X51.2885 Y31.2687 
G00 Z2.5400  
G00 X52.1486 Y31.8136 
G01 Z-0.0350 F254   
G01 X52.0970 Y31.8350 F508   
G01 X51.7945 Y31.8350 
G01 X51.7945 Y31.8782 
G01 X52.1425 Y31.8782 
G01 X52.1665 Y31.8882 
G01 X52.1573 Y31.8539 
G01 X52.1573 Y31.8049 
G01 X52.1486 Y31.8136 
G00 Z2.5400  
G00 X51.9967 Y33.1625 
G01 Z-0.0350 F254   
G01 X51.9895 Y33.1553 F508   
G01 X51.9855 Y33.1456 
G01 X51.9798 Y33.1342 
G01 X51.9741 Y33.1229 
G01 X51.9667 Y33.1155 
G01 X51.9626 Y33.1056 
G01 X51.9571 Y33.0944 
G01 X51.9497 Y33.0870 
G01 X51.9457 Y33.0773 
G01 X51.9400 Y33.0660 
G01 X51.9326 Y33.0586 
G01 X51.9286 Y33.0489 
G01 X51.9228 Y33.0374 
G01 X51.9173 Y33.0262 
G01 X51.9099 Y33.0188 
G01 X51.9059 Y33.0091 
G01 X51.9002 Y32.9978 
G01 X51.8928 Y32.9904 
G01 X51.8888 Y32.9807 
G01 X51.8790 Y32.9864 
G01 X51.8750 Y32.9961 
G01 X51.8693 Y33.0074 
G01 X51.8621 Y33.0147 
G01 X51.8580 Y33.0245 
G01 X51.8523 Y33.0359 
G01 X51.8449 Y33.0433 
G01 X51.8409 Y33.0529 
G01 X51.8352 Y33.0643 
G01 X51.8278 Y33.0717 
G01 X51.8238 Y33.0813 
G01 X51.8182 Y33.0927 
G01 X51.8108 Y33.1001 
G01 X51.8068 Y33.1098 
G01 X51.8011 Y33.1211 
G01 X51.7937 Y33.1285 
G01 X51.7897 Y33.1382 
G01 X51.7840 Y33.1496 
G01 X51.7785 Y33.1551 
G01 X51.7727 Y33.1666 
G01 X51.8246 Y33.1539 
G01 X51.8454 Y33.1484 
G01 X51.9225 Y33.1484 
G01 X51.9970 Y33.1683 
G01 X51.9998 Y33.1700 
G01 X51.9967 Y33.1625 
G00 Z2.5400  
G00 X48.9948 Y33.2344 
G01 Z-0.0350 F254   
G01 X48.9948 Y33.2328 F508   
G01 X48.9646 Y33.2630 
G01 X48.9589 Y33.2686 
G01 X48.9492 Y33.2727 
G01 X48.9442 Y33.2776 
G01 X48.9576 Y33.2776 
G01 X48.9904 Y33.2776 
G01 X48.9989 Y33.2776 
G01 X49.0144 Y33.2818 
G01 X48.9948 Y33.2344 
G00 Z2.5400  
G00 X89.3622 Y59.0851 
G01 Z-0.0350 F254   
G01 X89.2024 Y58.9785 F508   
G01 X89.2080 Y58.9898 
G01 X89.2118 Y59.0091 
G01 X89.2181 Y59.0277 
G01 X89.2194 Y59.0467 
G01 X89.2231 Y59.0654 
G01 X89.2218 Y59.0851 
G01 X89.2231 Y59.1047 
G01 X89.2194 Y59.1234 
G01 X89.2181 Y59.1424 
G01 X89.2118 Y59.1610 
G01 X89.2080 Y59.1803 
G01 X89.2024 Y59.1916 
G01 X89.3622 Y59.0851 
G00 Z2.5400  
G00 X89.4567 Y63.0075 
G01 Z-0.0350 F254   
G01 X89.4567 Y62.9358 F508   
G01 X89.4504 Y62.9467 
G01 X89.3959 Y63.0012 
G01 X89.3849 Y63.0075 
G01 X89.4567 Y63.0075 
G00 Z2.5400  
G00 X89.8137 Y63.3645 
G01 Z-0.0350 F254   
G01 X89.8137 Y63.4362 F508   
G01 X89.8200 Y63.4253 
G01 X89.8745 Y63.3708 
G01 X89.8854 Y63.3645 
G01 X89.8137 Y63.3645 
G00 Z2.5400  
G00 X89.8724 Y61.5569 
G01 Z-0.0350 F254   
G01 X90.0321 Y61.6634 F508   
G01 X90.0266 Y61.6521 
G01 X90.0227 Y61.6328 
G01 X90.0164 Y61.6142 
G01 X90.0152 Y61.5952 
G01 X90.0114 Y61.5765 
G01 X90.0127 Y61.5569 
G01 X90.0114 Y61.5372 
G01 X90.0152 Y61.5186 
G01 X90.0164 Y61.4996 
G01 X90.0227 Y61.4809 
G01 X90.0266 Y61.4616 
G01 X90.0321 Y61.4504 
G01 X89.8724 Y61.5569 
G00 Z2.5400  
G00 X21.1892 Y61.7889 
G01 Z-0.0350 F254   
G01 X21.1892 Y60.7941 F508   
G01 X21.2091 Y60.7460 
G01 X21.1829 Y60.7531 
G01 X21.1058 Y60.7531 
G01 X21.0830 Y60.7470 
G01 X21.0898 Y60.7707 
G01 X21.0995 Y60.7941 
G01 X21.0995 Y60.8046 
G01 X21.1023 Y60.8147 
G01 X21.0995 Y60.8398 
G01 X21.0995 Y61.7889 
G01 X21.0796 Y61.8369 
G01 X21.1058 Y61.8299 
G01 X21.1829 Y61.8299 
G01 X21.2091 Y61.8369 
G01 X21.1892 Y61.7889 
G00 Z2.5400  
G00 X20.2389 Y61.8122 
G01 Z-0.0350 F254   
G01 X20.2292 Y61.7889 F508   
G01 X20.2292 Y61.7784 
G01 X20.2263 Y61.7683 
G01 X20.2292 Y61.7431 
G01 X20.2292 Y60.7941 
G01 X20.2491 Y60.7460 
G01 X20.2229 Y60.7531 
G01 X20.1458 Y60.7531 
G01 X20.1196 Y60.7460 
G01 X20.1395 Y60.7941 
G01 X20.1395 Y61.3783 
G01 X20.1123 Y61.4439 
G01 X20.0621 Y61.4941 
G01 X19.9965 Y61.5213 
G01 X19.7715 Y61.5213 
G01 X19.7059 Y61.4941 
G01 X19.6557 Y61.4439 
G01 X19.6285 Y61.3783 
G01 X19.6285 Y61.3073 
G01 X19.6557 Y61.2417 
G01 X19.7059 Y61.1915 
G01 X19.7715 Y61.1643 
G01 X19.7825 Y61.1643 
G01 X19.7825 Y61.0081 
G01 X19.6530 Y61.0081 
G01 X19.6495 Y61.0083 
G01 X19.6428 Y61.0101 
G01 X19.6367 Y61.0136 
G01 X19.6318 Y61.0186 
G01 X19.6283 Y61.0246 
G01 X19.6265 Y61.0314 
G01 X19.6262 Y61.0349 
G01 X19.6262 Y61.5481 
G01 X19.6266 Y61.5523 
G01 X19.6292 Y61.5603 
G01 X19.6341 Y61.5670 
G01 X19.6409 Y61.5720 
G01 X19.6488 Y61.5746 
G01 X19.6530 Y61.5749 
G01 X19.9965 Y61.5749 
G01 X20.0621 Y61.6021 
G01 X20.1123 Y61.6523 
G01 X20.1395 Y61.7179 
G01 X20.1395 Y61.7889 
G01 X20.1196 Y61.8369 
G01 X20.1458 Y61.8299 
G01 X20.2229 Y61.8299 
G01 X20.2457 Y61.8360 
G01 X20.2389 Y61.8122 
G00 Z2.5400  
G00 X20.7425 Y61.7889 
G01 Z-0.0350 F254   
G01 X20.7425 Y61.5184 F508   
G01 X20.5687 Y61.8311 
G01 X20.5652 Y61.8398 
G01 X20.5698 Y61.8384 
G01 X20.6067 Y61.8279 
G01 X20.6415 Y61.8179 
G01 X20.6464 Y61.8172 
G01 X20.6825 Y61.8172 
G01 X20.7186 Y61.8167 
G01 X20.7235 Y61.8172 
G01 X20.7580 Y61.8265 
G01 X20.7425 Y61.7889 
G00 Z2.5400  
G00 X88.9738 Y61.1111 
G01 Z-0.0350 F254   
G01 X88.9640 Y61.1013 F508   
G01 X88.9642 Y61.1024 
G01 X88.9632 Y61.1181 
G01 X88.9738 Y61.1111 
G00 Z2.5400  
G00 X89.2672 Y60.5384 
G01 Z-0.0350 F254   
G01 X89.3389 Y60.5384 F508   
G01 X89.3280 Y60.5321 
G01 X89.2735 Y60.4776 
G01 X89.2672 Y60.4666 
G01 X89.2672 Y60.5384 
G00 Z2.5400  
G00 X89.2288 Y61.5569 
G01 Z-0.0350 F254   
G01 X89.0690 Y61.4504 F508   
G01 X89.0746 Y61.4616 
G01 X89.0784 Y61.4810 
G01 X89.0847 Y61.4996 
G01 X89.0860 Y61.5186 
G01 X89.0897 Y61.5372 
G01 X89.0884 Y61.5569 
G01 X89.0897 Y61.5765 
G01 X89.0860 Y61.5952 
G01 X89.0847 Y61.6142 
G01 X89.0784 Y61.6328 
G01 X89.0746 Y61.6521 
G01 X89.0690 Y61.6634 
G01 X89.2288 Y61.5569 
G00 Z2.5400  
G00 X90.0480 Y60.8954 
G01 Z-0.0350 F254   
G01 X89.2672 Y60.8954 F508   
G01 X89.2672 Y61.0090 
G01 X89.2400 Y61.0746 
G01 X89.2036 Y61.1110 
G01 X89.5506 Y61.3424 
G01 X89.9430 Y61.0807 
G01 X90.0127 Y61.0670 
G01 X90.0609 Y61.0766 
G01 X90.0586 Y61.0680 
G01 X90.0492 Y61.0404 
G01 X90.0486 Y61.0309 
G01 X90.0461 Y61.0217 
G01 X90.0461 Y60.9926 
G01 X90.0443 Y60.9635 
G01 X90.0461 Y60.9541 
G01 X90.0461 Y60.9445 
G01 X90.0537 Y60.9164 
G01 X90.0588 Y60.8909 
G01 X90.0480 Y60.8954 
G00 Z2.5400  
G00 X89.8137 Y63.0075 
G01 Z-0.0350 F254   
G01 X89.8854 Y63.0075 F508   
G01 X89.8745 Y63.0012 
G01 X89.8200 Y62.9467 
G01 X89.8137 Y62.9358 
G01 X89.8137 Y63.0075 
G00 Z2.5400  
G00 X89.2219 Y58.5951 
G01 Z-0.0350 F254   
G01 X89.2915 Y58.6089 F508   
G01 X89.6840 Y58.8705 
G01 X90.0736 Y58.6108 
G01 X89.8103 Y58.4791 
G01 X89.7163 Y58.5605 
G01 X89.6025 Y58.6125 
G01 X89.4787 Y58.6303 
G01 X89.3548 Y58.6125 
G01 X89.2410 Y58.5605 
G01 X89.1809 Y58.5084 
G01 X89.1802 Y58.5192 
G01 X89.1816 Y58.5328 
G01 X89.1777 Y58.5575 
G01 X89.1761 Y58.5824 
G01 X89.1717 Y58.5954 
G01 X89.1701 Y58.6055 
G01 X89.2219 Y58.5951 
G00 Z2.5400  
G00 X52.1941 Y32.1888 
G01 Z-0.0350 F254   
G01 X52.1425 Y32.2102 F508   
G01 X51.5692 Y32.2102 
G01 X51.5347 Y32.1959 
G01 X51.5001 Y32.2102 
G01 X51.3873 Y32.2102 
G01 X51.3357 Y32.1888 
G01 X51.3301 Y32.1831 
G01 X51.2905 Y32.1436 
G01 X51.2865 Y32.1340 
G01 X51.2687 Y32.0934 
G01 X51.2518 Y32.0537 
G01 X51.2294 Y32.0011 
G01 X51.2234 Y31.9855 
G01 X51.2063 Y31.9457 
G01 X51.1891 Y31.9057 
G01 X51.1722 Y31.8661 
G01 X51.1550 Y31.8262 
G01 X51.1328 Y31.7737 
G01 X51.1266 Y31.7579 
G01 X51.1097 Y31.7183 
G01 X51.1004 Y31.6975 
G01 X51.0852 Y31.7343 
G01 X51.0782 Y31.7498 
G01 X51.0568 Y31.8025 
G01 X51.0397 Y31.8423 
G01 X51.0227 Y31.8821 
G01 X51.0056 Y31.9219 
G01 X50.9885 Y31.9617 
G01 X50.9715 Y32.0015 
G01 X50.9645 Y32.0170 
G01 X50.9431 Y32.0697 
G01 X50.9260 Y32.1095 
G01 X50.9090 Y32.1493 
G01 X50.8695 Y32.1888 
G01 X50.8179 Y32.2102 
G01 X50.6994 Y32.2102 
G01 X50.6478 Y32.1888 
G01 X50.6083 Y32.1493 
G01 X50.5983 Y32.1530 
G01 X50.5869 Y32.1587 
G01 X50.5336 Y32.1818 
G01 X50.5052 Y32.1931 
G01 X50.5018 Y32.1931 
G01 X50.4881 Y32.1988 
G01 X50.4791 Y32.1988 
G01 X50.4654 Y32.2045 
G01 X50.4507 Y32.2045 
G01 X50.4370 Y32.2102 
G01 X50.0286 Y32.2102 
G01 X49.9770 Y32.1888 
G01 X49.9375 Y32.1493 
G01 X49.9162 Y32.0977 
G01 X49.9162 Y31.6108 
G01 X49.9027 Y31.6434 
G01 X49.8856 Y31.6832 
G01 X49.8800 Y31.6945 
G01 X49.8629 Y31.7343 
G01 X49.8572 Y31.7457 
G01 X49.8402 Y31.7855 
G01 X49.8231 Y31.8253 
G01 X49.8174 Y31.8366 
G01 X49.8004 Y31.8764 
G01 X49.7833 Y31.9162 
G01 X49.7776 Y31.9276 
G01 X49.7606 Y31.9674 
G01 X49.7435 Y32.0072 
G01 X49.7378 Y32.0186 
G01 X49.7208 Y32.0584 
G01 X49.7037 Y32.0982 
G01 X49.6980 Y32.1095 
G01 X49.6924 Y32.1209 
G01 X49.6867 Y32.1323 
G01 X49.6472 Y32.1718 
G01 X49.6415 Y32.1774 
G01 X49.5899 Y32.1988 
G01 X49.4658 Y32.1988 
G01 X49.4142 Y32.1774 
G01 X49.3747 Y32.1380 
G01 X49.3707 Y32.1283 
G01 X49.3650 Y32.1169 
G01 X49.3593 Y32.1055 
G01 X49.3536 Y32.0942 
G01 X49.3358 Y32.0536 
G01 X49.3189 Y32.0139 
G01 X49.3138 Y32.0032 
G01 X49.2960 Y31.9626 
G01 X49.2791 Y31.9230 
G01 X49.2740 Y31.9122 
G01 X49.2562 Y31.8716 
G01 X49.2393 Y31.8320 
G01 X49.2342 Y31.8213 
G01 X49.2164 Y31.7807 
G01 X49.1995 Y31.7411 
G01 X49.1944 Y31.7303 
G01 X49.1766 Y31.6897 
G01 X49.1680 Y31.6701 
G01 X49.1680 Y31.6884 
G01 X49.1466 Y31.7400 
G01 X49.1071 Y31.7795 
G01 X49.0555 Y31.8009 
G01 X49.0462 Y31.8009 
G01 X49.0787 Y31.8143 
G01 X49.1182 Y31.8538 
G01 X49.1466 Y31.8823 
G01 X49.1680 Y31.9339 
G01 X49.1680 Y32.0011 
G01 X49.1466 Y32.0527 
G01 X49.1071 Y32.0922 
G01 X49.1014 Y32.0979 
G01 X49.0957 Y32.1035 
G01 X49.0900 Y32.1092 
G01 X49.0804 Y32.1132 
G01 X49.0730 Y32.1206 
G01 X49.0673 Y32.1263 
G01 X49.0616 Y32.1320 
G01 X49.0520 Y32.1360 
G01 X49.0446 Y32.1433 
G01 X49.0348 Y32.1474 
G01 X49.0234 Y32.1531 
G01 X49.0121 Y32.1587 
G01 X49.0008 Y32.1644 
G01 X48.9893 Y32.1701 
G01 X48.9361 Y32.1931 
G01 X48.9327 Y32.1931 
G01 X48.9190 Y32.1988 
G01 X48.9157 Y32.1988 
G01 X48.9020 Y32.2045 
G01 X48.8930 Y32.2045 
G01 X48.8793 Y32.2102 
G01 X48.8645 Y32.2102 
G01 X48.8508 Y32.2159 
G01 X48.6528 Y32.2159 
G01 X48.6391 Y32.2102 
G01 X48.6187 Y32.2102 
G01 X48.6050 Y32.2045 
G01 X48.6016 Y32.2045 
G01 X48.5879 Y32.1988 
G01 X48.5789 Y32.1988 
G01 X48.5515 Y32.1875 
G01 X48.4989 Y32.1661 
G01 X48.4875 Y32.1604 
G01 X48.4761 Y32.1547 
G01 X48.4648 Y32.1490 
G01 X48.4534 Y32.1433 
G01 X48.4478 Y32.1377 
G01 X48.4363 Y32.1320 
G01 X48.4289 Y32.1246 
G01 X48.4193 Y32.1206 
G01 X48.4137 Y32.1149 
G01 X48.4080 Y32.1092 
G01 X48.4023 Y32.1036 
G01 X48.3909 Y32.0979 
G01 X48.3853 Y32.0922 
G01 X48.3796 Y32.0865 
G01 X48.3739 Y32.0808 
G01 X48.3682 Y32.0751 
G01 X48.3286 Y32.0356 
G01 X48.3246 Y32.0260 
G01 X48.3172 Y32.0186 
G01 X48.3002 Y32.0015 
G01 X48.2963 Y31.9919 
G01 X48.2888 Y31.9845 
G01 X48.2848 Y31.9748 
G01 X48.2774 Y31.9674 
G01 X48.2734 Y31.9576 
G01 X48.2678 Y31.9464 
G01 X48.2621 Y31.9350 
G01 X48.2564 Y31.9236 
G01 X48.2334 Y31.8703 
G01 X48.2334 Y31.8670 
G01 X48.2277 Y31.8533 
G01 X48.2277 Y31.8500 
G01 X48.2220 Y31.8362 
G01 X48.2220 Y31.8327 
G01 X48.2164 Y31.8192 
G01 X48.2164 Y31.8102 
G01 X48.2107 Y31.7964 
G01 X48.2107 Y31.7818 
G01 X48.2050 Y31.7680 
G01 X48.2050 Y31.7249 
G01 X48.1993 Y31.7111 
G01 X48.1993 Y31.6155 
G01 X48.2050 Y31.6017 
G01 X48.2050 Y31.5586 
G01 X48.2107 Y31.5449 
G01 X48.2107 Y31.5302 
G01 X48.2164 Y31.5165 
G01 X48.2164 Y31.5075 
G01 X48.2220 Y31.4940 
G01 X48.2220 Y31.4904 
G01 X48.2277 Y31.4767 
G01 X48.2277 Y31.4734 
G01 X48.2380 Y31.4484 
G01 X47.9798 Y31.4484 
G01 X47.9798 Y32.0977 
G01 X47.9584 Y32.1493 
G01 X47.9189 Y32.1888 
G01 X47.8673 Y32.2102 
G01 X47.7546 Y32.2102 
G01 X47.7030 Y32.1888 
G01 X47.6635 Y32.1493 
G01 X47.6422 Y32.0977 
G01 X47.6422 Y31.6189 
G01 X47.6344 Y31.6377 
G01 X47.6287 Y31.6490 
G01 X47.6116 Y31.6888 
G01 X47.5946 Y31.7286 
G01 X47.5889 Y31.7400 
G01 X47.5718 Y31.7798 
G01 X47.5661 Y31.7912 
G01 X47.5491 Y31.8310 
G01 X47.5320 Y31.8708 
G01 X47.5264 Y31.8821 
G01 X47.5093 Y31.9219 
G01 X47.4922 Y31.9617 
G01 X47.4866 Y31.9731 
G01 X47.4695 Y32.0129 
G01 X47.4524 Y32.0527 
G01 X47.4468 Y32.0641 
G01 X47.4297 Y32.1038 
G01 X47.4127 Y32.1436 
G01 X47.3732 Y32.1831 
G01 X47.3675 Y32.1888 
G01 X47.3159 Y32.2102 
G01 X47.1974 Y32.2102 
G01 X47.1458 Y32.1888 
G01 X47.1063 Y32.1493 
G01 X47.0902 Y32.1104 
G01 X47.0853 Y32.0999 
G01 X47.0676 Y32.0594 
G01 X47.0633 Y32.0504 
G01 X47.0633 Y32.0899 
G01 X47.0433 Y32.1653 
G01 X47.0048 Y32.2321 
G01 X46.9503 Y32.2866 
G01 X46.9393 Y32.2929 
G01 X46.9516 Y32.2929 
G01 X47.0032 Y32.3143 
G01 X47.0427 Y32.3538 
G01 X47.0641 Y32.4054 
G01 X47.0641 Y32.5885 
G01 X47.2579 Y32.5885 
G01 X47.2555 Y32.5828 
G01 X47.2498 Y32.5714 
G01 X47.2320 Y32.5308 
G01 X47.2271 Y32.5202 
G01 X47.2040 Y32.4669 
G01 X47.2040 Y32.4054 
G01 X47.2254 Y32.3538 
G01 X47.2649 Y32.3143 
G01 X47.3165 Y32.2929 
G01 X47.5201 Y32.2929 
G01 X47.5717 Y32.3143 
G01 X47.5774 Y32.3200 
G01 X47.6169 Y32.3595 
G01 X47.6209 Y32.3691 
G01 X47.6266 Y32.3805 
G01 X47.6497 Y32.4338 
G01 X47.6557 Y32.4494 
G01 X47.6668 Y32.4748 
G01 X47.8624 Y32.4748 
G01 X47.8678 Y32.4618 
G01 X47.8849 Y32.4220 
G01 X47.8906 Y32.4106 
G01 X47.9076 Y32.3708 
G01 X47.9133 Y32.3595 
G01 X47.9528 Y32.3200 
G01 X47.9585 Y32.3143 
G01 X48.0101 Y32.2929 
G01 X48.2137 Y32.2929 
G01 X48.2370 Y32.3025 
G01 X48.2602 Y32.2929 
G01 X48.7765 Y32.2929 
G01 X48.7903 Y32.2986 
G01 X48.8106 Y32.2986 
G01 X48.8243 Y32.3043 
G01 X48.8391 Y32.3043 
G01 X48.8529 Y32.3100 
G01 X48.8618 Y32.3100 
G01 X48.8893 Y32.3213 
G01 X48.9418 Y32.3427 
G01 X48.9532 Y32.3484 
G01 X48.9646 Y32.3541 
G01 X48.9759 Y32.3598 
G01 X48.9816 Y32.3654 
G01 X48.9873 Y32.3711 
G01 X48.9987 Y32.3768 
G01 X49.0043 Y32.3824 
G01 X49.0162 Y32.3538 
G01 X49.0557 Y32.3143 
G01 X49.1073 Y32.2929 
G01 X49.3052 Y32.2929 
G01 X49.3568 Y32.3143 
G01 X49.3963 Y32.3538 
G01 X49.4177 Y32.4054 
G01 X49.4177 Y32.5885 
G01 X49.6148 Y32.5885 
G01 X49.5970 Y32.5478 
G01 X49.5921 Y32.5373 
G01 X49.5864 Y32.5259 
G01 X49.5633 Y32.4726 
G01 X49.5633 Y32.4054 
G01 X49.5847 Y32.3538 
G01 X49.6242 Y32.3143 
G01 X49.6758 Y32.2929 
G01 X49.8794 Y32.2929 
G01 X49.9310 Y32.3143 
G01 X49.9705 Y32.3538 
G01 X49.9745 Y32.3635 
G01 X49.9802 Y32.3748 
G01 X49.9859 Y32.3862 
G01 X50.0090 Y32.4395 
G01 X50.0150 Y32.4551 
G01 X50.0238 Y32.4748 
G01 X50.2193 Y32.4748 
G01 X50.2271 Y32.4561 
G01 X50.2442 Y32.4163 
G01 X50.2499 Y32.4049 
G01 X50.2669 Y32.3651 
G01 X50.2726 Y32.3538 
G01 X50.3121 Y32.3143 
G01 X50.3637 Y32.2929 
G01 X50.5730 Y32.2929 
G01 X50.5963 Y32.3025 
G01 X50.6195 Y32.2929 
G01 X50.8174 Y32.2929 
G01 X50.8690 Y32.3143 
G01 X50.9085 Y32.3538 
G01 X50.9299 Y32.4054 
G01 X50.9299 Y32.5012 
G01 X50.9321 Y32.4959 
G01 X50.9376 Y32.4904 
G01 X50.9434 Y32.4789 
G01 X50.9565 Y32.4657 
G01 X50.9605 Y32.4561 
G01 X50.9679 Y32.4487 
G01 X50.9719 Y32.4391 
G01 X50.9774 Y32.4335 
G01 X50.9832 Y32.4220 
G01 X50.9963 Y32.4089 
G01 X51.0003 Y32.3993 
G01 X51.0077 Y32.3919 
G01 X51.0117 Y32.3822 
G01 X51.0172 Y32.3767 
G01 X51.0230 Y32.3651 
G01 X51.0625 Y32.3257 
G01 X51.0682 Y32.3200 
G01 X51.0739 Y32.3143 
G01 X51.1255 Y32.2929 
G01 X51.3348 Y32.2929 
G01 X51.3837 Y32.3131 
G01 X51.4325 Y32.2929 
G01 X51.6247 Y32.2929 
G01 X51.6763 Y32.3143 
G01 X51.7158 Y32.3538 
G01 X51.7372 Y32.4054 
G01 X51.7372 Y32.4355 
G01 X51.7675 Y32.4053 
G01 X51.8191 Y32.3839 
G01 X51.9488 Y32.3839 
G01 X52.0004 Y32.4053 
G01 X52.0061 Y32.4109 
G01 X52.0363 Y32.4411 
G01 X52.0363 Y32.4054 
G01 X52.0577 Y32.3538 
G01 X52.0972 Y32.3143 
G01 X52.1488 Y32.2929 
G01 X52.2918 Y32.2929 
G01 X52.2632 Y32.2643 
G01 X52.2455 Y32.2350 
G01 X52.2227 Y32.1956 
G01 X52.2152 Y32.1677 
G01 X52.1941 Y32.1888 
G00 Z2.5400  
G00 X47.5682 Y33.2763 
G01 Z-0.0350 F254   
G01 X47.5665 Y33.2746 F508   
G01 X47.5625 Y33.2650 
G01 X47.5568 Y33.2536 
G01 X47.5390 Y33.2130 
G01 X47.5341 Y33.2024 
G01 X47.5163 Y33.1620 
G01 X47.5112 Y33.1511 
G01 X47.5057 Y33.1399 
G01 X47.4879 Y33.0994 
G01 X47.4848 Y33.0934 
G01 X47.4848 Y33.2344 
G01 X47.4647 Y33.2830 
G01 X47.4792 Y33.2791 
G01 X47.5173 Y33.2791 
G01 X47.5563 Y33.2791 
G01 X47.5709 Y33.2830 
G01 X47.5682 Y33.2763 
G00 Z2.5400  
G00 X48.1477 Y33.2344 
G01 Z-0.0350 F254   
G01 X48.1477 Y32.8717 F508   
G01 X48.1456 Y32.8767 
G01 X48.1399 Y32.8881 
G01 X48.1229 Y32.9278 
G01 X48.1172 Y32.9392 
G01 X48.1115 Y32.9506 
G01 X48.0944 Y32.9904 
G01 X48.0888 Y33.0018 
G01 X48.0831 Y33.0131 
G01 X48.0660 Y33.0529 
G01 X48.0603 Y33.0643 
G01 X48.0433 Y33.1041 
G01 X48.0376 Y33.1155 
G01 X48.0319 Y33.1268 
G01 X48.0149 Y33.1666 
G01 X48.0092 Y33.1780 
G01 X48.0035 Y33.1894 
G01 X47.9864 Y33.2292 
G01 X47.9811 Y33.2397 
G01 X48.0250 Y33.2279 
G01 X48.1021 Y33.2279 
G01 X48.1416 Y33.2385 
G01 X48.1504 Y33.2409 
G01 X48.1477 Y33.2344 
G00 Z2.5400  
G00 X49.9258 Y33.2803 
G01 Z-0.0350 F254   
G01 X49.9218 Y33.2706 F508   
G01 X49.9201 Y33.2690 
G01 X49.9040 Y33.2300 
G01 X49.8991 Y33.2195 
G01 X49.8934 Y33.2081 
G01 X49.8756 Y33.1677 
G01 X49.8705 Y33.1568 
G01 X49.8529 Y33.1165 
G01 X49.8479 Y33.1058 
G01 X49.8441 Y33.0991 
G01 X49.8441 Y33.2344 
G01 X49.8240 Y33.2830 
G01 X49.8385 Y33.2791 
G01 X49.8770 Y33.2791 
G01 X49.9156 Y33.2791 
G01 X49.9278 Y33.2824 
G00 Z2.5400  
G00 X50.5070 Y33.2344 
G01 Z-0.0350 F254   
G01 X50.5070 Y32.8660 F508   
G01 X50.5049 Y32.8710 
G01 X50.4992 Y32.8824 
G01 X50.4822 Y32.9222 
G01 X50.4765 Y32.9335 
G01 X50.4708 Y32.9449 
G01 X50.4537 Y32.9847 
G01 X50.4481 Y32.9961 
G01 X50.4310 Y33.0359 
G01 X50.4253 Y33.0472 
G01 X50.4196 Y33.0586 
G01 X50.4026 Y33.0984 
G01 X50.3969 Y33.1098 
G01 X50.3912 Y33.1211 
G01 X50.3742 Y33.1609 
G01 X50.3685 Y33.1723 
G01 X50.3514 Y33.2121 
G01 X50.3457 Y33.2235 
G01 X50.3400 Y33.2348 
G01 X50.3371 Y33.2406 
G01 X50.3435 Y33.2389 
G01 X50.3843 Y33.2279 
G01 X50.4614 Y33.2279 
G01 X50.5005 Y33.2384 
G01 X50.5097 Y33.2409 
G01 X50.5070 Y33.2344 
G00 Z2.5400  
G00 X51.3200 Y33.2344 
G01 Z-0.0350 F254   
G01 X51.3200 Y33.2271 F508   
G01 X51.3182 Y33.2289 
G01 X51.3125 Y33.2345 
G01 X51.3068 Y33.2402 
G01 X51.3011 Y33.2459 
G01 X51.2954 Y33.2516 
G01 X51.2897 Y33.2573 
G01 X51.2801 Y33.2613 
G01 X51.2727 Y33.2686 
G01 X51.2694 Y33.2719 
G01 X51.2769 Y33.2719 
G01 X51.3156 Y33.2719 
G01 X51.3184 Y33.2719 
G01 X51.3377 Y33.2771 
G01 X51.3200 Y33.2344 
G00 Z2.5400  
G00 X52.1595 Y31.4484 
G01 Z-0.0350 F254   
G01 X51.7945 Y31.4484 F508   
G01 X51.7945 Y31.5030 
G01 X52.0970 Y31.5030 
G01 X52.1486 Y31.5244 
G01 X52.1573 Y31.5331 
G01 X52.1573 Y31.4898 
G01 X52.1695 Y31.4443 
G01 X52.1595 Y31.4484 
G00 Z2.5400  
G00 X50.7939 Y31.2289 
G01 Z-0.0350 F254   
G01 X50.7939 Y31.2961 F508   
G01 X50.7725 Y31.3477 
G01 X50.7651 Y31.3551 
G01 X50.7611 Y31.3648 
G01 X50.7556 Y31.3703 
G01 X50.7498 Y31.3818 
G01 X50.7424 Y31.3892 
G01 X50.7384 Y31.3989 
G01 X50.7310 Y31.4063 
G01 X50.7270 Y31.4160 
G01 X50.7198 Y31.4232 
G01 X50.7157 Y31.4330 
G01 X50.7026 Y31.4461 
G01 X50.6986 Y31.4558 
G01 X50.6912 Y31.4632 
G01 X50.6872 Y31.4728 
G01 X50.6817 Y31.4783 
G01 X50.6759 Y31.4899 
G01 X50.6685 Y31.4973 
G01 X50.6816 Y31.5127 
G01 X50.7157 Y31.5468 
G01 X50.7198 Y31.5567 
G01 X50.7270 Y31.5639 
G01 X50.7310 Y31.5736 
G01 X50.7384 Y31.5809 
G01 X50.7572 Y31.6263 
G01 X50.7618 Y31.6151 
G01 X50.7789 Y31.5753 
G01 X50.7959 Y31.5355 
G01 X50.8130 Y31.4957 
G01 X50.8201 Y31.4800 
G01 X50.8414 Y31.4274 
G01 X50.8585 Y31.3877 
G01 X50.8755 Y31.3479 
G01 X50.8926 Y31.3081 
G01 X50.8997 Y31.2924 
G01 X50.9210 Y31.2398 
G01 X50.9345 Y31.2090 
G01 X50.8995 Y31.2183 
G01 X50.8224 Y31.2183 
G01 X50.7854 Y31.2084 
G01 X50.7939 Y31.2289 
G00 Z2.5400  
G00 X49.0218 Y31.1719 
G01 Z-0.0350 F254   
G01 X49.0234 Y31.1736 F508   
G01 X49.0293 Y31.1760 
G01 X49.0366 Y31.1686 
G01 X49.0138 Y31.1686 
G01 X49.0218 Y31.1719 
G00 Z2.5400  
G00 X48.4075 Y31.1773 
G01 Z-0.0350 F254   
G01 X48.4206 Y31.2089 F508   
G01 X48.4234 Y31.2077 
G01 X48.4307 Y31.2004 
G01 X48.4403 Y31.1964 
G01 X48.4477 Y31.1890 
G01 X48.4575 Y31.1850 
G01 X48.4671 Y31.1800 
G01 X48.4191 Y31.1800 
G01 X48.4069 Y31.1767 
G00 Z2.5400  
G00 X47.1104 Y31.3072 
G01 Z-0.0350 F254   
G01 X47.1113 Y31.3081 F508   
G01 X47.1261 Y31.3438 
G01 X47.3896 Y31.3438 
G01 X47.4020 Y31.3137 
G01 X47.4114 Y31.2925 
G01 X47.3725 Y31.3149 
